; generated by Slic3r 1.3.0 on 2020-09-17 at 00:20:26

; external perimeters extrusion width = 0.44mm (4.06mm^3/s)
; perimeters extrusion width = 0.48mm (5.03mm^3/s)
; infill extrusion width = 0.48mm (5.03mm^3/s)
; solid infill extrusion width = 0.48mm (3.77mm^3/s)
; top infill extrusion width = 0.48mm (3.77mm^3/s)

M107
;D3D:START:START
T0
M104 S215 T0

G21
G90
M107
T0
G28
G29
M109 T0 S215 T0
G0 F3000
M107
T0
G92 E0
G0 X0 Y149 Z0.1 F3600
G1 Y49 E6.5 F1200
G0 Z1
G92 E0
; Filament gcode

G21 ; set units to millimeters
G90 ; use absolute coordinates
M82 ; use absolute distances for extrusion
G92 E0
G1 Z0.300 F7800.000
G1 E-2.00000 F2400.00000
G92 E0
G1 X92.323 Y90.363 F7800.000
G1 E2.00000 F2400.00000
G1 F1800
G1 X97.677 Y90.363 E2.17737
G1 X100.354 Y95.000 E2.35475
G1 X97.677 Y99.637 E2.53212
G1 X92.323 Y99.637 E2.70949
G1 X89.646 Y95.000 E2.88687
G1 X92.293 Y90.415 E3.06225
G1 X92.476 Y90.629 F7800.000
G1 F1800
G1 X97.524 Y90.629 E3.22946
G1 X100.047 Y95.000 E3.39668
G1 X97.524 Y99.371 E3.56389
G1 X92.476 Y99.371 E3.73110
G1 X89.953 Y95.000 E3.89831
G1 X92.446 Y90.681 E4.06354
G1 X92.630 Y90.895 F7800.000
G1 F1800
G1 X97.370 Y90.895 E4.22059
G1 X99.741 Y95.000 E4.37764
G1 X97.370 Y99.105 E4.53469
G1 X92.630 Y99.105 E4.69174
G1 X90.259 Y95.000 E4.84879
G1 X92.600 Y90.947 E5.00386
G1 X92.630 Y90.495 F7800.000
G1 E3.00386 F2400.00000
G92 E0
G1 X91.037 Y88.843 F7800.000
G1 E2.00000 F2400.00000
G1 F1800
G1 X91.916 Y88.256 E2.03503
G1 X92.095 Y87.988 E2.04572
G1 X92.412 Y88.051 E2.05640
G1 X93.449 Y87.844 E2.09143
G1 X93.960 Y87.503 E2.11179
G1 X95.000 Y87.710 E2.14693
G1 X96.040 Y87.503 E2.18207
G1 X96.551 Y87.844 E2.20242
G1 X97.588 Y88.051 E2.23745
G1 X97.905 Y87.988 E2.24814
G1 X98.084 Y88.256 E2.25883
G1 X98.963 Y88.843 E2.29386
G1 X99.566 Y88.963 E2.31421
G1 X100.155 Y89.845 E2.34935
G1 X101.037 Y90.434 E2.38449
G1 X101.157 Y91.037 E2.40485
G1 X101.744 Y91.916 E2.43987
G1 X102.012 Y92.095 E2.45056
G1 X101.949 Y92.412 E2.46125
G1 X102.156 Y93.449 E2.49628
G1 X102.497 Y93.960 E2.51663
G1 X102.290 Y95.000 E2.55177
G1 X102.497 Y96.040 E2.58691
G1 X102.156 Y96.551 E2.60727
G1 X101.949 Y97.588 E2.64230
G1 X102.012 Y97.905 E2.65298
G1 X101.744 Y98.084 E2.66367
G1 X101.157 Y98.963 E2.69870
G1 X101.037 Y99.566 E2.71906
G1 X100.155 Y100.155 E2.75420
G1 X99.566 Y101.037 E2.78934
G1 X98.963 Y101.157 E2.80969
G1 X98.084 Y101.744 E2.84472
G1 X97.905 Y102.012 E2.85541
G1 X97.588 Y101.949 E2.86610
G1 X96.551 Y102.156 E2.90112
G1 X96.040 Y102.497 E2.92148
G1 X95.000 Y102.290 E2.95662
G1 X93.960 Y102.497 E2.99176
G1 X93.449 Y102.156 E3.01211
G1 X92.412 Y101.949 E3.04714
G1 X92.095 Y102.012 E3.05783
G1 X91.916 Y101.744 E3.06852
G1 X91.037 Y101.157 E3.10355
G1 X90.434 Y101.037 E3.12390
G1 X89.845 Y100.155 E3.15904
G1 X88.963 Y99.566 E3.19418
G1 X88.843 Y98.963 E3.21454
G1 X88.256 Y98.084 E3.24956
G1 X87.988 Y97.905 E3.26026
G1 X88.051 Y97.588 E3.27094
G1 X87.844 Y96.551 E3.30597
G1 X87.503 Y96.040 E3.32633
G1 X87.710 Y95.000 E3.36147
G1 X87.503 Y93.960 E3.39660
G1 X87.844 Y93.449 E3.41696
G1 X88.051 Y92.412 E3.45199
G1 X87.988 Y92.095 E3.46267
G1 X88.256 Y91.916 E3.47337
G1 X88.843 Y91.037 E3.50839
G1 X88.963 Y90.434 E3.52875
G1 X89.845 Y89.845 E3.56389
G1 X90.434 Y88.963 E3.59903
G1 X90.978 Y88.855 E3.61740
G1 X90.933 Y88.593 F7800.000
G1 F1800
G1 X91.725 Y88.064 E3.64892
G1 X91.973 Y87.693 E3.66374
G1 X92.412 Y87.780 E3.67856
G1 X93.345 Y87.594 E3.71009
G1 X93.961 Y87.183 E3.73462
G1 X94.067 Y87.253 E3.73883
G1 X95.000 Y87.439 E3.77036
G1 X95.933 Y87.253 E3.80189
G1 X96.039 Y87.183 E3.80610
G1 X96.655 Y87.594 E3.83063
G1 X97.588 Y87.780 E3.86216
G1 X98.027 Y87.693 E3.87697
G1 X98.275 Y88.064 E3.89179
G1 X99.067 Y88.593 E3.92332
G1 X99.793 Y88.738 E3.94785
G1 X99.818 Y88.862 E3.95207
G1 X100.346 Y89.654 E3.98359
G1 X101.138 Y90.182 E4.01512
G1 X101.262 Y90.207 E4.01934
G1 X101.407 Y90.933 E4.04387
G1 X101.936 Y91.725 E4.07539
G1 X102.307 Y91.973 E4.09021
G1 X102.220 Y92.412 E4.10503
G1 X102.406 Y93.345 E4.13656
G1 X102.817 Y93.961 E4.16109
G1 X102.747 Y94.067 E4.16530
G1 X102.561 Y95.000 E4.19683
G1 X102.747 Y95.933 E4.22836
G1 X102.817 Y96.039 E4.23257
G1 X102.406 Y96.655 E4.25710
G1 X102.220 Y97.588 E4.28863
G1 X102.307 Y98.027 E4.30345
G1 X101.936 Y98.275 E4.31827
G1 X101.407 Y99.067 E4.34979
G1 X101.262 Y99.793 E4.37432
G1 X101.138 Y99.818 E4.37854
G1 X100.346 Y100.346 E4.41007
G1 X99.818 Y101.138 E4.44159
G1 X99.793 Y101.262 E4.44581
G1 X99.067 Y101.407 E4.47034
G1 X98.275 Y101.936 E4.50187
G1 X98.027 Y102.307 E4.51669
G1 X97.588 Y102.220 E4.53150
G1 X96.655 Y102.406 E4.56303
G1 X96.039 Y102.817 E4.58756
G1 X95.933 Y102.747 E4.59177
G1 X95.000 Y102.561 E4.62330
G1 X94.067 Y102.747 E4.65483
G1 X93.961 Y102.817 E4.65904
G1 X93.345 Y102.406 E4.68357
G1 X92.412 Y102.220 E4.71510
G1 X91.973 Y102.307 E4.72992
G1 X91.725 Y101.936 E4.74474
G1 X90.933 Y101.407 E4.77626
G1 X90.207 Y101.262 E4.80080
G1 X90.182 Y101.138 E4.80501
G1 X89.654 Y100.346 E4.83654
G1 X88.862 Y99.818 E4.86807
G1 X88.738 Y99.793 E4.87228
G1 X88.593 Y99.067 E4.89681
G1 X88.064 Y98.275 E4.92834
G1 X87.693 Y98.027 E4.94316
G1 X87.780 Y97.588 E4.95797
G1 X87.594 Y96.655 E4.98950
G1 X87.183 Y96.039 E5.01403
G1 X87.253 Y95.933 E5.01824
G1 X87.439 Y95.000 E5.04977
G1 X87.253 Y94.067 E5.08130
G1 X87.183 Y93.961 E5.08552
G1 X87.594 Y93.345 E5.11005
G1 X87.780 Y92.412 E5.14157
G1 X87.693 Y91.973 E5.15639
G1 X88.064 Y91.725 E5.17121
G1 X88.593 Y90.933 E5.20274
G1 X88.738 Y90.207 E5.22727
G1 X88.862 Y90.182 E5.23148
G1 X89.654 Y89.654 E5.26301
G1 X90.182 Y88.862 E5.29454
G1 X90.207 Y88.738 E5.29875
G1 X90.875 Y88.605 E5.32130
G1 X90.830 Y88.343 F7800.000
G1 F1800
G1 X91.533 Y87.873 E5.34932
G1 X91.851 Y87.397 E5.36827
G1 X92.412 Y87.509 E5.38722
G1 X93.242 Y87.344 E5.41524
G1 X93.961 Y86.863 E5.44390
G1 X94.170 Y87.003 E5.45224
G1 X95.000 Y87.168 E5.48027
G1 X95.830 Y87.003 E5.50830
G1 X96.039 Y86.863 E5.51664
G1 X96.758 Y87.344 E5.54530
G1 X97.588 Y87.509 E5.57333
G1 X98.149 Y87.397 E5.59228
G1 X98.467 Y87.873 E5.61122
G1 X99.170 Y88.343 E5.63925
G1 X100.019 Y88.512 E5.66791
G1 X100.068 Y88.759 E5.67626
G1 X100.538 Y89.462 E5.70428
G1 X101.241 Y89.932 E5.73231
G1 X101.488 Y89.981 E5.74065
G1 X101.657 Y90.830 E5.76932
G1 X102.127 Y91.533 E5.79734
G1 X102.603 Y91.851 E5.81629
G1 X102.491 Y92.412 E5.83524
G1 X102.656 Y93.242 E5.86326
G1 X103.137 Y93.961 E5.89192
G1 X102.997 Y94.170 E5.90026
G1 X102.832 Y95.000 E5.92829
G1 X102.997 Y95.830 E5.95632
G1 X103.137 Y96.039 E5.96466
G1 X102.656 Y96.758 E5.99332
G1 X102.491 Y97.588 E6.02135
G1 X102.603 Y98.149 E6.04030
G1 X102.127 Y98.467 E6.05924
G1 X101.657 Y99.170 E6.08727
G1 X101.488 Y100.019 E6.11593
G1 X101.241 Y100.068 E6.12428
G1 X100.538 Y100.538 E6.15230
G1 X100.068 Y101.241 E6.18033
G1 X100.019 Y101.488 E6.18867
G1 X99.170 Y101.657 E6.21734
G1 X98.467 Y102.127 E6.24536
G1 X98.149 Y102.603 E6.26431
G1 X97.588 Y102.491 E6.28326
G1 X96.758 Y102.656 E6.31128
G1 X96.039 Y103.137 E6.33994
G1 X95.830 Y102.997 E6.34828
G1 X95.000 Y102.832 E6.37631
G1 X94.170 Y102.997 E6.40434
G1 X93.961 Y103.137 E6.41268
G1 X93.242 Y102.656 E6.44134
G1 X92.412 Y102.491 E6.46937
G1 X91.851 Y102.603 E6.48832
G1 X91.533 Y102.127 E6.50726
G1 X90.830 Y101.657 E6.53529
G1 X89.981 Y101.488 E6.56395
G1 X89.932 Y101.241 E6.57230
G1 X89.462 Y100.538 E6.60032
G1 X88.759 Y100.068 E6.62835
G1 X88.512 Y100.019 E6.63669
G1 X88.343 Y99.170 E6.66536
G1 X87.873 Y98.467 E6.69338
G1 X87.397 Y98.149 E6.71233
G1 X87.509 Y97.588 E6.73128
G1 X87.344 Y96.758 E6.75930
G1 X86.863 Y96.039 E6.78796
G1 X87.003 Y95.830 E6.79630
G1 X87.168 Y95.000 E6.82433
G1 X87.003 Y94.170 E6.85236
G1 X86.863 Y93.961 E6.86070
G1 X87.344 Y93.242 E6.88936
G1 X87.509 Y92.412 E6.91739
G1 X87.397 Y91.851 E6.93634
G1 X87.873 Y91.533 E6.95528
G1 X88.343 Y90.830 E6.98331
G1 X88.512 Y89.981 E7.01197
G1 X88.759 Y89.932 E7.02032
G1 X89.462 Y89.462 E7.04834
G1 X89.932 Y88.759 E7.07637
G1 X89.981 Y88.512 E7.08471
G1 X90.771 Y88.355 E7.11139
G1 X91.179 Y88.538 F7800.000
G1 X90.698 Y89.099 F7800.000
G1 F1800
G1 X90.140 Y89.933 E7.14484
G1 X89.306 Y90.490 E7.17826
G1 X89.099 Y90.698 E7.18803
G1 X89.005 Y91.169 E7.20406
G1 X91.169 Y89.005 E7.30607
G1 X91.244 Y88.990 E7.30861
G1 X92.203 Y88.350 E7.34703
G1 X88.188 Y92.364 E7.53626
G1 X88.218 Y92.515 E7.54139
G1 X88.169 Y92.761 E7.54974
G1 X92.761 Y88.169 E7.76618
G1 X93.233 Y88.075 E7.78221
G1 X88.075 Y93.233 E8.02531
G1 X87.991 Y93.656 E8.03968
G1 X87.913 Y93.773 E8.04440
G1 X93.773 Y87.913 E8.32065
G1 X94.119 Y87.682 E8.33450
G1 X94.339 Y87.725 E8.34196
G1 X87.725 Y94.339 E8.65368
G1 X87.788 Y94.654 E8.66439
G1 X91.828 Y90.614 E8.85482
G1 X92.066 Y90.201 E8.87071
G1 X92.241 Y90.201 E8.87652
G1 X94.654 Y87.788 E8.99026
G1 X94.969 Y87.851 E9.00097
G1 X92.619 Y90.201 E9.11176
G1 X92.997 Y90.201 E9.12435
G1 X95.374 Y87.823 E9.23642
G1 X95.846 Y87.730 E9.25245
G1 X93.375 Y90.201 E9.36893
G1 X93.752 Y90.201 E9.38153
G1 X96.198 Y87.755 E9.49680
G1 X96.425 Y87.907 E9.50588
G1 X94.130 Y90.201 E9.61402
G1 X94.508 Y90.201 E9.62661
G1 X96.690 Y88.019 E9.72947
G1 X97.006 Y88.082 E9.74018
G1 X94.886 Y90.201 E9.84008
G1 X95.264 Y90.201 E9.85267
G1 X97.321 Y88.144 E9.94961
G1 X97.636 Y88.207 E9.96033
G1 X95.642 Y90.201 E10.05431
G1 X96.020 Y90.201 E10.06691
G1 X97.948 Y88.273 E10.15779
G1 X97.996 Y88.344 E10.16065
G1 X98.151 Y88.448 E10.16687
G1 X96.398 Y90.201 E10.24951
G1 X96.776 Y90.201 E10.26210
G1 X98.377 Y88.599 E10.33761
G1 X98.604 Y88.751 E10.34669
G1 X97.154 Y90.201 E10.41505
G1 X97.532 Y90.201 E10.42765
G1 X98.831 Y88.902 E10.48888
G1 X98.963 Y88.990 E10.49417
G1 X99.094 Y89.016 E10.49864
G1 X97.794 Y90.317 E10.55993
G1 X97.932 Y90.556 E10.56915
G1 X99.409 Y89.079 E10.63878
G1 X99.509 Y89.099 E10.64217
G1 X99.613 Y89.254 E10.64838
G1 X98.070 Y90.796 E10.72107
G1 X98.209 Y91.035 E10.73029
G1 X99.764 Y89.480 E10.80359
G1 X99.915 Y89.707 E10.81267
G1 X98.347 Y91.275 E10.88660
G1 X98.485 Y91.515 E10.89582
G1 X100.067 Y89.933 E10.97036
G1 X100.293 Y90.085 E10.97944
G1 X98.624 Y91.754 E11.05813
G1 X98.762 Y91.994 E11.06735
G1 X100.520 Y90.236 E11.15020
G1 X100.746 Y90.387 E11.15929
G1 X98.900 Y92.233 E11.24630
G1 X99.039 Y92.473 E11.25552
G1 X100.921 Y90.591 E11.34423
G1 X100.984 Y90.906 E11.35495
G1 X99.177 Y92.713 E11.44010
G1 X99.315 Y92.952 E11.44932
G1 X101.098 Y91.169 E11.53335
G1 X101.249 Y91.396 E11.54243
G1 X99.454 Y93.192 E11.62707
G1 X99.592 Y93.431 E11.63629
G1 X101.401 Y91.623 E11.72154
G1 X101.552 Y91.849 E11.73062
G1 X99.730 Y93.671 E11.81649
G1 X99.869 Y93.910 E11.82571
G1 X101.727 Y92.052 E11.91331
G1 X101.821 Y92.114 E11.91706
G1 X101.782 Y92.309 E11.92366
G1 X101.793 Y92.364 E11.92554
G1 X100.007 Y94.150 E12.00973
G1 X100.145 Y94.390 E12.01895
G1 X101.856 Y92.679 E12.09956
G1 X101.918 Y92.994 E12.11028
G1 X100.284 Y94.629 E12.18733
G1 X100.422 Y94.869 E12.19655
G1 X101.981 Y93.310 E12.27004
G1 X102.009 Y93.449 E12.27477
G1 X102.093 Y93.575 E12.27984
G1 X100.546 Y95.122 E12.35274
G1 X100.030 Y96.016 E12.38716
G1 X102.245 Y93.802 E12.49153
G1 X102.318 Y93.913 E12.49596
G1 X102.270 Y94.154 E12.50417
G1 X99.514 Y96.911 E12.63409
G1 X98.998 Y97.805 E12.66850
G1 X102.176 Y94.626 E12.81833
G1 X102.123 Y94.897 E12.82754
G1 X102.149 Y95.031 E12.83210
G1 X98.481 Y98.699 E13.00498
G1 X97.965 Y99.593 E13.03939
G1 X102.212 Y95.346 E13.23957
G1 X102.275 Y95.661 E13.25028
G1 X95.661 Y102.275 E13.56199
G1 X95.881 Y102.318 E13.56945
G1 X96.227 Y102.087 E13.58331
G1 X102.087 Y96.227 E13.85955
G1 X102.009 Y96.344 E13.86426
G1 X101.925 Y96.767 E13.87864
G1 X96.767 Y101.925 E14.12173
G1 X97.239 Y101.831 E14.13776
G1 X101.831 Y97.239 E14.35419
G1 X101.782 Y97.485 E14.36255
G1 X101.812 Y97.636 E14.36768
G1 X101.458 Y97.990 E14.38438
G1 X101.650 Y97.798 F7800.000
G1 F1800
G1 X97.798 Y101.650 E14.56597
G1 X98.756 Y101.010 E14.60439
G1 X98.831 Y100.995 E14.60693
G1 X100.995 Y98.831 E14.70894
G1 X100.901 Y99.302 E14.72497
G1 X100.694 Y99.509 E14.73473
G1 X99.509 Y100.694 F7800.000
G1 F1800
G1 X99.302 Y100.901 E14.74447
G1 X97.842 Y101.605 F7800.000
G1 F1800
G1 X97.886 Y101.614 E14.74593
G1 X97.990 Y101.458 E14.75220
G1 X97.636 Y101.812 E14.76890
G1 E12.76890 F2400.00000
G92 E0
G1 X95.346 Y102.212 F7800.000
G1 E2.00000 F2400.00000
G1 F1800
G1 X97.759 Y99.799 E2.11374
G1 X97.381 Y99.799 E2.12634
G1 X95.031 Y102.149 E2.23712
G1 X94.897 Y102.123 E2.24168
G1 X94.626 Y102.176 E2.25089
G1 X97.003 Y99.799 E2.36295
G1 X96.626 Y99.799 E2.37555
G1 X94.154 Y102.270 E2.49203
G1 X93.913 Y102.318 E2.50024
G1 X93.802 Y102.245 E2.50467
G1 X96.248 Y99.799 E2.61995
G1 X95.870 Y99.799 E2.63254
G1 X93.575 Y102.093 E2.74068
G1 X93.449 Y102.009 E2.74574
G1 X93.310 Y101.981 E2.75048
G1 X95.492 Y99.799 E2.85333
G1 X95.114 Y99.799 E2.86593
G1 X92.994 Y101.918 E2.96583
G1 X92.679 Y101.856 E2.97654
G1 X94.736 Y99.799 E3.07348
G1 X94.358 Y99.799 E3.08608
G1 X92.364 Y101.793 E3.18007
G1 X92.309 Y101.782 E3.18195
G1 X92.114 Y101.821 E3.18855
G1 X92.052 Y101.727 E3.19229
G1 X93.980 Y99.799 E3.28318
G1 X93.602 Y99.799 E3.29577
G1 X91.849 Y101.552 E3.37841
G1 X91.623 Y101.401 E3.38749
G1 X93.224 Y99.799 E3.46299
G1 X92.846 Y99.799 E3.47559
G1 X91.396 Y101.249 E3.54395
G1 X91.169 Y101.098 E3.55303
G1 X92.469 Y99.799 E3.61427
G1 X92.273 Y99.799 E3.62078
G1 X92.206 Y99.683 E3.62523
G1 X90.906 Y100.984 E3.68652
G1 X90.591 Y100.921 E3.69723
G1 X92.068 Y99.444 E3.76686
G1 X91.930 Y99.204 E3.77608
G1 X90.387 Y100.746 E3.84877
G1 X90.236 Y100.520 E3.85785
G1 X91.791 Y98.965 E3.93116
G1 X91.653 Y98.725 E3.94038
G1 X90.085 Y100.293 E4.01430
G1 X89.933 Y100.067 E4.02338
G1 X91.515 Y98.485 E4.09792
G1 X91.376 Y98.246 E4.10714
G1 X89.707 Y99.915 E4.18584
G1 X89.480 Y99.764 E4.19492
G1 X91.238 Y98.006 E4.27777
G1 X91.100 Y97.767 E4.28699
G1 X89.254 Y99.613 E4.37400
G1 X89.099 Y99.509 E4.38020
G1 X89.079 Y99.409 E4.38360
G1 X90.961 Y97.527 E4.47231
G1 X90.823 Y97.287 E4.48154
G1 X89.016 Y99.094 E4.56669
G1 X88.990 Y98.963 E4.57116
G1 X88.902 Y98.831 E4.57645
G1 X90.685 Y97.048 E4.66048
G1 X90.546 Y96.808 E4.66970
G1 X88.751 Y98.604 E4.75434
G1 X88.599 Y98.377 E4.76342
G1 X90.408 Y96.569 E4.84867
G1 X90.270 Y96.329 E4.85789
G1 X88.448 Y98.151 E4.94376
G1 X88.344 Y97.996 E4.94999
G1 X88.273 Y97.948 E4.95284
G1 X90.131 Y96.090 E5.04044
G1 X89.993 Y95.850 E5.04966
G1 X88.207 Y97.636 E5.13385
G1 X88.144 Y97.321 E5.14456
G1 X89.855 Y95.610 E5.22518
G1 X89.716 Y95.371 E5.23440
G1 X88.082 Y97.006 E5.31145
G1 X88.019 Y96.690 E5.32216
G1 X89.578 Y95.131 E5.39565
G1 X89.443 Y94.897 E5.40468
G1 X89.454 Y94.878 E5.40540
G1 X87.907 Y96.425 E5.47830
G1 X87.755 Y96.198 E5.48738
G1 X89.970 Y93.984 E5.59175
G1 X90.486 Y93.090 E5.62616
G1 X87.730 Y95.846 E5.75608
G1 X87.823 Y95.374 E5.77211
G1 X91.002 Y92.195 E5.92194
G1 X91.518 Y91.301 E5.95635
G1 X87.851 Y94.969 E6.12923
G1 X87.788 Y94.654 E6.13995
G1 E4.13995 F2400.00000
G92 E0
G1 X92.010 Y88.543 F7800.000
G1 E2.00000 F2400.00000
G1 F1800
G1 X92.364 Y88.188 E2.01671
G1 E0.01671 F2400.00000
G92 E0
G1 X92.323 Y79.637 F7800.000
G1 E2.00000 F2400.00000
G1 F1800
G1 X89.646 Y75.000 E2.17737
G1 X92.323 Y70.363 E2.35475
G1 X97.677 Y70.363 E2.53212
G1 X100.354 Y75.000 E2.70950
G1 X97.677 Y79.637 E2.88687
G1 X92.383 Y79.637 E3.06225
G1 X92.476 Y79.371 F7800.000
G1 F1800
G1 X89.953 Y75.000 E3.22947
G1 X92.476 Y70.629 E3.39668
G1 X97.524 Y70.629 E3.56389
G1 X100.047 Y75.000 E3.73111
G1 X97.524 Y79.371 E3.89832
G1 X92.536 Y79.371 E4.06354
G1 X92.630 Y79.105 F7800.000
G1 F1800
G1 X90.259 Y75.000 E4.22059
G1 X92.630 Y70.895 E4.37765
G1 X97.370 Y70.895 E4.53470
G1 X99.741 Y75.000 E4.69175
G1 X97.370 Y79.105 E4.84880
G1 X92.690 Y79.105 E5.00386
G1 X92.283 Y79.305 F7800.000
G1 E3.00386 F2400.00000
G92 E0
G1 X91.037 Y81.157 F7800.000
G1 E2.00000 F2400.00000
G1 F1800
G1 X90.434 Y81.037 E2.02036
G1 X89.845 Y80.155 E2.05550
G1 X88.963 Y79.566 E2.09064
G1 X88.843 Y78.963 E2.11099
G1 X88.256 Y78.084 E2.14602
G1 X87.988 Y77.905 E2.15671
G1 X88.051 Y77.588 E2.16740
G1 X87.844 Y76.551 E2.20242
G1 X87.503 Y76.040 E2.22278
G1 X87.710 Y75.000 E2.25792
G1 X87.503 Y73.960 E2.29306
G1 X87.844 Y73.449 E2.31342
G1 X88.051 Y72.412 E2.34844
G1 X87.988 Y72.095 E2.35913
G1 X88.256 Y71.916 E2.36982
