; generated by Slic3r 1.3.0 on 2020-09-17 at 18:47:34

; external perimeters extrusion width = 0.44mm (4.06mm^3/s)
; perimeters extrusion width = 0.48mm (5.03mm^3/s)
; infill extrusion width = 0.48mm (5.03mm^3/s)
; solid infill extrusion width = 0.48mm (3.77mm^3/s)
; top infill extrusion width = 0.48mm (3.77mm^3/s)

M107
;D3D:START:START
T0
M104 S215 T0

G21
G90
M107
T0
G28
G29
M109 T0 S215 T0
G0 F3000
M107
T0
G92 E0
G0 X0 Y149 Z0.1 F3600
G1 Y49 E6.5 F1200
G0 Z1
G92 E0
; Filament gcode

G21 ; set units to millimeters
G90 ; use absolute coordinates
M82 ; use absolute distances for extrusion
G92 E0
G1 Z0.300 F7800.000
G1 E-2.00000 F2400.00000
G92 E0
G1 X92.186 Y90.125 F7800.000
G1 E2.00000 F2400.00000
G1 F1800
G1 X97.814 Y90.125 E2.18648
G1 X100.629 Y95.000 E2.37297
G1 X97.814 Y99.875 E2.55945
G1 X92.186 Y99.875 E2.74594
G1 X89.371 Y95.000 E2.93242
G1 X92.156 Y90.177 E3.11692
G1 X92.339 Y90.391 F7800.000
G1 F1800
G1 X97.661 Y90.391 E3.29324
G1 X100.322 Y95.000 E3.46957
G1 X97.661 Y99.609 E3.64589
G1 X92.339 Y99.609 E3.82222
G1 X89.678 Y95.000 E3.99854
G1 X92.309 Y90.443 E4.17288
G1 X92.492 Y90.656 F7800.000
G1 F1800
G1 X97.508 Y90.656 E4.33904
G1 X100.016 Y95.000 E4.50520
G1 X97.508 Y99.344 E4.67136
G1 X92.492 Y99.344 E4.83753
G1 X89.984 Y95.000 E5.00369
G1 X92.462 Y90.708 E5.16786
G1 X92.494 Y90.256 F7800.000
G1 E3.16786 F2400.00000
G92 E0
G1 X91.037 Y88.843 F7800.000
G1 E2.00000 F2400.00000
G1 F1800
G1 X91.916 Y88.256 E2.03503
G1 X92.095 Y87.988 E2.04572
G1 X92.412 Y88.051 E2.05640
G1 X93.449 Y87.844 E2.09143
G1 X93.960 Y87.503 E2.11179
G1 X95.000 Y87.710 E2.14693
G1 X96.040 Y87.503 E2.18207
G1 X96.551 Y87.844 E2.20242
G1 X97.588 Y88.051 E2.23745
G1 X97.905 Y87.988 E2.24814
G1 X98.084 Y88.256 E2.25883
G1 X98.963 Y88.843 E2.29386
G1 X99.566 Y88.963 E2.31421
G1 X100.155 Y89.845 E2.34935
G1 X101.037 Y90.434 E2.38449
G1 X101.157 Y91.037 E2.40485
G1 X101.744 Y91.916 E2.43987
G1 X102.012 Y92.095 E2.45056
G1 X101.949 Y92.412 E2.46125
G1 X102.156 Y93.449 E2.49628
G1 X102.497 Y93.960 E2.51663
G1 X102.290 Y95.000 E2.55177
G1 X102.497 Y96.040 E2.58691
G1 X102.156 Y96.551 E2.60727
G1 X101.949 Y97.588 E2.64230
G1 X102.012 Y97.905 E2.65298
G1 X101.744 Y98.084 E2.66367
G1 X101.157 Y98.963 E2.69870
G1 X101.037 Y99.566 E2.71906
G1 X100.155 Y100.155 E2.75420
G1 X99.566 Y101.037 E2.78934
G1 X98.963 Y101.157 E2.80969
G1 X98.084 Y101.744 E2.84472
G1 X97.905 Y102.012 E2.85541
G1 X97.588 Y101.949 E2.86610
G1 X96.551 Y102.156 E2.90112
G1 X96.040 Y102.497 E2.92148
G1 X95.000 Y102.290 E2.95662
G1 X93.960 Y102.497 E2.99176
G1 X93.449 Y102.156 E3.01211
G1 X92.412 Y101.949 E3.04714
G1 X92.095 Y102.012 E3.05783
G1 X91.916 Y101.744 E3.06852
G1 X91.037 Y101.157 E3.10355
G1 X90.434 Y101.037 E3.12390
G1 X89.845 Y100.155 E3.15904
G1 X88.963 Y99.566 E3.19418
G1 X88.843 Y98.963 E3.21454
G1 X88.256 Y98.084 E3.24956
G1 X87.988 Y97.905 E3.26026
G1 X88.051 Y97.588 E3.27094
G1 X87.844 Y96.551 E3.30597
G1 X87.503 Y96.040 E3.32633
G1 X87.710 Y95.000 E3.36147
G1 X87.503 Y93.960 E3.39660
G1 X87.844 Y93.449 E3.41696
G1 X88.051 Y92.412 E3.45199
G1 X87.988 Y92.095 E3.46267
G1 X88.256 Y91.916 E3.47337
G1 X88.843 Y91.037 E3.50839
G1 X88.963 Y90.434 E3.52875
G1 X89.845 Y89.845 E3.56389
G1 X90.434 Y88.963 E3.59903
G1 X90.978 Y88.855 E3.61740
G1 X90.933 Y88.593 F7800.000
G1 F1800
G1 X91.725 Y88.064 E3.64892
G1 X91.973 Y87.693 E3.66374
G1 X92.412 Y87.780 E3.67856
G1 X93.345 Y87.594 E3.71009
G1 X93.961 Y87.183 E3.73462
G1 X94.067 Y87.253 E3.73883
G1 X95.000 Y87.439 E3.77036
G1 X95.933 Y87.253 E3.80189
G1 X96.039 Y87.183 E3.80610
G1 X96.655 Y87.594 E3.83063
G1 X97.588 Y87.780 E3.86216
G1 X98.027 Y87.693 E3.87697
G1 X98.275 Y88.064 E3.89179
G1 X99.067 Y88.593 E3.92332
G1 X99.793 Y88.738 E3.94785
G1 X99.818 Y88.862 E3.95207
G1 X100.346 Y89.654 E3.98359
G1 X101.138 Y90.182 E4.01512
G1 X101.262 Y90.207 E4.01934
G1 X101.407 Y90.933 E4.04387
G1 X101.936 Y91.725 E4.07539
G1 X102.307 Y91.973 E4.09021
G1 X102.220 Y92.412 E4.10503
G1 X102.406 Y93.345 E4.13656
G1 X102.817 Y93.961 E4.16109
G1 X102.747 Y94.067 E4.16530
G1 X102.561 Y95.000 E4.19683
G1 X102.747 Y95.933 E4.22836
G1 X102.817 Y96.039 E4.23257
G1 X102.406 Y96.655 E4.25710
G1 X102.220 Y97.588 E4.28863
G1 X102.307 Y98.027 E4.30345
G1 X101.936 Y98.275 E4.31827
G1 X101.407 Y99.067 E4.34979
G1 X101.262 Y99.793 E4.37432
G1 X101.138 Y99.818 E4.37854
G1 X100.346 Y100.346 E4.41007
G1 X99.818 Y101.138 E4.44159
G1 X99.793 Y101.262 E4.44581
G1 X99.067 Y101.407 E4.47034
G1 X98.275 Y101.936 E4.50187
G1 X98.027 Y102.307 E4.51669
G1 X97.588 Y102.220 E4.53150
G1 X96.655 Y102.406 E4.56303
G1 X96.039 Y102.817 E4.58756
G1 X95.933 Y102.747 E4.59177
G1 X95.000 Y102.561 E4.62330
G1 X94.067 Y102.747 E4.65483
G1 X93.961 Y102.817 E4.65904
G1 X93.345 Y102.406 E4.68357
G1 X92.412 Y102.220 E4.71510
G1 X91.973 Y102.307 E4.72992
G1 X91.725 Y101.936 E4.74474
G1 X90.933 Y101.407 E4.77626
G1 X90.207 Y101.262 E4.80080
G1 X90.182 Y101.138 E4.80501
G1 X89.654 Y100.346 E4.83654
G1 X88.862 Y99.818 E4.86807
G1 X88.738 Y99.793 E4.87228
G1 X88.593 Y99.067 E4.89681
G1 X88.064 Y98.275 E4.92834
G1 X87.693 Y98.027 E4.94316
G1 X87.780 Y97.588 E4.95797
G1 X87.594 Y96.655 E4.98950
G1 X87.183 Y96.039 E5.01403
G1 X87.253 Y95.933 E5.01824
G1 X87.439 Y95.000 E5.04977
G1 X87.253 Y94.067 E5.08130
G1 X87.183 Y93.961 E5.08552
G1 X87.594 Y93.345 E5.11005
G1 X87.780 Y92.412 E5.14157
G1 X87.693 Y91.973 E5.15639
G1 X88.064 Y91.725 E5.17121
G1 X88.593 Y90.933 E5.20274
G1 X88.738 Y90.207 E5.22727
G1 X88.862 Y90.182 E5.23148
G1 X89.654 Y89.654 E5.26301
G1 X90.182 Y88.862 E5.29454
G1 X90.207 Y88.738 E5.29875
G1 X90.875 Y88.605 E5.32130
G1 X90.830 Y88.343 F7800.000
G1 F1800
G1 X91.533 Y87.873 E5.34932
G1 X91.851 Y87.397 E5.36827
G1 X92.412 Y87.509 E5.38722
G1 X93.242 Y87.344 E5.41524
G1 X93.961 Y86.863 E5.44390
G1 X94.170 Y87.003 E5.45224
G1 X95.000 Y87.168 E5.48027
G1 X95.830 Y87.003 E5.50830
G1 X96.039 Y86.863 E5.51664
G1 X96.758 Y87.344 E5.54530
G1 X97.588 Y87.509 E5.57333
G1 X98.149 Y87.397 E5.59228
G1 X98.467 Y87.873 E5.61122
G1 X99.170 Y88.343 E5.63925
G1 X100.019 Y88.512 E5.66791
G1 X100.068 Y88.759 E5.67626
G1 X100.538 Y89.462 E5.70428
G1 X101.241 Y89.932 E5.73231
G1 X101.488 Y89.981 E5.74065
G1 X101.657 Y90.830 E5.76932
G1 X102.127 Y91.533 E5.79734
G1 X102.603 Y91.851 E5.81629
G1 X102.491 Y92.412 E5.83524
G1 X102.656 Y93.242 E5.86326
G1 X103.137 Y93.961 E5.89192
G1 X102.997 Y94.170 E5.90026
G1 X102.832 Y95.000 E5.92829
G1 X102.997 Y95.830 E5.95632
G1 X103.137 Y96.039 E5.96466
G1 X102.656 Y96.758 E5.99332
G1 X102.491 Y97.588 E6.02135
G1 X102.603 Y98.149 E6.04030
G1 X102.127 Y98.467 E6.05924
G1 X101.657 Y99.170 E6.08727
G1 X101.488 Y100.019 E6.11593
G1 X101.241 Y100.068 E6.12428
G1 X100.538 Y100.538 E6.15230
G1 X100.068 Y101.241 E6.18033
G1 X100.019 Y101.488 E6.18867
G1 X99.170 Y101.657 E6.21734
G1 X98.467 Y102.127 E6.24536
G1 X98.149 Y102.603 E6.26431
G1 X97.588 Y102.491 E6.28326
G1 X96.758 Y102.656 E6.31128
G1 X96.039 Y103.137 E6.33994
G1 X95.830 Y102.997 E6.34828
G1 X95.000 Y102.832 E6.37631
G1 X94.170 Y102.997 E6.40434
G1 X93.961 Y103.137 E6.41268
G1 X93.242 Y102.656 E6.44134
G1 X92.412 Y102.491 E6.46937
G1 X91.851 Y102.603 E6.48832
G1 X91.533 Y102.127 E6.50726
G1 X90.830 Y101.657 E6.53529
G1 X89.981 Y101.488 E6.56395
G1 X89.932 Y101.241 E6.57230
G1 X89.462 Y100.538 E6.60032
G1 X88.759 Y100.068 E6.62835
G1 X88.512 Y100.019 E6.63669
G1 X88.343 Y99.170 E6.66536
G1 X87.873 Y98.467 E6.69338
G1 X87.397 Y98.149 E6.71233
G1 X87.509 Y97.588 E6.73128
G1 X87.344 Y96.758 E6.75930
G1 X86.863 Y96.039 E6.78796
G1 X87.003 Y95.830 E6.79630
G1 X87.168 Y95.000 E6.82433
G1 X87.003 Y94.170 E6.85236
G1 X86.863 Y93.961 E6.86070
G1 X87.344 Y93.242 E6.88936
G1 X87.509 Y92.412 E6.91739
G1 X87.397 Y91.851 E6.93634
G1 X87.873 Y91.533 E6.95528
G1 X88.343 Y90.830 E6.98331
G1 X88.512 Y89.981 E7.01197
G1 X88.759 Y89.932 E7.02032
G1 X89.462 Y89.462 E7.04834
G1 X89.932 Y88.759 E7.07637
G1 X89.981 Y88.512 E7.08471
G1 X90.771 Y88.355 E7.11139
G1 X91.179 Y88.538 F7800.000
G1 X90.698 Y89.099 F7800.000
G1 F1800
G1 X90.140 Y89.933 E7.14484
G1 X89.306 Y90.490 E7.17826
G1 X89.099 Y90.698 E7.18803
G1 X89.005 Y91.169 E7.20406
G1 X91.169 Y89.005 E7.30607
G1 X91.244 Y88.990 E7.30861
G1 X92.203 Y88.350 E7.34703
G1 X88.188 Y92.364 E7.53626
G1 X88.218 Y92.515 E7.54139
G1 X88.169 Y92.761 E7.54974
G1 X92.761 Y88.169 E7.76618
G1 X93.233 Y88.075 E7.78221
G1 X88.075 Y93.233 E8.02531
G1 X87.991 Y93.656 E8.03968
G1 X87.913 Y93.773 E8.04440
G1 X93.773 Y87.913 E8.32065
G1 X94.119 Y87.682 E8.33450
G1 X94.339 Y87.725 E8.34196
G1 X92.101 Y89.963 E8.44743
G1 X92.479 Y89.963 E8.46003
G1 X94.654 Y87.788 E8.56254
G1 X94.969 Y87.851 E8.57325
G1 X92.857 Y89.963 E8.67281
G1 X93.235 Y89.963 E8.68540
G1 X95.374 Y87.823 E8.78624
G1 X95.846 Y87.730 E8.80227
G1 X93.613 Y89.963 E8.90753
G1 X93.991 Y89.963 E8.92013
G1 X96.198 Y87.755 E9.02417
G1 X96.425 Y87.907 E9.03325
G1 X94.369 Y89.963 E9.13016
G1 X94.746 Y89.963 E9.14276
G1 X96.690 Y88.019 E9.23438
G1 X97.006 Y88.082 E9.24509
G1 X95.124 Y89.963 E9.33376
G1 X95.502 Y89.963 E9.34636
G1 X97.321 Y88.144 E9.43207
G1 X97.636 Y88.207 E9.44279
G1 X95.880 Y89.963 E9.52555
G1 X96.258 Y89.963 E9.53814
G1 X97.948 Y88.273 E9.61780
G1 X97.996 Y88.344 E9.62065
G1 X98.151 Y88.448 E9.62688
G1 X96.636 Y89.963 E9.69829
G1 X97.014 Y89.963 E9.71088
G1 X98.377 Y88.599 E9.77515
G1 X98.604 Y88.751 E9.78423
G1 X97.392 Y89.963 E9.84137
G1 X97.770 Y89.963 E9.85397
G1 X98.831 Y88.902 E9.90397
G1 X98.963 Y88.990 E9.90927
G1 X99.094 Y89.016 E9.91373
G1 X97.968 Y90.142 E9.96681
G1 X98.106 Y90.382 E9.97603
G1 X99.409 Y89.079 E10.03744
G1 X99.509 Y89.099 E10.04083
G1 X99.613 Y89.254 E10.04703
G1 X98.245 Y90.622 E10.11151
G1 X98.383 Y90.861 E10.12073
G1 X99.764 Y89.480 E10.18581
G1 X99.915 Y89.707 E10.19490
G1 X98.521 Y91.101 E10.26060
G1 X98.660 Y91.340 E10.26982
G1 X100.067 Y89.933 E10.33614
G1 X100.293 Y90.085 E10.34522
G1 X98.798 Y91.580 E10.41570
G1 X98.936 Y91.819 E10.42492
G1 X100.520 Y90.236 E10.49955
G1 X100.746 Y90.387 E10.50863
G1 X99.075 Y92.059 E10.58742
G1 X99.213 Y92.299 E10.59665
G1 X100.921 Y90.591 E10.67715
G1 X100.984 Y90.906 E10.68786
G1 X99.351 Y92.538 E10.76479
G1 X99.490 Y92.778 E10.77401
G1 X101.098 Y91.169 E10.84982
G1 X101.249 Y91.396 E10.85890
G1 X99.628 Y93.017 E10.93532
G1 X99.766 Y93.257 E10.94455
G1 X101.401 Y91.623 E11.02158
G1 X101.552 Y91.849 E11.03066
G1 X99.905 Y93.497 E11.10832
G1 X100.043 Y93.736 E11.11754
G1 X101.727 Y92.052 E11.19692
G1 X101.821 Y92.114 E11.20066
G1 X101.782 Y92.309 E11.20726
G1 X101.793 Y92.364 E11.20915
G1 X100.181 Y93.976 E11.28511
G1 X100.320 Y94.215 E11.29433
G1 X101.856 Y92.679 E11.36673
G1 X101.918 Y92.994 E11.37744
G1 X100.458 Y94.455 E11.44628
G1 X100.596 Y94.694 E11.45550
G1 X101.981 Y93.310 E11.52077
G1 X102.009 Y93.449 E11.52551
G1 X102.093 Y93.575 E11.53057
G1 X100.735 Y94.934 E11.59461
G1 X100.832 Y95.103 E11.60112
G1 X100.681 Y95.366 E11.61122
G1 X102.245 Y93.802 E11.68492
G1 X102.318 Y93.913 E11.68935
G1 X102.270 Y94.154 E11.69756
G1 X100.165 Y96.260 E11.79682
G1 X99.648 Y97.154 E11.83123
G1 X102.176 Y94.626 E11.95039
G1 X102.123 Y94.897 E11.95959
G1 X102.149 Y95.031 E11.96415
G1 X99.132 Y98.048 E12.10637
G1 X98.616 Y98.942 E12.14078
G1 X102.212 Y95.346 E12.31028
G1 X102.275 Y95.661 E12.32099
G1 X98.100 Y99.836 E12.51778
G1 X99.302 Y100.901 F7800.000
G1 F1800
G1 X99.509 Y100.694 E12.52751
G1 X100.694 Y99.509 F7800.000
G1 F1800
G1 X100.901 Y99.302 E12.53727
G1 X100.995 Y98.831 E12.55330
G1 X98.831 Y100.995 E12.65531
G1 X98.756 Y101.010 E12.65785
G1 X97.798 Y101.650 E12.69627
G1 X101.650 Y97.798 E12.87786
G1 X101.458 Y97.990 F7800.000
G1 F1800
G1 X101.812 Y97.636 E12.89456
G1 X101.782 Y97.485 E12.89969
G1 X101.831 Y97.239 E12.90805
G1 X97.239 Y101.831 E13.12448
G1 X96.767 Y101.925 E13.14051
G1 X101.925 Y96.767 E13.38360
G1 X102.009 Y96.344 E13.39798
G1 X102.087 Y96.227 E13.40269
G1 X96.227 Y102.087 E13.67893
G1 X95.881 Y102.318 E13.69279
G1 X95.661 Y102.275 E13.70025
G1 X97.899 Y100.037 E13.80571
G1 X97.521 Y100.037 E13.81831
G1 X95.346 Y102.212 E13.92082
G1 X95.031 Y102.149 E13.93153
G1 X97.143 Y100.037 E14.03109
G1 X96.765 Y100.037 E14.04369
G1 X94.626 Y102.176 E14.14452
G1 X94.154 Y102.270 E14.16055
G1 X96.387 Y100.037 E14.26581
G1 X96.009 Y100.037 E14.27841
G1 X93.802 Y102.245 E14.38245
G1 X93.575 Y102.093 E14.39153
G1 X95.631 Y100.037 E14.48844
G1 X95.254 Y100.037 E14.50104
G1 X93.310 Y101.981 E14.59266
G1 X92.994 Y101.918 E14.60337
G1 X94.876 Y100.037 E14.69204
G1 X94.498 Y100.037 E14.70464
G1 X92.679 Y101.856 E14.79035
G1 X92.364 Y101.793 E14.80107
G1 X94.120 Y100.037 E14.88383
G1 X93.742 Y100.037 E14.89642
G1 X92.052 Y101.727 E14.97608
G1 X92.004 Y101.656 E14.97894
G1 X91.849 Y101.552 E14.98516
G1 X93.364 Y100.037 E15.05657
G1 X92.986 Y100.037 E15.06916
G1 X91.623 Y101.401 E15.13344
G1 X91.396 Y101.249 E15.14252
G1 X92.608 Y100.037 E15.19966
G1 X92.230 Y100.037 E15.21225
G1 X91.169 Y101.098 E15.26226
G1 X91.037 Y101.010 E15.26755
G1 X90.906 Y100.984 E15.27202
G1 X92.032 Y99.858 E15.32509
G1 X91.894 Y99.618 E15.33431
G1 X90.591 Y100.921 E15.39572
G1 X90.491 Y100.901 E15.39911
G1 X90.387 Y100.746 E15.40531
G1 X91.755 Y99.379 E15.46979
G1 X91.617 Y99.139 E15.47901
G1 X90.236 Y100.520 E15.54409
G1 X90.085 Y100.293 E15.55318
G1 X91.479 Y98.899 E15.61888
G1 X91.340 Y98.660 E15.62810
G1 X89.933 Y100.067 E15.69442
G1 X89.707 Y99.915 E15.70350
G1 X91.202 Y98.420 E15.77398
G1 X91.064 Y98.181 E15.78320
G1 X89.480 Y99.764 E15.85783
G1 X89.254 Y99.613 E15.86691
G1 X90.925 Y97.941 E15.94570
G1 X90.787 Y97.701 E15.95492
G1 X89.079 Y99.409 E16.03542
G1 X89.016 Y99.094 E16.04614
G1 X90.649 Y97.462 E16.12307
G1 X90.510 Y97.222 E16.13229
G1 X88.902 Y98.831 E16.20810
G1 X88.751 Y98.604 E16.21718
G1 X90.372 Y96.983 E16.29360
G1 X90.234 Y96.743 E16.30282
G1 X88.599 Y98.377 E16.37986
G1 X88.448 Y98.151 E16.38894
G1 X90.095 Y96.504 E16.46659
G1 X89.957 Y96.264 E16.47581
G1 X88.273 Y97.948 E16.55520
G1 X88.179 Y97.886 E16.55894
G1 X88.218 Y97.691 E16.56554
G1 X88.207 Y97.636 E16.56742
G1 X89.819 Y96.024 E16.64339
G1 X89.680 Y95.785 E16.65261
G1 X88.144 Y97.321 E16.72501
G1 X88.082 Y97.006 E16.73572
G1 X89.542 Y95.545 E16.80456
G1 X89.404 Y95.306 E16.81378
G1 X88.019 Y96.690 E16.87905
G1 X87.991 Y96.551 E16.88379
G1 X87.907 Y96.425 E16.88885
G1 X89.265 Y95.066 E16.95289
G1 X89.168 Y94.897 E16.95940
G1 X89.319 Y94.634 E16.96950
G1 X87.755 Y96.198 E17.04320
G1 X87.682 Y96.087 E17.04763
G1 X87.730 Y95.846 E17.05584
G1 X89.835 Y93.740 E17.15508
G1 X90.352 Y92.846 E17.18950
G1 X87.823 Y95.374 E17.30865
G1 X87.877 Y95.103 E17.31786
G1 X87.851 Y94.969 E17.32242
G1 X90.868 Y91.952 E17.46463
G1 X91.384 Y91.058 E17.49904
G1 X87.788 Y94.654 E17.66854
G1 X87.725 Y94.339 E17.67925
G1 X91.900 Y90.164 E17.87603
G1 X92.010 Y88.543 F7800.000
G1 F1800
G1 X92.364 Y88.188 E17.89274
G1 E15.89274 F2400.00000
G92 E0
G1 X97.842 Y101.605 F7800.000
G1 E2.00000 F2400.00000
G1 F1800
G1 X97.886 Y101.614 E2.00147
G1 X97.990 Y101.458 E2.00773
G1 X97.636 Y101.812 E2.02443
G1 E0.02443 F2400.00000
G92 E0
G1 X92.186 Y79.875 F7800.000
G1 E2.00000 F2400.00000
G1 F1800
G1 X89.371 Y75.000 E2.18648
G1 X92.186 Y70.125 E2.37297
G1 X97.814 Y70.125 E2.55945
G1 X100.629 Y75.000 E2.74594
G1 X97.814 Y79.875 E2.93242
G1 X92.246 Y79.875 E3.11692
G1 X92.339 Y79.609 F7800.000
G1 F1800
G1 X89.678 Y75.000 E3.29324
G1 X92.339 Y70.391 E3.46956
G1 X97.661 Y70.391 E3.64589
G1 X100.322 Y75.000 E3.82221
G1 X97.661 Y79.609 E3.99853
G1 X92.399 Y79.609 E4.17287
G1 E2.17287 F2400.00000
G92 E0
G1 X97.508 Y79.344 F7800.000
G1 E2.00000 F2400.00000
G1 F1800
G1 X92.492 Y79.344 E2.16616
G1 X92.399 Y79.183 E2.17232
G1 X89.984 Y75.000 E2.33232
G1 X92.492 Y70.656 E2.49849
G1 X97.508 Y70.656 E2.66465
G1 X100.016 Y75.000 E2.83081
G1 X97.538 Y79.292 E2.99498
G1 X97.508 Y79.744 F7800.000
G1 E0.99498 F2400.00000
G92 E0
G1 X98.963 Y81.157 F7800.000
G1 E2.00000 F2400.00000
G1 F1800
G1 X98.084 Y81.744 E2.03503
G1 X97.905 Y82.012 E2.04572
G1 X97.588 Y81.949 E2.05640
G1 X96.551 Y82.156 E2.09143
G1 X96.040 Y82.497 E2.11179
G1 X95.000 Y82.290 E2.14693
G1 X93.960 Y82.497 E2.18207
G1 X93.449 Y82.156 E2.20242
G1 X92.412 Y81.949 E2.23745
