; generated by Slic3r 1.3.0 on 2020-09-17 at 19:28:03

; external perimeters extrusion width = 0.44mm (4.06mm^3/s)
; perimeters extrusion width = 0.48mm (5.03mm^3/s)
; infill extrusion width = 0.48mm (5.03mm^3/s)
; solid infill extrusion width = 0.48mm (3.77mm^3/s)
; top infill extrusion width = 0.48mm (3.77mm^3/s)

M107
;D3D:START:START
T0
M104 S215 T0

G21
G90
M107
T0
G28
G29
M109 T0 S215 T0
G0 F3000
M107
T0
G92 E0
G0 X0 Y149 Z0.1 F3600
G1 Y49 E6.5 F1200
G0 Z1
G92 E0
; Filament gcode

G21 ; set units to millimeters
G90 ; use absolute coordinates
M82 ; use absolute distances for extrusion
G92 E0
G1 Z0.300 F7800.000
G1 E-2.00000 F2400.00000
G92 E0
G1 X92.198 Y90.147 F7800.000
G1 E2.00000 F2400.00000
G1 F1800
G1 X97.802 Y90.147 E2.18566
G1 X100.604 Y95.000 E2.37131
G1 X97.802 Y99.853 E2.55697
G1 X92.198 Y99.853 E2.74262
G1 X89.396 Y95.000 E2.92828
G1 X92.168 Y90.199 E3.11195
G1 X92.351 Y90.412 F7800.000
G1 F1800
G1 X97.649 Y90.412 E3.28744
G1 X100.297 Y95.000 E3.46294
G1 X97.649 Y99.588 E3.63843
G1 X92.351 Y99.588 E3.81392
G1 X89.703 Y95.000 E3.98942
G1 X92.321 Y90.464 E4.16292
G1 X92.505 Y90.678 F7800.000
G1 F1800
G1 X97.495 Y90.678 E4.32826
G1 X99.991 Y95.000 E4.49359
G1 X97.495 Y99.322 E4.65892
G1 X92.505 Y99.322 E4.82426
G1 X90.009 Y95.000 E4.98959
G1 X92.475 Y90.730 E5.15294
G1 X92.506 Y90.278 F7800.000
G1 E3.15294 F2400.00000
G92 E0
G1 X91.037 Y88.843 F7800.000
G1 E2.00000 F2400.00000
G1 F1800
G1 X91.916 Y88.256 E2.03503
G1 X92.095 Y87.988 E2.04572
G1 X92.412 Y88.051 E2.05640
G1 X93.449 Y87.844 E2.09143
G1 X93.960 Y87.503 E2.11179
G1 X95.000 Y87.710 E2.14693
G1 X96.040 Y87.503 E2.18207
G1 X96.551 Y87.844 E2.20242
G1 X97.588 Y88.051 E2.23745
G1 X97.905 Y87.988 E2.24814
G1 X98.084 Y88.256 E2.25883
G1 X98.963 Y88.843 E2.29386
G1 X99.566 Y88.963 E2.31421
G1 X100.155 Y89.845 E2.34935
G1 X101.037 Y90.434 E2.38449
G1 X101.157 Y91.037 E2.40485
G1 X101.744 Y91.916 E2.43987
G1 X102.012 Y92.095 E2.45056
G1 X101.949 Y92.412 E2.46125
G1 X102.156 Y93.449 E2.49628
G1 X102.497 Y93.960 E2.51663
G1 X102.290 Y95.000 E2.55177
G1 X102.497 Y96.040 E2.58691
G1 X102.156 Y96.551 E2.60727
G1 X101.949 Y97.588 E2.64230
G1 X102.012 Y97.905 E2.65298
G1 X101.744 Y98.084 E2.66367
G1 X101.157 Y98.963 E2.69870
G1 X101.037 Y99.566 E2.71906
G1 X100.155 Y100.155 E2.75420
G1 X99.566 Y101.037 E2.78934
G1 X98.963 Y101.157 E2.80969
G1 X98.084 Y101.744 E2.84472
G1 X97.905 Y102.012 E2.85541
G1 X97.588 Y101.949 E2.86610
G1 X96.551 Y102.156 E2.90112
G1 X96.040 Y102.497 E2.92148
G1 X95.000 Y102.290 E2.95662
G1 X93.960 Y102.497 E2.99176
G1 X93.449 Y102.156 E3.01211
G1 X92.412 Y101.949 E3.04714
G1 X92.095 Y102.012 E3.05783
G1 X91.916 Y101.744 E3.06852
G1 X91.037 Y101.157 E3.10355
G1 X90.434 Y101.037 E3.12390
G1 X89.845 Y100.155 E3.15904
G1 X88.963 Y99.566 E3.19418
G1 X88.843 Y98.963 E3.21454
G1 X88.256 Y98.084 E3.24956
G1 X87.988 Y97.905 E3.26026
G1 X88.051 Y97.588 E3.27094
G1 X87.844 Y96.551 E3.30597
G1 X87.503 Y96.040 E3.32633
G1 X87.710 Y95.000 E3.36147
G1 X87.503 Y93.960 E3.39660
G1 X87.844 Y93.449 E3.41696
G1 X88.051 Y92.412 E3.45199
G1 X87.988 Y92.095 E3.46267
G1 X88.256 Y91.916 E3.47337
G1 X88.843 Y91.037 E3.50839
G1 X88.963 Y90.434 E3.52875
G1 X89.845 Y89.845 E3.56389
G1 X90.434 Y88.963 E3.59903
G1 X90.978 Y88.855 E3.61740
G1 X90.933 Y88.593 F7800.000
G1 F1800
G1 X91.725 Y88.064 E3.64892
G1 X91.973 Y87.693 E3.66374
G1 X92.412 Y87.780 E3.67856
G1 X93.345 Y87.594 E3.71009
G1 X93.961 Y87.183 E3.73462
G1 X94.067 Y87.253 E3.73883
G1 X95.000 Y87.439 E3.77036
G1 X95.933 Y87.253 E3.80189
G1 X96.039 Y87.183 E3.80610
G1 X96.655 Y87.594 E3.83063
G1 X97.588 Y87.780 E3.86216
G1 X98.027 Y87.693 E3.87697
G1 X98.275 Y88.064 E3.89179
G1 X99.067 Y88.593 E3.92332
G1 X99.793 Y88.738 E3.94785
G1 X99.818 Y88.862 E3.95207
G1 X100.346 Y89.654 E3.98359
G1 X101.138 Y90.182 E4.01512
G1 X101.262 Y90.207 E4.01934
G1 X101.407 Y90.933 E4.04387
G1 X101.936 Y91.725 E4.07539
G1 X102.307 Y91.973 E4.09021
G1 X102.220 Y92.412 E4.10503
G1 X102.406 Y93.345 E4.13656
G1 X102.817 Y93.961 E4.16109
G1 X102.747 Y94.067 E4.16530
G1 X102.561 Y95.000 E4.19683
G1 X102.747 Y95.933 E4.22836
G1 X102.817 Y96.039 E4.23257
G1 X102.406 Y96.655 E4.25710
G1 X102.220 Y97.588 E4.28863
G1 X102.307 Y98.027 E4.30345
G1 X101.936 Y98.275 E4.31827
G1 X101.407 Y99.067 E4.34979
G1 X101.262 Y99.793 E4.37432
G1 X101.138 Y99.818 E4.37854
G1 X100.346 Y100.346 E4.41007
G1 X99.818 Y101.138 E4.44159
G1 X99.793 Y101.262 E4.44581
G1 X99.067 Y101.407 E4.47034
G1 X98.275 Y101.936 E4.50187
G1 X98.027 Y102.307 E4.51669
G1 X97.588 Y102.220 E4.53150
G1 X96.655 Y102.406 E4.56303
G1 X96.039 Y102.817 E4.58756
G1 X95.933 Y102.747 E4.59177
G1 X95.000 Y102.561 E4.62330
G1 X94.067 Y102.747 E4.65483
G1 X93.961 Y102.817 E4.65904
G1 X93.345 Y102.406 E4.68357
G1 X92.412 Y102.220 E4.71510
G1 X91.973 Y102.307 E4.72992
G1 X91.725 Y101.936 E4.74474
G1 X90.933 Y101.407 E4.77626
G1 X90.207 Y101.262 E4.80080
G1 X90.182 Y101.138 E4.80501
G1 X89.654 Y100.346 E4.83654
G1 X88.862 Y99.818 E4.86807
G1 X88.738 Y99.793 E4.87228
G1 X88.593 Y99.067 E4.89681
G1 X88.064 Y98.275 E4.92834
G1 X87.693 Y98.027 E4.94316
G1 X87.780 Y97.588 E4.95797
G1 X87.594 Y96.655 E4.98950
G1 X87.183 Y96.039 E5.01403
G1 X87.253 Y95.933 E5.01824
G1 X87.439 Y95.000 E5.04977
G1 X87.253 Y94.067 E5.08130
G1 X87.183 Y93.961 E5.08552
G1 X87.594 Y93.345 E5.11005
G1 X87.780 Y92.412 E5.14157
G1 X87.693 Y91.973 E5.15639
G1 X88.064 Y91.725 E5.17121
G1 X88.593 Y90.933 E5.20274
G1 X88.738 Y90.207 E5.22727
G1 X88.862 Y90.182 E5.23148
G1 X89.654 Y89.654 E5.26301
G1 X90.182 Y88.862 E5.29454
G1 X90.207 Y88.738 E5.29875
G1 X90.875 Y88.605 E5.32130
G1 X90.830 Y88.343 F7800.000
G1 F1800
G1 X91.533 Y87.873 E5.34932
G1 X91.851 Y87.397 E5.36827
G1 X92.412 Y87.509 E5.38722
G1 X93.242 Y87.344 E5.41524
G1 X93.961 Y86.863 E5.44390
G1 X94.170 Y87.003 E5.45224
G1 X95.000 Y87.168 E5.48027
G1 X95.830 Y87.003 E5.50830
G1 X96.039 Y86.863 E5.51664
G1 X96.758 Y87.344 E5.54530
G1 X97.588 Y87.509 E5.57333
G1 X98.149 Y87.397 E5.59228
G1 X98.467 Y87.873 E5.61122
G1 X99.170 Y88.343 E5.63925
G1 X100.019 Y88.512 E5.66791
G1 X100.068 Y88.759 E5.67626
G1 X100.538 Y89.462 E5.70428
G1 X101.241 Y89.932 E5.73231
G1 X101.488 Y89.981 E5.74065
G1 X101.657 Y90.830 E5.76932
G1 X102.127 Y91.533 E5.79734
G1 X102.603 Y91.851 E5.81629
G1 X102.491 Y92.412 E5.83524
G1 X102.656 Y93.242 E5.86326
G1 X103.137 Y93.961 E5.89192
G1 X102.997 Y94.170 E5.90026
G1 X102.832 Y95.000 E5.92829
G1 X102.997 Y95.830 E5.95632
G1 X103.137 Y96.039 E5.96466
G1 X102.656 Y96.758 E5.99332
G1 X102.491 Y97.588 E6.02135
G1 X102.603 Y98.149 E6.04030
G1 X102.127 Y98.467 E6.05924
G1 X101.657 Y99.170 E6.08727
G1 X101.488 Y100.019 E6.11593
G1 X101.241 Y100.068 E6.12428
G1 X100.538 Y100.538 E6.15230
G1 X100.068 Y101.241 E6.18033
G1 X100.019 Y101.488 E6.18867
G1 X99.170 Y101.657 E6.21734
G1 X98.467 Y102.127 E6.24536
G1 X98.149 Y102.603 E6.26431
G1 X97.588 Y102.491 E6.28326
G1 X96.758 Y102.656 E6.31128
G1 X96.039 Y103.137 E6.33994
G1 X95.830 Y102.997 E6.34828
G1 X95.000 Y102.832 E6.37631
G1 X94.170 Y102.997 E6.40434
G1 X93.961 Y103.137 E6.41268
G1 X93.242 Y102.656 E6.44134
G1 X92.412 Y102.491 E6.46937
G1 X91.851 Y102.603 E6.48832
G1 X91.533 Y102.127 E6.50726
G1 X90.830 Y101.657 E6.53529
G1 X89.981 Y101.488 E6.56395
G1 X89.932 Y101.241 E6.57230
G1 X89.462 Y100.538 E6.60032
G1 X88.759 Y100.068 E6.62835
G1 X88.512 Y100.019 E6.63669
G1 X88.343 Y99.170 E6.66536
G1 X87.873 Y98.467 E6.69338
G1 X87.397 Y98.149 E6.71233
G1 X87.509 Y97.588 E6.73128
G1 X87.344 Y96.758 E6.75930
G1 X86.863 Y96.039 E6.78796
G1 X87.003 Y95.830 E6.79630
G1 X87.168 Y95.000 E6.82433
G1 X87.003 Y94.170 E6.85236
G1 X86.863 Y93.961 E6.86070
G1 X87.344 Y93.242 E6.88936
G1 X87.509 Y92.412 E6.91739
G1 X87.397 Y91.851 E6.93634
G1 X87.873 Y91.533 E6.95528
G1 X88.343 Y90.830 E6.98331
G1 X88.512 Y89.981 E7.01197
G1 X88.759 Y89.932 E7.02032
G1 X89.462 Y89.462 E7.04834
G1 X89.932 Y88.759 E7.07637
G1 X89.981 Y88.512 E7.08471
G1 X90.771 Y88.355 E7.11139
G1 X91.179 Y88.538 F7800.000
G1 X90.698 Y89.099 F7800.000
G1 F1800
G1 X90.140 Y89.933 E7.14484
G1 X89.306 Y90.490 E7.17826
G1 X89.099 Y90.698 E7.18803
G1 X89.005 Y91.169 E7.20406
G1 X91.169 Y89.005 E7.30607
G1 X91.244 Y88.990 E7.30861
G1 X92.203 Y88.350 E7.34703
G1 X88.188 Y92.364 E7.53626
G1 X88.218 Y92.515 E7.54139
G1 X88.169 Y92.761 E7.54974
G1 X92.761 Y88.169 E7.76618
G1 X93.233 Y88.075 E7.78221
G1 X88.075 Y93.233 E8.02531
G1 X87.991 Y93.656 E8.03968
G1 X87.913 Y93.773 E8.04440
G1 X93.773 Y87.913 E8.32065
G1 X94.119 Y87.682 E8.33450
G1 X94.339 Y87.725 E8.34196
G1 X92.079 Y89.985 E8.44845
G1 X92.457 Y89.985 E8.46105
G1 X94.654 Y87.788 E8.56458
G1 X94.969 Y87.851 E8.57530
G1 X92.835 Y89.985 E8.67588
G1 X93.213 Y89.985 E8.68847
G1 X95.374 Y87.823 E8.79033
G1 X95.846 Y87.730 E8.80636
G1 X93.591 Y89.985 E8.91265
G1 X93.969 Y89.985 E8.92524
G1 X96.198 Y87.755 E9.03031
G1 X96.425 Y87.907 E9.03939
G1 X94.347 Y89.985 E9.13732
G1 X94.725 Y89.985 E9.14992
G1 X96.690 Y88.019 E9.24256
G1 X97.006 Y88.082 E9.25327
G1 X95.103 Y89.985 E9.34297
G1 X95.481 Y89.985 E9.35556
G1 X97.321 Y88.144 E9.44230
G1 X97.636 Y88.207 E9.45301
G1 X95.858 Y89.985 E9.53680
G1 X96.236 Y89.985 E9.54939
G1 X97.948 Y88.273 E9.63007
G1 X97.996 Y88.344 E9.63293
G1 X98.151 Y88.448 E9.63915
G1 X96.614 Y89.985 E9.71158
G1 X96.992 Y89.985 E9.72418
G1 X98.377 Y88.599 E9.78947
G1 X98.604 Y88.751 E9.79855
G1 X97.370 Y89.985 E9.85672
G1 X97.748 Y89.985 E9.86931
G1 X98.831 Y88.902 E9.92034
G1 X98.963 Y88.990 E9.92563
G1 X99.094 Y89.016 E9.93010
G1 X97.952 Y90.158 E9.98392
G1 X98.091 Y90.398 E9.99314
G1 X99.409 Y89.079 E10.05530
G1 X99.509 Y89.099 E10.05869
G1 X99.613 Y89.254 E10.06489
G1 X98.229 Y90.637 E10.13012
G1 X98.367 Y90.877 E10.13934
G1 X99.764 Y89.480 E10.20517
G1 X99.915 Y89.707 E10.21425
G1 X98.506 Y91.117 E10.28070
G1 X98.644 Y91.356 E10.28992
G1 X100.067 Y89.933 E10.35699
G1 X100.293 Y90.085 E10.36607
G1 X98.782 Y91.596 E10.43730
G1 X98.921 Y91.835 E10.44652
G1 X100.520 Y90.236 E10.52190
G1 X100.746 Y90.387 E10.53098
G1 X99.059 Y92.075 E10.61052
G1 X99.197 Y92.314 E10.61974
G1 X100.921 Y90.591 E10.70099
G1 X100.984 Y90.906 E10.71170
G1 X99.336 Y92.554 E10.78938
G1 X99.474 Y92.794 E10.79860
G1 X101.098 Y91.169 E10.87516
G1 X101.249 Y91.396 E10.88424
G1 X99.612 Y93.033 E10.96141
G1 X99.750 Y93.273 E10.97063
G1 X101.401 Y91.623 E11.04842
G1 X101.552 Y91.849 E11.05750
G1 X99.889 Y93.512 E11.13590
G1 X100.027 Y93.752 E11.14512
G1 X101.727 Y92.052 E11.22525
G1 X101.821 Y92.114 E11.22899
G1 X101.782 Y92.309 E11.23559
G1 X101.793 Y92.364 E11.23747
G1 X100.165 Y93.992 E11.31419
G1 X100.304 Y94.231 E11.32341
G1 X101.856 Y92.679 E11.39655
G1 X101.918 Y92.994 E11.40727
G1 X100.442 Y94.471 E11.47685
G1 X100.580 Y94.710 E11.48607
G1 X101.981 Y93.310 E11.55208
G1 X102.009 Y93.449 E11.55682
G1 X102.093 Y93.575 E11.56189
G1 X100.719 Y94.950 E11.62667
G1 X100.807 Y95.103 E11.63257
G1 X100.622 Y95.425 E11.64495
G1 X102.245 Y93.802 E11.72144
G1 X102.318 Y93.913 E11.72587
G1 X102.270 Y94.154 E11.73408
G1 X100.105 Y96.319 E11.83612
G1 X99.589 Y97.213 E11.87053
G1 X102.176 Y94.626 E11.99249
G1 X102.123 Y94.897 E12.00169
G1 X102.149 Y95.031 E12.00625
G1 X99.073 Y98.107 E12.15125
G1 X98.557 Y99.001 E12.18567
G1 X102.212 Y95.346 E12.35796
G1 X102.275 Y95.661 E12.36867
G1 X98.040 Y99.896 E12.56825
G1 X99.302 Y100.901 F7800.000
G1 F1800
G1 X99.509 Y100.694 E12.57798
G1 X100.694 Y99.509 F7800.000
G1 F1800
G1 X100.901 Y99.302 E12.58774
G1 X100.995 Y98.831 E12.60377
G1 X98.831 Y100.995 E12.70578
G1 X98.756 Y101.010 E12.70832
G1 X97.798 Y101.650 E12.74674
G1 X101.650 Y97.798 E12.92834
G1 X101.458 Y97.990 F7800.000
G1 F1800
G1 X101.812 Y97.636 E12.94503
G1 X101.782 Y97.485 E12.95016
G1 X101.831 Y97.239 E12.95852
G1 X97.239 Y101.831 E13.17495
G1 X96.767 Y101.925 E13.19098
G1 X101.925 Y96.767 E13.43408
G1 X102.009 Y96.344 E13.44845
G1 X102.087 Y96.227 E13.45316
G1 X96.227 Y102.087 E13.72940
G1 X95.881 Y102.318 E13.74326
G1 X95.661 Y102.275 E13.75072
G1 X97.921 Y100.015 E13.85721
G1 X97.543 Y100.015 E13.86980
G1 X95.346 Y102.212 E13.97334
G1 X95.031 Y102.149 E13.98405
G1 X97.165 Y100.015 E14.08463
G1 X96.787 Y100.015 E14.09723
G1 X94.626 Y102.176 E14.19909
G1 X94.154 Y102.270 E14.21512
G1 X96.409 Y100.015 E14.32140
G1 X96.031 Y100.015 E14.33399
G1 X93.802 Y102.245 E14.43906
G1 X93.575 Y102.093 E14.44814
G1 X95.653 Y100.015 E14.54607
G1 X95.275 Y100.015 E14.55867
G1 X93.310 Y101.981 E14.65132
G1 X92.994 Y101.918 E14.66203
G1 X94.897 Y100.015 E14.75172
G1 X94.519 Y100.015 E14.76432
G1 X92.679 Y101.856 E14.85105
G1 X92.364 Y101.793 E14.86177
G1 X94.142 Y100.015 E14.94555
G1 X93.764 Y100.015 E14.95815
G1 X92.052 Y101.727 E15.03883
G1 X92.004 Y101.656 E15.04169
G1 X91.849 Y101.552 E15.04791
G1 X93.386 Y100.015 E15.12034
G1 X93.008 Y100.015 E15.13293
G1 X91.623 Y101.401 E15.19823
G1 X91.396 Y101.249 E15.20731
G1 X92.630 Y100.015 E15.26547
G1 X92.252 Y100.015 E15.27807
G1 X91.169 Y101.098 E15.32909
G1 X91.037 Y101.010 E15.33439
G1 X90.906 Y100.984 E15.33886
G1 X92.048 Y99.842 E15.39267
G1 X91.909 Y99.602 E15.40189
G1 X90.591 Y100.921 E15.46405
G1 X90.491 Y100.901 E15.46745
G1 X90.387 Y100.746 E15.47365
G1 X91.771 Y99.363 E15.53887
G1 X91.633 Y99.123 E15.54809
G1 X90.236 Y100.520 E15.61393
G1 X90.085 Y100.293 E15.62301
G1 X91.494 Y98.883 E15.68946
G1 X91.356 Y98.644 E15.69868
G1 X89.933 Y100.067 E15.76575
G1 X89.707 Y99.915 E15.77483
G1 X91.218 Y98.404 E15.84605
G1 X91.079 Y98.165 E15.85527
G1 X89.480 Y99.764 E15.93065
G1 X89.254 Y99.613 E15.93973
G1 X90.941 Y97.925 E16.01927
G1 X90.803 Y97.686 E16.02849
G1 X89.079 Y99.409 E16.10974
G1 X89.016 Y99.094 E16.12045
G1 X90.665 Y97.446 E16.19814
G1 X90.526 Y97.206 E16.20736
G1 X88.902 Y98.831 E16.28391
G1 X88.751 Y98.604 E16.29299
G1 X90.388 Y96.967 E16.37016
G1 X90.250 Y96.727 E16.37938
G1 X88.599 Y98.377 E16.45717
G1 X88.448 Y98.151 E16.46625
G1 X90.111 Y96.488 E16.54465
G1 X89.973 Y96.248 E16.55387
G1 X88.273 Y97.948 E16.63400
G1 X88.179 Y97.886 E16.63774
G1 X88.218 Y97.691 E16.64434
G1 X88.207 Y97.636 E16.64623
G1 X89.835 Y96.008 E16.72294
G1 X89.696 Y95.769 E16.73216
G1 X88.144 Y97.321 E16.80531
G1 X88.082 Y97.006 E16.81602
G1 X89.558 Y95.529 E16.88560
G1 X89.420 Y95.290 E16.89482
G1 X88.019 Y96.690 E16.96084
G1 X87.991 Y96.551 E16.96558
G1 X87.907 Y96.425 E16.97064
G1 X89.281 Y95.050 E17.03542
G1 X89.193 Y94.897 E17.04133
G1 X89.378 Y94.575 E17.05370
G1 X87.755 Y96.198 E17.13019
G1 X87.682 Y96.087 E17.13462
G1 X87.730 Y95.846 E17.14283
G1 X89.894 Y93.681 E17.24487
G1 X90.411 Y92.787 E17.27928
G1 X87.823 Y95.374 E17.40123
G1 X87.877 Y95.103 E17.41043
G1 X87.851 Y94.969 E17.41499
G1 X90.927 Y91.893 E17.55999
G1 X91.443 Y90.999 E17.59440
G1 X87.788 Y94.654 E17.76669
G1 X87.725 Y94.339 E17.77740
G1 X91.959 Y90.105 E17.97698
G1 X92.010 Y88.543 F7800.000
G1 F1800
G1 X92.364 Y88.188 E17.99368
G1 E15.99368 F2400.00000
G92 E0
G1 X97.842 Y101.605 F7800.000
G1 E2.00000 F2400.00000
G1 F1800
G1 X97.886 Y101.614 E2.00147
G1 X97.990 Y101.458 E2.00773
G1 X97.636 Y101.812 E2.02443
G1 E0.02443 F2400.00000
G92 E0
G1 X92.198 Y79.853 F7800.000
G1 E2.00000 F2400.00000
G1 F1800
G1 X89.396 Y75.000 E2.18566
G1 X92.198 Y70.147 E2.37131
G1 X97.802 Y70.147 E2.55697
G1 X100.604 Y75.000 E2.74262
G1 X97.802 Y79.853 E2.92828
G1 X92.258 Y79.853 E3.11195
G1 X92.351 Y79.588 F7800.000
G1 F1800
G1 X89.703 Y75.000 E3.28744
G1 X92.351 Y70.412 E3.46294
G1 X97.649 Y70.412 E3.63843
G1 X100.297 Y75.000 E3.81393
G1 X97.649 Y79.588 E3.98942
G1 X92.411 Y79.588 E4.16293
G1 E2.16293 F2400.00000
G92 E0
G1 X97.495 Y79.322 F7800.000
G1 E2.00000 F2400.00000
G1 F1800
G1 X92.505 Y79.322 E2.16533
G1 X92.412 Y79.161 E2.17147
G1 X90.009 Y75.000 E2.33067
G1 X92.505 Y70.678 E2.49600
G1 X97.495 Y70.678 E2.66133
G1 X99.991 Y75.000 E2.82667
G1 X97.525 Y79.270 E2.99001
G1 X97.430 Y79.717 F7800.000
G1 E0.99001 F2400.00000
G92 E0
G1 X98.963 Y81.157 F7800.000
G1 E2.00000 F2400.00000
G1 F1800
G1 X98.084 Y81.744 E2.03503
G1 X97.905 Y82.012 E2.04572
G1 X97.588 Y81.949 E2.05640
G1 X96.551 Y82.156 E2.09143
G1 X96.040 Y82.497 E2.11179
G1 X95.000 Y82.290 E2.14693
G1 X93.960 Y82.497 E2.18207
G1 X93.449 Y82.156 E2.20242
G1 X92.412 Y81.949 E2.23745
