; generated by Slic3r 1.3.0 on 2020-07-23 at 00:19:26

; external perimeters extrusion width = 0.44mm (2.86mm^3/s)
; perimeters extrusion width = 0.56mm (4.14mm^3/s)
; infill extrusion width = 0.50mm (3.66mm^3/s)
; solid infill extrusion width = 0.56mm (3.10mm^3/s)
; top infill extrusion width = 0.56mm (3.10mm^3/s)

M107
;D3D:START:START
T0
M104 S215 T0

G21
G90
M107
T0
G28
G29
M109 T0 S215 T0
G0 F3000
M107
T0
G92 E0
G0 X0 Y149 Z0.1 F3600
G1 Y49 E6.5 F1200
G0 Z1
G92 E0
; Filament gcode

G21 ; set units to millimeters
G90 ; use absolute coordinates
M82 ; use absolute distances for extrusion
G92 E0
G1 Z0.300 F7800.000
G1 E-2.00000 F2400.00000
G92 E0
G1 X44.174 Y62.776 F7800.000
G1 E2.00000 F2400.00000
G1 F1800
G1 X44.544 Y62.525 E2.01482
G1 X44.956 Y62.358 E2.02957
G1 X45.400 Y62.298 E2.04440
G1 X45.844 Y62.358 E2.05924
G1 X46.256 Y62.525 E2.07399
G1 X46.626 Y62.776 E2.08881
G1 X46.959 Y63.095 E2.10407
G1 X47.263 Y63.474 E2.12015
G1 X47.546 Y63.910 E2.13738
G1 X47.812 Y64.404 E2.15596
G1 X48.064 Y64.955 E2.17606
G1 X48.304 Y65.562 E2.19767
G1 X48.532 Y66.226 E2.22092
G1 X48.744 Y66.931 E2.24532
G1 X48.952 Y67.717 E2.27223
G1 X49.320 Y69.397 E2.32921
G1 X49.632 Y71.235 E2.39100
G1 X49.772 Y72.247 E2.42482
G1 X49.998 Y74.314 E2.49372
G1 X50.163 Y76.484 E2.56582
G1 X50.264 Y78.758 E2.64122
G1 X50.296 Y81.006 E2.71573
G1 X50.263 Y83.281 E2.79110
G1 X50.163 Y85.529 E2.86563
G1 X49.998 Y87.699 E2.93773
G1 X49.771 Y89.766 E3.00663
G1 X49.628 Y90.802 E3.04126
G1 X49.320 Y92.616 E3.10224
G1 X48.951 Y94.300 E3.15936
G1 X48.534 Y95.781 E3.21033
G1 X48.304 Y96.449 E3.23373
G1 X48.064 Y97.057 E3.25538
G1 X47.812 Y97.609 E3.27548
G1 X47.546 Y98.102 E3.29406
G1 X47.263 Y98.538 E3.31128
G1 X46.959 Y98.918 E3.32739
G1 X46.626 Y99.236 E3.34263
G1 X46.257 Y99.487 E3.35742
G1 X45.844 Y99.655 E3.37220
G1 X45.393 Y99.715 E3.38727
G1 X44.927 Y99.643 E3.40288
G1 X44.543 Y99.486 E3.41662
G1 X44.174 Y99.236 E3.43140
G1 X43.841 Y98.918 E3.44664
G1 X43.537 Y98.538 E3.46276
G1 X43.254 Y98.101 E3.48002
G1 X42.972 Y97.573 E3.49986
G1 X42.736 Y97.057 E3.51865
G1 X42.496 Y96.449 E3.54029
G1 X42.268 Y95.787 E3.56350
G1 X42.053 Y95.068 E3.58836
G1 X41.839 Y94.255 E3.61623
G1 X41.480 Y92.616 E3.67180
G1 X41.165 Y90.757 E3.73427
G1 X40.908 Y88.752 E3.80125
G1 X40.801 Y87.696 E3.83641
G1 X40.637 Y85.529 E3.90840
G1 X40.536 Y83.251 E3.98395
G1 X40.504 Y81.006 E4.05831
G1 X40.537 Y78.731 E4.13369
G1 X40.637 Y76.484 E4.20822
G1 X40.801 Y74.317 E4.28021
G1 X40.908 Y73.261 E4.31537
G1 X41.165 Y71.256 E4.38235
G1 X41.476 Y69.418 E4.44412
G1 X41.659 Y68.526 E4.47425
G1 X42.051 Y66.948 E4.52814
G1 X42.268 Y66.226 E4.55312
G1 X42.496 Y65.562 E4.57636
G1 X42.736 Y64.955 E4.59798
G1 X42.988 Y64.404 E4.61807
G1 X43.254 Y63.910 E4.63665
G1 X43.537 Y63.474 E4.65388
G1 X43.841 Y63.095 E4.66997
G1 X44.130 Y62.818 E4.68324
G1 X44.341 Y62.984 F7800.000
G1 F1800
G1 X44.670 Y62.761 E4.69638
G1 X45.025 Y62.617 E4.70909
G1 X45.400 Y62.566 E4.72163
G1 X45.775 Y62.617 E4.73416
G1 X46.130 Y62.761 E4.74687
G1 X46.459 Y62.984 E4.76002
G1 X46.763 Y63.275 E4.77396
G1 X47.047 Y63.629 E4.78903
G1 X47.317 Y64.046 E4.80546
G1 X47.574 Y64.522 E4.82340
G1 X47.820 Y65.060 E4.84297
G1 X48.055 Y65.654 E4.86415
G1 X48.279 Y66.307 E4.88703
G1 X48.488 Y67.004 E4.91112
G1 X48.694 Y67.779 E4.93769
G1 X49.059 Y69.447 E4.99427
G1 X49.369 Y71.276 E5.05571
G1 X49.508 Y72.279 E5.08927
G1 X49.734 Y74.339 E5.15790
G1 X49.898 Y76.501 E5.22974
G1 X49.998 Y78.765 E5.30481
G1 X50.031 Y81.006 E5.37909
G1 X49.997 Y83.274 E5.45424
G1 X49.898 Y85.512 E5.52844
G1 X49.734 Y87.674 E5.60028
G1 X49.508 Y89.733 E5.66891
G1 X49.365 Y90.761 E5.70328
G1 X49.059 Y92.566 E5.76392
G1 X48.693 Y94.236 E5.82057
G1 X48.280 Y95.702 E5.87103
G1 X48.055 Y96.357 E5.89399
G1 X47.820 Y96.953 E5.91520
G1 X47.574 Y97.490 E5.93478
G1 X47.317 Y97.967 E5.95272
G1 X47.047 Y98.383 E5.96914
G1 X46.763 Y98.738 E5.98422
G1 X46.459 Y99.028 E5.99815
G1 X46.131 Y99.251 E6.01128
G1 X45.775 Y99.396 E6.02400
G1 X45.395 Y99.446 E6.03669
G1 X44.998 Y99.385 E6.05000
G1 X44.669 Y99.251 E6.06178
G1 X44.341 Y99.028 E6.07490
G1 X44.037 Y98.738 E6.08883
G1 X43.753 Y98.383 E6.10392
G1 X43.483 Y97.966 E6.12036
G1 X43.210 Y97.455 E6.13956
G1 X42.980 Y96.953 E6.15785
G1 X42.745 Y96.357 E6.17906
G1 X42.521 Y95.705 E6.20190
G1 X42.308 Y94.996 E6.22643
G1 X42.097 Y94.192 E6.25396
G1 X41.741 Y92.565 E6.30914
G1 X41.428 Y90.718 E6.37123
G1 X41.172 Y88.721 E6.43791
G1 X41.066 Y87.672 E6.47284
G1 X40.902 Y85.512 E6.54462
G1 X40.802 Y83.244 E6.61983
G1 X40.769 Y81.006 E6.69397
G1 X40.803 Y78.738 E6.76911
G1 X40.902 Y76.501 E6.84331
G1 X41.066 Y74.340 E6.91509
G1 X41.172 Y73.291 E6.95002
G1 X41.428 Y71.295 E7.01670
G1 X41.738 Y69.466 E7.07814
G1 X41.918 Y68.585 E7.10795
G1 X42.307 Y67.018 E7.16143
G1 X42.521 Y66.307 E7.18603
G1 X42.745 Y65.654 E7.20890
G1 X42.980 Y65.060 E7.23009
G1 X43.226 Y64.522 E7.24966
G1 X43.483 Y64.046 E7.26760
G1 X43.753 Y63.629 E7.28403
G1 X44.037 Y63.275 E7.29909
G1 X44.298 Y63.025 E7.31105
G1 X44.509 Y63.191 F7800.000
G1 F1800
G1 X44.795 Y62.996 E7.32252
G1 X45.094 Y62.875 E7.33319
G1 X45.400 Y62.834 E7.34343
G1 X45.706 Y62.875 E7.35367
G1 X46.005 Y62.996 E7.36433
G1 X46.291 Y63.191 E7.37580
G1 X46.566 Y63.455 E7.38844
G1 X46.832 Y63.785 E7.40248
G1 X47.088 Y64.181 E7.41811
G1 X47.336 Y64.641 E7.43540
G1 X47.575 Y65.164 E7.45445
G1 X47.805 Y65.746 E7.47520
G1 X48.026 Y66.389 E7.49771
G1 X48.436 Y67.842 E7.54772
G1 X48.798 Y69.498 E7.60389
G1 X49.107 Y71.316 E7.66499
G1 X49.244 Y72.312 E7.69830
G1 X49.469 Y74.363 E7.76665
G1 X49.633 Y76.518 E7.83824
G1 X49.733 Y78.771 E7.91298
G1 X49.765 Y81.006 E7.98703
G1 X49.732 Y83.268 E8.06195
G1 X49.633 Y85.495 E8.13581
G1 X49.469 Y87.650 E8.20740
G1 X49.244 Y89.701 E8.27576
G1 X49.103 Y90.721 E8.30987
G1 X48.798 Y92.515 E8.37017
G1 X48.435 Y94.171 E8.42635
G1 X48.026 Y95.623 E8.47630
G1 X47.805 Y96.265 E8.49882
G1 X47.575 Y96.849 E8.51960
G1 X47.336 Y97.372 E8.53865
G1 X47.088 Y97.831 E8.55595
G1 X46.832 Y98.227 E8.57157
G1 X46.566 Y98.558 E8.58563
G1 X46.291 Y98.821 E8.59824
G1 X46.005 Y99.016 E8.60971
G1 X45.706 Y99.137 E8.62038
G1 X45.398 Y99.178 E8.63068
G1 X45.070 Y99.127 E8.64169
G1 X44.795 Y99.016 E8.65151
G1 X44.509 Y98.821 E8.66298
G1 X44.234 Y98.558 E8.67559
G1 X43.968 Y98.227 E8.68965
G1 X43.712 Y97.831 E8.70528
G1 X43.448 Y97.337 E8.72383
G1 X43.225 Y96.849 E8.74161
G1 X42.995 Y96.265 E8.76239
G1 X42.774 Y95.624 E8.78487
G1 X42.564 Y94.924 E8.80907
G1 X42.355 Y94.130 E8.83627
G1 X42.002 Y92.515 E8.89105
G1 X41.691 Y90.679 E8.95275
G1 X41.436 Y88.691 E9.01914
G1 X41.331 Y87.649 E9.05384
G1 X41.167 Y85.495 E9.12541
G1 X41.067 Y83.237 E9.20028
G1 X41.035 Y81.006 E9.27419
G1 X41.068 Y78.745 E9.34911
G1 X41.167 Y76.518 E9.42297
G1 X41.331 Y74.364 E9.49454
G1 X41.436 Y73.322 E9.52925
G1 X41.691 Y71.334 E9.59563
G1 X41.999 Y69.515 E9.65674
G1 X42.177 Y68.644 E9.68621
G1 X42.564 Y67.089 E9.73930
G1 X42.774 Y66.389 E9.76352
G1 X42.995 Y65.746 E9.78602
G1 X43.225 Y65.164 E9.80677
G1 X43.464 Y64.641 E9.82582
G1 X43.712 Y64.181 E9.84312
G1 X43.968 Y63.785 E9.85875
G1 X44.234 Y63.455 E9.87279
G1 X44.466 Y63.232 E9.88343
G1 X44.457 Y62.848 F7800.000
G1 E7.88343 F2400.00000
G92 E0
G1 X100.365 Y71.256 F7800.000
G1 E2.00000 F2400.00000
G1 F1800
G1 X100.676 Y69.418 E2.06177
G1 X100.859 Y68.526 E2.09191
G1 X101.251 Y66.948 E2.14579
G1 X101.468 Y66.226 E2.17077
G1 X101.696 Y65.562 E2.19401
G1 X101.936 Y64.955 E2.21563
G1 X102.188 Y64.404 E2.23572
G1 X102.454 Y63.910 E2.25430
G1 X102.737 Y63.474 E2.27153
G1 X103.041 Y63.095 E2.28762
G1 X103.374 Y62.776 E2.30288
G1 X103.744 Y62.525 E2.31770
G1 X104.156 Y62.358 E2.33245
G1 X104.600 Y62.298 E2.34728
G1 X105.044 Y62.358 E2.36212
G1 X105.456 Y62.525 E2.37687
G1 X105.826 Y62.776 E2.39169
G1 X106.159 Y63.095 E2.40694
G1 X106.463 Y63.474 E2.42303
G1 X106.746 Y63.910 E2.44026
G1 X107.012 Y64.404 E2.45884
G1 X107.264 Y64.955 E2.47893
G1 X107.500 Y65.553 E2.50022
G1 X107.732 Y66.226 E2.52379
G1 X107.947 Y66.943 E2.54860
G1 X108.343 Y68.535 E2.60295
G1 X108.684 Y70.306 E2.66271
G1 X108.971 Y72.243 E2.72758
G1 X109.196 Y74.290 E2.79581
G1 X109.289 Y75.392 E2.83244
G1 X109.421 Y77.599 E2.90567
G1 X109.463 Y78.731 E2.94322
G1 X109.496 Y81.006 E3.01860
G1 X109.463 Y83.281 E3.09397
G1 X109.421 Y84.414 E3.13153
G1 X109.289 Y86.620 E3.20476
G1 X109.194 Y87.740 E3.24198
G1 X108.971 Y89.769 E3.30962
G1 X108.685 Y91.702 E3.37435
G1 X108.519 Y92.620 E3.40524
G1 X108.151 Y94.300 E3.46224
G1 X107.734 Y95.781 E3.51320
G1 X107.504 Y96.449 E3.53661
G1 X107.264 Y97.057 E3.55826
G1 X107.012 Y97.609 E3.57835
G1 X106.746 Y98.102 E3.59694
G1 X106.463 Y98.538 E3.61415
G1 X106.159 Y98.918 E3.63026
G1 X105.826 Y99.236 E3.64551
G1 X105.457 Y99.487 E3.66029
G1 X105.044 Y99.655 E3.67507
G1 X104.593 Y99.715 E3.69015
G1 X104.127 Y99.643 E3.70576
G1 X103.743 Y99.486 E3.71949
G1 X103.374 Y99.236 E3.73428
G1 X103.041 Y98.918 E3.74952
G1 X102.737 Y98.538 E3.76563
G1 X102.454 Y98.101 E3.78290
G1 X102.172 Y97.573 E3.80274
G1 X101.936 Y97.057 E3.82153
G1 X101.696 Y96.449 E3.84317
G1 X101.468 Y95.787 E3.86638
G1 X101.253 Y95.068 E3.89124
G1 X101.039 Y94.255 E3.91911
G1 X100.680 Y92.616 E3.97468
G1 X100.365 Y90.757 E4.03715
G1 X100.108 Y88.752 E4.10412
G1 X100.001 Y87.696 E4.13929
G1 X99.837 Y85.529 E4.21128
G1 X99.737 Y83.281 E4.28581
G1 X99.704 Y81.006 E4.36119
G1 X99.737 Y78.731 E4.43656
G1 X99.780 Y77.577 E4.47483
G1 X99.911 Y75.392 E4.54734
G1 X100.108 Y73.261 E4.61825
G1 X100.357 Y71.315 E4.68324
G1 X100.628 Y71.295 F7800.000
G1 F1800
G1 X100.938 Y69.466 E4.74468
G1 X101.118 Y68.585 E4.77448
G1 X101.507 Y67.018 E4.82797
G1 X101.721 Y66.307 E4.85256
G1 X101.945 Y65.654 E4.87544
G1 X102.180 Y65.060 E4.89662
G1 X102.426 Y64.522 E4.91619
G1 X102.683 Y64.046 E4.93413
G1 X102.953 Y63.629 E4.95056
G1 X103.237 Y63.275 E4.96563
G1 X103.541 Y62.984 E4.97957
G1 X103.870 Y62.761 E4.99272
G1 X104.225 Y62.617 E5.00542
G1 X104.600 Y62.566 E5.01796
G1 X104.975 Y62.617 E5.03050
G1 X105.330 Y62.761 E5.04321
G1 X105.659 Y62.984 E5.05635
G1 X105.963 Y63.275 E5.07030
G1 X106.247 Y63.629 E5.08536
G1 X106.517 Y64.046 E5.10179
G1 X106.774 Y64.522 E5.11973
G1 X107.020 Y65.060 E5.13930
G1 X107.251 Y65.645 E5.16015
G1 X107.479 Y66.307 E5.18335
G1 X107.692 Y67.015 E5.20785
G1 X108.083 Y68.591 E5.26163
G1 X108.422 Y70.351 E5.32102
G1 X108.708 Y72.277 E5.38553
G1 X108.932 Y74.316 E5.45349
G1 X109.024 Y75.411 E5.48990
G1 X109.156 Y77.611 E5.56292
G1 X109.197 Y78.738 E5.60027
G1 X109.231 Y81.006 E5.67542
G1 X109.197 Y83.274 E5.75057
G1 X109.156 Y84.401 E5.78793
G1 X109.024 Y86.601 E5.86095
G1 X108.930 Y87.714 E5.89795
G1 X108.708 Y89.735 E5.96531
G1 X108.423 Y91.659 E6.02974
G1 X108.259 Y92.568 E6.06033
G1 X107.893 Y94.236 E6.11691
G1 X107.480 Y95.702 E6.16736
G1 X107.255 Y96.357 E6.19033
G1 X107.020 Y96.953 E6.21154
G1 X106.774 Y97.490 E6.23111
G1 X106.517 Y97.967 E6.24906
G1 X106.247 Y98.383 E6.26547
G1 X105.963 Y98.738 E6.28055
G1 X105.659 Y99.028 E6.29448
G1 X105.331 Y99.251 E6.30761
G1 X104.975 Y99.396 E6.32034
G1 X104.595 Y99.446 E6.33302
G1 X104.198 Y99.385 E6.34634
G1 X103.869 Y99.251 E6.35811
G1 X103.541 Y99.028 E6.37124
G1 X103.237 Y98.738 E6.38517
G1 X102.953 Y98.383 E6.40025
G1 X102.683 Y97.966 E6.41670
G1 X102.410 Y97.455 E6.43589
G1 X102.180 Y96.953 E6.45418
G1 X101.945 Y96.357 E6.47539
G1 X101.721 Y95.705 E6.49823
G1 X101.508 Y94.996 E6.52277
G1 X101.297 Y94.192 E6.55030
G1 X100.941 Y92.565 E6.60548
G1 X100.628 Y90.718 E6.66756
G1 X100.372 Y88.721 E6.73424
G1 X100.266 Y87.672 E6.76917
G1 X100.102 Y85.512 E6.84095
G1 X100.003 Y83.274 E6.91515
G1 X99.969 Y81.006 E6.99030
G1 X100.003 Y78.738 E7.06545
G1 X100.045 Y77.590 E7.10352
G1 X100.176 Y75.411 E7.17582
G1 X100.372 Y73.291 E7.24636
G1 X100.620 Y71.354 E7.31105
G1 X100.891 Y71.334 F7800.000
G1 F1800
G1 X101.199 Y69.515 E7.37216
G1 X101.377 Y68.644 E7.40163
G1 X101.764 Y67.089 E7.45472
G1 X101.974 Y66.389 E7.47894
G1 X102.195 Y65.746 E7.50144
G1 X102.425 Y65.164 E7.52219
G1 X102.664 Y64.641 E7.54124
G1 X102.912 Y64.181 E7.55854
G1 X103.168 Y63.785 E7.57417
G1 X103.434 Y63.455 E7.58821
G1 X103.709 Y63.191 E7.60084
G1 X103.995 Y62.996 E7.61232
G1 X104.294 Y62.875 E7.62298
G1 X104.600 Y62.834 E7.63322
G1 X104.906 Y62.875 E7.64346
G1 X105.205 Y62.996 E7.65412
G1 X105.491 Y63.191 E7.66560
G1 X105.766 Y63.455 E7.67823
G1 X106.032 Y63.785 E7.69227
G1 X106.288 Y64.181 E7.70790
G1 X106.536 Y64.641 E7.72520
G1 X106.775 Y65.164 E7.74425
G1 X107.002 Y65.737 E7.76467
G1 X107.226 Y66.389 E7.78750
G1 X107.436 Y67.087 E7.81167
G1 X107.823 Y68.646 E7.86488
G1 X108.161 Y70.396 E7.92391
G1 X108.444 Y72.311 E7.98806
G1 X108.667 Y74.342 E8.05574
G1 X108.759 Y75.430 E8.09194
G1 X108.890 Y77.624 E8.16475
G1 X108.932 Y78.745 E8.20190
G1 X108.965 Y81.006 E8.27682
G1 X108.932 Y83.268 E8.35175
G1 X108.890 Y84.388 E8.38890
G1 X108.759 Y86.582 E8.46172
G1 X108.665 Y87.688 E8.49850
G1 X108.444 Y89.701 E8.56559
G1 X108.161 Y91.616 E8.62971
G1 X107.998 Y92.516 E8.66000
G1 X107.635 Y94.171 E8.71615
G1 X107.226 Y95.623 E8.76610
G1 X107.005 Y96.265 E8.78862
G1 X106.775 Y96.849 E8.80940
G1 X106.536 Y97.372 E8.82845
G1 X106.288 Y97.831 E8.84575
G1 X106.032 Y98.227 E8.86137
G1 X105.766 Y98.558 E8.87542
G1 X105.491 Y98.821 E8.88804
G1 X105.205 Y99.016 E8.89951
G1 X104.906 Y99.137 E8.91018
G1 X104.598 Y99.178 E8.92048
G1 X104.270 Y99.127 E8.93149
G1 X103.995 Y99.016 E8.94131
G1 X103.709 Y98.821 E8.95278
G1 X103.434 Y98.558 E8.96539
G1 X103.168 Y98.227 E8.97945
G1 X102.912 Y97.831 E8.99508
G1 X102.648 Y97.337 E9.01363
G1 X102.425 Y96.849 E9.03141
G1 X102.195 Y96.265 E9.05219
G1 X101.974 Y95.624 E9.07467
G1 X101.764 Y94.924 E9.09887
G1 X101.555 Y94.130 E9.12607
G1 X101.202 Y92.515 E9.18085
G1 X100.891 Y90.679 E9.24255
G1 X100.636 Y88.691 E9.30894
G1 X100.531 Y87.649 E9.34364
G1 X100.367 Y85.495 E9.41521
G1 X100.268 Y83.268 E9.48907
G1 X100.235 Y81.006 E9.56399
G1 X100.268 Y78.745 E9.63891
G1 X100.310 Y77.603 E9.67678
G1 X100.441 Y75.430 E9.74888
G1 X100.636 Y73.322 E9.81904
G1 X100.883 Y71.394 E9.88344
G1 X100.578 Y71.084 F7800.000
G1 E7.88344 F2400.00000
G92 E0
G1 X112.304 Y29.330 F7800.000
G1 E2.00000 F2400.00000
G1 F1800
G1 X112.304 Y121.195 E5.04345
G1 X37.696 Y121.195 E7.51516
G1 X37.696 Y29.330 E10.55861
G1 X38.533 Y29.824 E10.59081
G1 X42.770 Y31.983 E10.74836
G1 X47.134 Y33.872 E10.90590
G1 X51.608 Y35.483 E11.06344
G1 X56.175 Y36.809 E11.22098
G1 X60.816 Y37.847 E11.37853
G1 X65.513 Y38.591 E11.53607
G1 X70.247 Y39.038 E11.69361
G1 X75.000 Y39.188 E11.85116
G1 X79.753 Y39.038 E12.00870
G1 X84.487 Y38.591 E12.16624
G1 X89.184 Y37.847 E12.32379
G1 X93.825 Y36.809 E12.48133
G1 X98.392 Y35.483 E12.63887
G1 X102.866 Y33.872 E12.79642
G1 X107.230 Y31.983 E12.95396
G1 X111.467 Y29.824 E13.11150
G1 X112.252 Y29.360 E13.14172
G1 X112.569 Y28.864 F7800.000
G1 F1800
G1 X112.569 Y121.460 E16.20939
G1 X37.431 Y121.460 E18.69870
G1 X37.431 Y28.864 E21.76638
G1 X38.661 Y29.592 E21.81373
G1 X42.883 Y31.743 E21.97072
G1 X47.232 Y33.625 E22.12771
G1 X51.691 Y35.230 E22.28470
G1 X56.241 Y36.552 E22.44169
G1 X60.866 Y37.586 E22.59868
G1 X65.546 Y38.327 E22.75568
G1 X70.264 Y38.773 E22.91266
G1 X75.000 Y38.922 E23.06965
G1 X79.736 Y38.773 E23.22664
G1 X84.454 Y38.327 E23.38363
G1 X89.134 Y37.586 E23.54063
G1 X93.759 Y36.552 E23.69761
G1 X98.309 Y35.230 E23.85461
G1 X102.768 Y33.625 E24.01159
G1 X107.117 Y31.743 E24.16858
G1 X111.339 Y29.592 E24.32557
G1 X112.518 Y28.894 E24.37094
G1 X112.835 Y28.398 F7800.000
G1 F1800
G1 X112.835 Y121.726 E27.46284
G1 X37.165 Y121.726 E29.96976
G1 X37.165 Y28.398 E33.06166
G1 X38.789 Y29.359 E33.12416
G1 X42.996 Y31.502 E33.28060
G1 X47.330 Y33.378 E33.43704
G1 X51.773 Y34.977 E33.59347
G1 X56.307 Y36.295 E33.74991
G1 X60.915 Y37.325 E33.90635
G1 X65.579 Y38.063 E34.06279
G1 X70.280 Y38.508 E34.21922
G1 X75.000 Y38.656 E34.37566
G1 X79.720 Y38.508 E34.53210
G1 X84.421 Y38.063 E34.68853
G1 X89.085 Y37.325 E34.84497
G1 X93.693 Y36.295 E35.00141
G1 X98.227 Y34.977 E35.15785
G1 X102.670 Y33.378 E35.31428
G1 X107.004 Y31.502 E35.47072
G1 X111.211 Y29.359 E35.62716
G1 X112.783 Y28.429 E35.68767
G1 X112.694 Y28.773 F7800.000
G1 E33.68767 F2400.00000
G92 E0
