; generated by Slic3r 1.3.0 on 2020-07-22 at 10:37:25

; external perimeters extrusion width = 0.44mm (2.86mm^3/s)
; perimeters extrusion width = 0.56mm (4.14mm^3/s)
; infill extrusion width = 0.50mm (3.66mm^3/s)
; solid infill extrusion width = 0.56mm (3.10mm^3/s)
; top infill extrusion width = 0.56mm (3.10mm^3/s)

M107
;D3D:START:START
T0
M104 S215 T0

G21
G90
M107
T0
G28
G29
M109 T0 S215 T0
G0 F3000
M107
T0
G92 E0
G0 X0 Y149 Z0.1 F3600
G1 Y49 E6.5 F1200
G0 Z1
G92 E0
; Filament gcode

G21 ; set units to millimeters
G90 ; use absolute coordinates
M82 ; use absolute distances for extrusion
G92 E0
G1 Z0.300 F7800.000
G1 E-2.00000 F2400.00000
G92 E0
G1 X41.167 Y90.881 F7800.000
G1 E2.00000 F2400.00000
G1 F1800
G1 X49.634 Y90.879 E2.28052
G1 X49.319 Y92.620 E2.33913
G1 X48.951 Y94.300 E2.39613
G1 X48.533 Y95.782 E2.44712
G1 X48.288 Y96.489 E2.47190
G1 X48.064 Y97.057 E2.49214
G1 X47.812 Y97.609 E2.51224
G1 X47.546 Y98.102 E2.53082
G1 X47.263 Y98.538 E2.54804
G1 X46.959 Y98.918 E2.56415
G1 X46.626 Y99.236 E2.57939
G1 X46.257 Y99.487 E2.59418
G1 X45.844 Y99.655 E2.60896
G1 X45.400 Y99.714 E2.62379
G1 X44.956 Y99.655 E2.63862
G1 X44.543 Y99.487 E2.65340
G1 X44.171 Y99.234 E2.66831
G1 X43.819 Y98.890 E2.68459
G1 X43.537 Y98.538 E2.69953
G1 X43.254 Y98.102 E2.71675
G1 X42.988 Y97.609 E2.73533
G1 X42.736 Y97.057 E2.75543
G1 X42.496 Y96.449 E2.77707
G1 X42.268 Y95.787 E2.80028
G1 X42.053 Y95.068 E2.82514
G1 X41.839 Y94.255 E2.85301
G1 X41.481 Y92.620 E2.90845
G1 X41.177 Y90.940 E2.96499
G1 X41.484 Y91.146 F7800.000
G1 F1800
G1 X49.316 Y91.145 E3.22445
G1 X49.059 Y92.568 E3.27236
G1 X48.693 Y94.236 E3.32894
G1 X48.280 Y95.702 E3.37941
G1 X48.039 Y96.397 E3.40375
G1 X47.820 Y96.953 E3.42357
G1 X47.574 Y97.490 E3.44314
G1 X47.317 Y97.967 E3.46108
G1 X47.047 Y98.383 E3.47750
G1 X46.763 Y98.738 E3.49258
G1 X46.459 Y99.028 E3.50651
G1 X46.131 Y99.251 E3.51964
G1 X45.775 Y99.396 E3.53236
G1 X45.400 Y99.446 E3.54490
G1 X45.025 Y99.396 E3.55744
G1 X44.669 Y99.251 E3.57016
G1 X44.339 Y99.027 E3.58336
G1 X44.016 Y98.712 E3.59833
G1 X43.753 Y98.383 E3.61229
G1 X43.483 Y97.967 E3.62871
G1 X43.226 Y97.490 E3.64665
G1 X42.980 Y96.953 E3.66622
G1 X42.745 Y96.357 E3.68744
G1 X42.521 Y95.705 E3.71028
G1 X42.308 Y94.996 E3.73481
G1 X42.097 Y94.192 E3.76234
G1 X41.741 Y92.568 E3.81744
G1 X41.495 Y91.205 E3.86332
G1 X41.802 Y91.411 F7800.000
G1 F1800
G1 X48.998 Y91.410 E4.10171
G1 X48.798 Y92.516 E4.13893
G1 X48.435 Y94.171 E4.19508
G1 X48.026 Y95.623 E4.24504
G1 X47.790 Y96.304 E4.26893
G1 X47.575 Y96.849 E4.28833
G1 X47.336 Y97.372 E4.30738
G1 X47.088 Y97.831 E4.32468
G1 X46.832 Y98.227 E4.34030
G1 X46.566 Y98.558 E4.35435
G1 X46.291 Y98.821 E4.36697
G1 X46.005 Y99.016 E4.37844
G1 X45.706 Y99.137 E4.38911
G1 X45.400 Y99.178 E4.39935
G1 X45.094 Y99.137 E4.40959
G1 X44.795 Y99.016 E4.42026
G1 X44.508 Y98.821 E4.43176
G1 X44.213 Y98.533 E4.44541
G1 X43.968 Y98.227 E4.45839
G1 X43.712 Y97.831 E4.47401
G1 X43.464 Y97.372 E4.49131
G1 X43.225 Y96.849 E4.51036
G1 X42.995 Y96.265 E4.53114
G1 X42.774 Y95.624 E4.55361
G1 X42.564 Y94.924 E4.57782
G1 X42.355 Y94.130 E4.60502
G1 X42.002 Y92.516 E4.65977
G1 X41.813 Y91.470 E4.69498
G1 X41.784 Y91.143 F7800.000
G1 E2.69498 F2400.00000
G92 E0
G1 X100.367 Y90.882 F7800.000
G1 E2.00000 F2400.00000
G1 F1800
G1 X108.834 Y90.879 E2.28052
G1 X108.519 Y92.620 E2.33913
G1 X108.151 Y94.300 E2.39612
G1 X107.733 Y95.782 E2.44712
G1 X107.488 Y96.489 E2.47190
G1 X107.264 Y97.057 E2.49214
G1 X107.012 Y97.609 E2.51224
G1 X106.746 Y98.102 E2.53082
G1 X106.463 Y98.538 E2.54804
G1 X106.159 Y98.918 E2.56415
G1 X105.826 Y99.236 E2.57939
G1 X105.457 Y99.487 E2.59418
G1 X105.044 Y99.655 E2.60895
G1 X104.600 Y99.714 E2.62379
G1 X104.156 Y99.655 E2.63862
G1 X103.743 Y99.487 E2.65340
G1 X103.371 Y99.234 E2.66831
G1 X103.019 Y98.890 E2.68458
G1 X102.737 Y98.538 E2.69953
G1 X102.454 Y98.102 E2.71674
G1 X102.188 Y97.609 E2.73533
G1 X101.936 Y97.057 E2.75543
G1 X101.696 Y96.449 E2.77707
G1 X101.468 Y95.787 E2.80028
G1 X101.253 Y95.068 E2.82514
G1 X101.039 Y94.255 E2.85301
G1 X100.681 Y92.620 E2.90845
G1 X100.377 Y90.941 E2.96497
G1 X100.684 Y91.146 F7800.000
G1 F1800
G1 X108.516 Y91.145 E3.22443
G1 X108.259 Y92.568 E3.27234
G1 X107.893 Y94.236 E3.32892
G1 X107.480 Y95.702 E3.37939
G1 X107.239 Y96.397 E3.40373
G1 X107.020 Y96.953 E3.42355
G1 X106.774 Y97.490 E3.44312
G1 X106.517 Y97.967 E3.46107
G1 X106.247 Y98.383 E3.47748
G1 X105.963 Y98.738 E3.49257
G1 X105.659 Y99.028 E3.50650
G1 X105.331 Y99.251 E3.51962
G1 X104.975 Y99.396 E3.53235
G1 X104.600 Y99.446 E3.54488
G1 X104.225 Y99.396 E3.55742
G1 X103.869 Y99.251 E3.57014
G1 X103.540 Y99.027 E3.58335
G1 X103.216 Y98.712 E3.59831
G1 X102.953 Y98.383 E3.61228
G1 X102.683 Y97.967 E3.62869
G1 X102.426 Y97.490 E3.64664
G1 X102.180 Y96.953 E3.66621
G1 X101.945 Y96.357 E3.68742
G1 X101.721 Y95.705 E3.71026
G1 X101.508 Y94.996 E3.73480
G1 X101.297 Y94.192 E3.76233
G1 X100.941 Y92.568 E3.81743
G1 X100.695 Y91.205 E3.86329
G1 X101.002 Y91.411 F7800.000
G1 F1800
G1 X108.198 Y91.410 E4.10169
G1 X107.998 Y92.516 E4.13890
G1 X107.635 Y94.171 E4.19506
G1 X107.226 Y95.623 E4.24501
G1 X106.990 Y96.304 E4.26891
G1 X106.775 Y96.849 E4.28831
G1 X106.536 Y97.372 E4.30735
G1 X106.288 Y97.831 E4.32466
G1 X106.032 Y98.227 E4.34027
G1 X105.766 Y98.558 E4.35433
G1 X105.491 Y98.821 E4.36694
G1 X105.205 Y99.016 E4.37841
G1 X104.906 Y99.137 E4.38908
G1 X104.600 Y99.178 E4.39932
G1 X104.294 Y99.137 E4.40956
G1 X103.995 Y99.016 E4.42024
G1 X103.708 Y98.821 E4.43173
G1 X103.413 Y98.533 E4.44538
G1 X103.168 Y98.227 E4.45837
G1 X102.912 Y97.831 E4.47398
G1 X102.664 Y97.372 E4.49129
G1 X102.425 Y96.849 E4.51033
G1 X102.195 Y96.265 E4.53111
G1 X101.974 Y95.624 E4.55359
G1 X101.764 Y94.924 E4.57780
G1 X101.555 Y94.130 E4.60499
G1 X101.202 Y92.516 E4.65974
G1 X101.013 Y91.470 E4.69495
G1 X100.984 Y91.154 F7800.000
G1 E2.69495 F2400.00000
G92 E0
G1 X112.304 Y121.195 F7800.000
G1 E2.00000 F2400.00000
G1 F1800
G1 X37.696 Y121.195 E4.47171
G1 X37.696 Y29.330 E7.51516
G1 X38.533 Y29.824 E7.54736
G1 X42.770 Y31.983 E7.70491
G1 X47.134 Y33.872 E7.86245
G1 X51.608 Y35.483 E8.01999
G1 X56.175 Y36.809 E8.17754
G1 X60.816 Y37.847 E8.33508
G1 X65.513 Y38.591 E8.49262
G1 X70.247 Y39.038 E8.65016
G1 X75.000 Y39.188 E8.80771
G1 X79.753 Y39.038 E8.96525
G1 X84.487 Y38.591 E9.12279
G1 X89.184 Y37.847 E9.28034
G1 X93.825 Y36.809 E9.43788
G1 X98.392 Y35.483 E9.59543
G1 X102.866 Y33.872 E9.75297
G1 X107.230 Y31.983 E9.91051
G1 X111.467 Y29.824 E10.06805
G1 X112.304 Y29.330 E10.10026
G1 X112.304 Y121.135 E13.14172
G1 X112.569 Y121.460 F7800.000
G1 F1800
G1 X37.431 Y121.460 E15.63103
G1 X37.431 Y28.864 E18.69870
G1 X38.661 Y29.592 E18.74606
G1 X42.883 Y31.743 E18.90305
G1 X47.232 Y33.625 E19.06004
G1 X51.691 Y35.230 E19.21703
G1 X56.241 Y36.552 E19.37402
G1 X60.866 Y37.586 E19.53101
G1 X65.546 Y38.327 E19.68800
G1 X70.264 Y38.773 E19.84499
G1 X75.000 Y38.922 E20.00198
G1 X79.736 Y38.773 E20.15897
G1 X84.454 Y38.327 E20.31596
G1 X89.134 Y37.586 E20.47295
G1 X93.759 Y36.552 E20.62994
G1 X98.309 Y35.230 E20.78693
G1 X102.768 Y33.625 E20.94392
G1 X107.117 Y31.743 E21.10091
G1 X111.339 Y29.592 E21.25790
G1 X112.569 Y28.864 E21.30525
G1 X112.569 Y121.400 E24.37094
G1 X112.835 Y121.726 F7800.000
G1 F1800
G1 X37.165 Y121.726 E26.87785
G1 X37.165 Y28.398 E29.96976
G1 X38.789 Y29.359 E30.03226
G1 X42.996 Y31.502 E30.18870
G1 X47.330 Y33.378 E30.34514
G1 X51.773 Y34.977 E30.50157
G1 X56.307 Y36.295 E30.65801
G1 X60.915 Y37.325 E30.81444
G1 X65.579 Y38.063 E30.97088
G1 X70.280 Y38.508 E31.12732
G1 X75.000 Y38.656 E31.28376
G1 X79.720 Y38.508 E31.44019
G1 X84.421 Y38.063 E31.59663
G1 X89.085 Y37.325 E31.75307
G1 X93.693 Y36.295 E31.90950
G1 X98.227 Y34.977 E32.06594
G1 X102.670 Y33.378 E32.22238
G1 X107.004 Y31.502 E32.37881
G1 X111.211 Y29.359 E32.53525
G1 X112.835 Y28.398 E32.59776
G1 X112.835 Y121.666 E35.68767
G1 X112.487 Y121.528 F7800.000
G1 X111.935 Y121.032 F7800.000
G1 F1800
G1 X112.141 Y120.826 E35.69738
G1 X112.141 Y120.449 E35.70987
G1 X111.558 Y121.032 E35.73724
G1 X111.182 Y121.032 E35.74973
G1 X112.141 Y120.073 E35.79476
G1 X112.141 Y119.697 E35.80725
G1 X110.806 Y121.032 E35.86995
G1 X110.429 Y121.032 E35.88244
G1 X112.141 Y119.320 E35.96280
G1 X112.141 Y118.944 E35.97529
G1 X110.053 Y121.032 E36.07332
G1 X109.677 Y121.032 E36.08581
G1 X112.141 Y118.568 E36.20150
G1 X112.141 Y118.191 E36.21399
G1 X109.300 Y121.032 E36.34734
G1 X108.924 Y121.032 E36.35983
G1 X112.141 Y117.815 E36.51085
G1 X112.141 Y117.439 E36.52334
G1 X108.548 Y121.032 E36.69203
G1 X108.171 Y121.032 E36.70452
G1 X112.141 Y117.062 E36.89086
G1 X112.141 Y116.686 E36.90336
G1 X107.795 Y121.032 E37.10737
G1 X107.419 Y121.032 E37.11986
G1 X112.141 Y116.310 E37.34153
G1 X112.141 Y115.933 E37.35402
G1 X107.042 Y121.032 E37.59337
G1 X106.666 Y121.032 E37.60586
G1 X112.141 Y115.557 E37.86286
G1 X112.141 Y115.181 E37.87535
G1 X106.290 Y121.032 E38.15002
G1 X105.913 Y121.032 E38.16251
G1 X112.141 Y114.804 E38.45485
G1 X112.141 Y114.428 E38.46734
G1 X105.537 Y121.032 E38.77734
G1 X105.161 Y121.032 E38.78983
G1 X112.141 Y114.052 E39.11749
G1 X112.141 Y113.675 E39.12998
G1 X104.784 Y121.032 E39.47531
G1 X104.408 Y121.032 E39.48780
G1 X112.141 Y113.299 E39.85079
G1 X112.141 Y112.923 E39.86328
G1 X104.032 Y121.032 E40.24393
G1 X103.655 Y121.032 E40.25643
G1 X112.141 Y112.546 E40.65475
G1 X112.141 Y112.170 E40.66724
G1 X103.279 Y121.032 E41.08322
G1 X102.903 Y121.032 E41.09571
G1 X112.141 Y111.794 E41.52936
G1 X112.141 Y111.417 E41.54185
G1 X102.526 Y121.032 E41.99316
G1 X102.150 Y121.032 E42.00565
G1 X112.141 Y111.041 E42.47463
G1 X112.141 Y110.665 E42.48712
G1 X101.774 Y121.032 E42.97376
G1 X101.397 Y121.032 E42.98625
G1 X112.141 Y110.288 E43.49056
G1 X112.141 Y109.912 E43.50305
G1 X101.021 Y121.032 E44.02502
G1 X100.645 Y121.032 E44.03751
G1 X112.141 Y109.536 E44.57715
G1 X112.141 Y109.159 E44.58964
G1 X100.268 Y121.032 E45.14694
G1 X99.892 Y121.032 E45.15943
G1 X112.141 Y108.783 E45.73439
G1 X112.141 Y108.407 E45.74688
G1 X99.516 Y121.032 E46.33951
G1 X99.139 Y121.032 E46.35200
G1 X112.141 Y108.030 E46.96229
G1 X112.141 Y107.654 E46.97478
G1 X98.763 Y121.032 E47.60274
G1 X98.387 Y121.032 E47.61523
G1 X112.141 Y107.278 E48.26085
G1 X112.141 Y106.901 E48.27334
G1 X98.010 Y121.032 E48.93663
G1 X97.634 Y121.032 E48.94912
G1 X112.141 Y106.525 E49.63007
G1 X112.141 Y106.149 E49.64256
G1 X97.258 Y121.032 E50.34117
G1 X96.881 Y121.032 E50.35366
G1 X112.141 Y105.772 E51.06994
G1 X112.141 Y105.396 E51.08243
G1 X96.505 Y121.032 E51.81638
G1 X96.129 Y121.032 E51.82887
G1 X112.141 Y105.020 E52.58047
G1 X112.141 Y104.643 E52.59297
G1 X95.752 Y121.032 E53.36224
G1 X95.376 Y121.032 E53.37473
G1 X112.141 Y104.267 E54.16166
G1 X112.141 Y103.891 E54.17415
G1 X95.000 Y121.032 E54.97875
G1 X94.623 Y121.032 E54.99125
G1 X112.141 Y103.514 E55.81351
G1 X112.141 Y103.138 E55.82600
G1 X94.247 Y121.032 E56.66593
G1 X93.871 Y121.032 E56.67842
G1 X112.141 Y102.762 E57.53601
G1 X112.141 Y102.385 E57.54850
G1 X93.494 Y121.032 E58.42376
G1 X93.118 Y121.032 E58.43625
G1 X112.141 Y102.009 E59.32917
G1 X112.141 Y101.633 E59.34167
G1 X92.742 Y121.032 E60.25225
G1 X92.365 Y121.032 E60.26474
G1 X112.141 Y101.256 E61.19299
G1 X112.141 Y100.880 E61.20548
G1 X91.989 Y121.032 E62.15140
G1 X91.613 Y121.032 E62.16389
G1 X112.141 Y100.504 E63.12747
G1 X112.141 Y100.127 E63.13996
G1 X91.236 Y121.032 E64.12120
G1 X90.860 Y121.032 E64.13369
G1 X112.141 Y99.751 E65.13260
G1 X112.141 Y99.375 E65.14509
G1 X90.484 Y121.032 E66.16167
G1 X90.107 Y121.032 E66.17416
G1 X112.141 Y98.998 E67.20839
G1 X112.141 Y98.622 E67.22088
G1 X89.731 Y121.032 E68.27279
G1 X89.355 Y121.032 E68.28528
G1 X112.141 Y98.246 E69.35484
G1 X112.141 Y97.869 E69.36733
G1 X88.978 Y121.032 E70.45456
G1 X88.602 Y121.032 E70.46705
G1 X112.141 Y97.493 E71.57195
G1 X112.141 Y97.117 E71.58444
G1 X88.226 Y121.032 E72.70700
G1 X87.849 Y121.032 E72.71949
G1 X112.141 Y96.740 E73.85971
G1 X112.141 Y96.364 E73.87220
G1 X87.473 Y121.032 E75.03009
G1 X87.097 Y121.032 E75.04258
G1 X112.141 Y95.988 E76.21813
G1 X112.141 Y95.611 E76.23062
G1 X86.720 Y121.032 E77.42384
G1 X86.344 Y121.032 E77.43633
G1 X112.141 Y95.235 E78.64721
G1 X112.141 Y94.859 E78.65970
G1 X85.968 Y121.032 E79.88824
G1 X85.591 Y121.032 E79.90073
G1 X112.141 Y94.482 E81.14694
G1 X112.141 Y94.106 E81.15943
G1 X85.215 Y121.032 E82.42331
G1 X84.839 Y121.032 E82.43580
G1 X112.141 Y93.730 E83.71734
G1 X112.141 Y93.353 E83.72983
G1 X84.462 Y121.032 E85.02903
G1 X84.086 Y121.032 E85.04152
G1 X105.372 Y99.747 E86.04064
G1 X105.216 Y99.810 E86.04624
G1 X104.889 Y99.854 E86.05720
G1 X83.710 Y121.032 E87.05129
G1 X83.333 Y121.032 E87.06378
G1 X104.513 Y99.853 E88.05790
G1 X104.183 Y99.807 E88.06897
G1 X82.957 Y121.032 E89.06526
G1 X82.581 Y121.032 E89.07775
G1 X103.915 Y99.698 E90.07915
G1 X103.660 Y99.577 E90.08853
G1 X82.204 Y121.032 E91.09560
G1 X81.828 Y121.032 E91.10809
G1 X103.435 Y99.425 E92.12230
G1 X103.225 Y99.259 E92.13119
G1 X81.452 Y121.032 E93.15320
G1 X81.075 Y121.032 E93.16570
G1 X103.035 Y99.073 E94.19644
G1 X102.854 Y98.877 E94.20528
G1 X80.699 Y121.032 E95.24520
G1 X80.323 Y121.032 E95.25769
G1 X102.687 Y98.668 E96.30742
G1 X102.532 Y98.447 E96.31639
G1 X79.946 Y121.032 E97.37649
G1 X79.570 Y121.032 E97.38898
G1 X102.384 Y98.219 E98.45981
G1 X102.246 Y97.980 E98.46895
G1 X79.194 Y121.032 E99.55097
G1 X78.817 Y121.032 E99.56346
G1 X102.114 Y97.736 E100.65696
G1 X101.990 Y97.484 E100.66628
G1 X78.441 Y121.032 E101.77160
G1 X78.065 Y121.032 E101.78409
G1 X101.871 Y97.226 E102.90153
G1 X101.757 Y96.964 E102.91102
G1 X77.688 Y121.032 E104.04078
G1 X77.312 Y121.032 E104.05327
G1 X101.651 Y96.694 E105.19569
G1 X101.545 Y96.423 E105.20533
G1 X76.936 Y121.032 E106.36044
G1 X76.559 Y121.032 E106.37293
G1 X101.449 Y96.143 E107.54120
G1 X101.353 Y95.863 E107.55102
G1 X76.183 Y121.032 E108.73243
G1 X75.807 Y121.032 E108.74492
G1 X101.262 Y95.577 E109.93976
G1 X101.175 Y95.288 E109.94979
G1 X75.430 Y121.032 E111.15821
G1 X75.054 Y121.032 E111.17071
G1 X101.090 Y94.997 E112.39277
G1 X101.011 Y94.699 E112.40299
G1 X74.678 Y121.032 E113.63904
G1 X74.302 Y121.032 E113.65153
G1 X100.933 Y94.401 E114.90156
G1 X100.859 Y94.099 E114.91188
G1 X73.925 Y121.032 E116.17609
G1 X73.549 Y121.032 E116.18858
G1 X100.791 Y93.790 E117.46728
G1 X100.723 Y93.482 E117.47777
G1 X73.173 Y121.032 E118.77096
G1 X72.796 Y121.032 E118.78345
G1 X100.656 Y93.173 E120.09114
G1 X100.588 Y92.864 E120.10163
G1 X72.420 Y121.032 E121.42381
G1 X72.044 Y121.032 E121.43630
G1 X100.521 Y92.555 E122.77300
G1 X100.464 Y92.236 E122.78374
G1 X71.667 Y121.032 E124.13540
G1 X71.291 Y121.032 E124.14789
G1 X100.406 Y91.917 E125.51450
G1 X100.348 Y91.599 E125.52525
G1 X70.915 Y121.032 E126.90682
G1 X70.538 Y121.032 E126.91931
G1 X100.291 Y91.280 E128.31584
G1 X100.233 Y90.961 E128.32659
G1 X70.162 Y121.032 E129.73808
G1 X69.786 Y121.032 E129.75057
G1 X100.175 Y90.643 E131.17701
G1 E129.17701 F2400.00000
G92 E0
G1 X106.981 Y98.138 F7800.000
G1 E2.00000 F2400.00000
G1 F1800
G1 X112.141 Y92.977 E2.24224
G1 X112.141 Y92.601 E2.25473
G1 X107.344 Y97.398 E2.47990
G1 X107.603 Y96.763 E2.50267
G1 X112.141 Y92.224 E2.71568
G1 X112.141 Y91.848 E2.72817
G1 X107.809 Y96.181 E2.93155
G1 X107.976 Y95.638 E2.95042
G1 X112.141 Y91.472 E3.14596
G1 X112.141 Y91.095 E3.15845
G1 X108.123 Y95.114 E3.34705
G1 X108.271 Y94.590 E3.36512
G1 X112.141 Y90.719 E3.54679
G1 X112.141 Y90.343 E3.55928
G1 X108.386 Y94.098 E3.73554
G1 X108.492 Y93.616 E3.75191
G1 X112.141 Y89.966 E3.92321
G1 X112.141 Y89.590 E3.93570
G1 X108.598 Y93.134 E4.10204
G1 X108.697 Y92.658 E4.11819
G1 X112.141 Y89.214 E4.27985
G1 X112.141 Y88.837 E4.29234
G1 X108.781 Y92.198 E4.45009
G1 X108.864 Y91.739 E4.46559
G1 X112.141 Y88.461 E4.61944
G1 X112.141 Y88.085 E4.63193
G1 X108.947 Y91.280 E4.78189
G1 X109.030 Y90.820 E4.79738
G1 X112.141 Y87.709 E4.94344
G1 X112.141 Y87.332 E4.95593
G1 X108.757 Y90.717 E5.11479
G1 X108.380 Y90.717 E5.12729
G1 X112.141 Y86.956 E5.30382
G1 X112.141 Y86.580 E5.31631
G1 X108.004 Y90.717 E5.51052
G1 X107.628 Y90.717 E5.52301
G1 X112.141 Y86.203 E5.73489
