; generated by Slic3r 1.3.0 on 2020-09-16 at 12:59:29

; external perimeters extrusion width = 0.44mm (4.06mm^3/s)
; perimeters extrusion width = 0.48mm (5.03mm^3/s)
; infill extrusion width = 0.48mm (5.03mm^3/s)
; solid infill extrusion width = 0.48mm (3.77mm^3/s)
; top infill extrusion width = 0.48mm (3.77mm^3/s)

M107
;D3D:START:START
T0
M104 S215 T0

G21
G90
M107
T0
G28
G29
M109 T0 S215 T0
G0 F3000
M107
T0
G92 E0
G0 X0 Y149 Z0.1 F3600
G1 Y49 E6.5 F1200
G0 Z1
G92 E0
; Filament gcode

G21 ; set units to millimeters
G90 ; use absolute coordinates
M82 ; use absolute distances for extrusion
G92 E0
G1 Z0.300 F7800.000
G1 E-2.00000 F2400.00000
G92 E0
G1 X72.323 Y70.363 F7800.000
G1 E2.00000 F2400.00000
G1 F1800
G1 X77.677 Y70.363 E2.17737
G1 X80.096 Y74.553 E2.33765
G1 X80.354 Y75.000 E2.35475
G1 X77.677 Y79.637 E2.53212
G1 X72.323 Y79.637 E2.70950
G1 X69.646 Y75.000 E2.88687
G1 X72.293 Y70.415 E3.06225
G1 X72.476 Y70.629 F7800.000
G1 F1800
G1 X77.524 Y70.629 E3.22947
G1 X79.866 Y74.686 E3.38466
G1 X80.047 Y75.000 E3.39668
G1 X77.524 Y79.371 E3.56389
G1 X72.476 Y79.371 E3.73111
G1 X69.953 Y75.000 E3.89832
G1 X72.446 Y70.681 E4.06354
G1 X72.630 Y70.895 F7800.000
G1 F1800
G1 X77.370 Y70.895 E4.22059
G1 X79.636 Y74.819 E4.37071
G1 X79.741 Y75.000 E4.37765
G1 X77.370 Y79.105 E4.53470
G1 X72.630 Y79.105 E4.69175
G1 X70.259 Y75.000 E4.84880
G1 X72.600 Y70.947 E5.00386
G1 X72.630 Y70.495 F7800.000
G1 E3.00386 F2400.00000
G92 E0
G1 X71.037 Y68.843 F7800.000
G1 E2.00000 F2400.00000
G1 F1800
G1 X71.916 Y68.256 E2.03503
G1 X72.095 Y67.988 E2.04572
G1 X72.412 Y68.051 E2.05640
G1 X73.449 Y67.844 E2.09143
G1 X73.960 Y67.503 E2.11179
G1 X75.000 Y67.710 E2.14693
G1 X76.040 Y67.503 E2.18207
G1 X76.551 Y67.844 E2.20242
G1 X77.588 Y68.051 E2.23745
G1 X77.905 Y67.988 E2.24814
G1 X78.084 Y68.256 E2.25883
G1 X78.963 Y68.843 E2.29386
G1 X79.566 Y68.963 E2.31422
G1 X80.155 Y69.845 E2.34935
G1 X81.037 Y70.434 E2.38449
G1 X81.157 Y71.037 E2.40485
G1 X81.744 Y71.916 E2.43988
G1 X82.012 Y72.095 E2.45057
G1 X81.949 Y72.412 E2.46125
G1 X82.156 Y73.449 E2.49628
G1 X82.497 Y73.960 E2.51664
G1 X82.290 Y75.000 E2.55178
G1 X82.497 Y76.040 E2.58692
G1 X82.156 Y76.551 E2.60727
G1 X81.949 Y77.588 E2.64230
G1 X82.012 Y77.905 E2.65299
G1 X81.744 Y78.084 E2.66368
G1 X81.157 Y78.963 E2.69871
G1 X81.037 Y79.567 E2.71910
G1 X80.163 Y80.143 E2.75378
G1 X79.566 Y81.037 E2.78939
G1 X78.963 Y81.157 E2.80975
G1 X78.084 Y81.744 E2.84478
G1 X77.905 Y82.012 E2.85546
G1 X77.588 Y81.949 E2.86615
G1 X76.551 Y82.156 E2.90118
G1 X76.040 Y82.497 E2.92154
G1 X75.000 Y82.290 E2.95668
G1 X73.960 Y82.497 E2.99181
G1 X73.449 Y82.156 E3.01217
G1 X72.412 Y81.949 E3.04720
G1 X72.095 Y82.012 E3.05789
G1 X71.916 Y81.744 E3.06858
G1 X71.037 Y81.157 E3.10361
G1 X70.434 Y81.037 E3.12396
G1 X69.845 Y80.155 E3.15910
G1 X68.963 Y79.566 E3.19424
G1 X68.843 Y78.963 E3.21460
G1 X68.256 Y78.084 E3.24963
G1 X67.988 Y77.905 E3.26031
G1 X68.051 Y77.588 E3.27100
G1 X67.844 Y76.551 E3.30603
G1 X67.503 Y76.040 E3.32639
G1 X67.710 Y75.000 E3.36153
G1 X67.503 Y73.960 E3.39666
G1 X67.844 Y73.449 E3.41702
G1 X68.051 Y72.412 E3.45205
G1 X67.988 Y72.095 E3.46274
G1 X68.256 Y71.916 E3.47343
G1 X68.843 Y71.037 E3.50846
G1 X68.963 Y70.434 E3.52881
G1 X69.845 Y69.845 E3.56395
G1 X70.434 Y68.963 E3.59909
G1 X70.978 Y68.855 E3.61746
G1 X70.933 Y68.593 F7800.000
G1 F1800
G1 X71.725 Y68.064 E3.64899
G1 X71.973 Y67.693 E3.66380
G1 X72.412 Y67.780 E3.67862
G1 X73.345 Y67.594 E3.71015
G1 X73.961 Y67.183 E3.73468
G1 X74.067 Y67.253 E3.73889
G1 X75.000 Y67.439 E3.77042
G1 X75.933 Y67.253 E3.80195
G1 X76.039 Y67.183 E3.80616
G1 X76.655 Y67.594 E3.83070
G1 X77.588 Y67.780 E3.86222
G1 X78.027 Y67.693 E3.87704
G1 X78.275 Y68.064 E3.89186
G1 X79.067 Y68.593 E3.92339
G1 X79.793 Y68.738 E3.94792
G1 X79.818 Y68.862 E3.95213
G1 X80.346 Y69.654 E3.98366
G1 X81.138 Y70.182 E4.01519
G1 X81.262 Y70.207 E4.01940
G1 X81.407 Y70.933 E4.04393
G1 X81.936 Y71.725 E4.07546
G1 X82.307 Y71.973 E4.09028
G1 X82.220 Y72.412 E4.10510
G1 X82.406 Y73.345 E4.13662
G1 X82.817 Y73.961 E4.16116
G1 X82.747 Y74.067 E4.16537
G1 X82.561 Y75.000 E4.19690
G1 X82.747 Y75.933 E4.22843
G1 X82.817 Y76.039 E4.23264
G1 X82.406 Y76.655 E4.25717
G1 X82.220 Y77.588 E4.28870
G1 X82.307 Y78.027 E4.30352
G1 X81.936 Y78.275 E4.31833
G1 X81.407 Y79.067 E4.34986
G1 X81.262 Y79.793 E4.37439
G1 X81.139 Y79.817 E4.37856
G1 X80.354 Y80.335 E4.40972
G1 X79.818 Y81.138 E4.44169
G1 X79.793 Y81.262 E4.44591
G1 X79.067 Y81.407 E4.47044
G1 X78.275 Y81.936 E4.50197
G1 X78.027 Y82.307 E4.51678
G1 X77.588 Y82.220 E4.53160
G1 X76.655 Y82.406 E4.56313
G1 X76.039 Y82.817 E4.58766
G1 X75.933 Y82.747 E4.59188
G1 X75.000 Y82.561 E4.62340
G1 X74.067 Y82.747 E4.65493
G1 X73.961 Y82.817 E4.65914
G1 X73.345 Y82.406 E4.68368
G1 X72.412 Y82.220 E4.71521
G1 X71.973 Y82.307 E4.73002
G1 X71.725 Y81.936 E4.74484
G1 X70.933 Y81.407 E4.77637
G1 X70.207 Y81.262 E4.80090
G1 X70.182 Y81.138 E4.80511
G1 X69.654 Y80.346 E4.83664
G1 X68.862 Y79.818 E4.86817
G1 X68.738 Y79.793 E4.87238
G1 X68.593 Y79.067 E4.89691
G1 X68.064 Y78.275 E4.92844
G1 X67.693 Y78.027 E4.94326
G1 X67.780 Y77.588 E4.95808
G1 X67.594 Y76.655 E4.98961
G1 X67.183 Y76.039 E5.01414
G1 X67.253 Y75.933 E5.01835
G1 X67.439 Y75.000 E5.04988
G1 X67.253 Y74.067 E5.08141
G1 X67.183 Y73.961 E5.08562
G1 X67.594 Y73.345 E5.11015
G1 X67.780 Y72.412 E5.14168
G1 X67.693 Y71.973 E5.15650
G1 X68.064 Y71.725 E5.17131
G1 X68.593 Y70.933 E5.20284
G1 X68.738 Y70.207 E5.22737
G1 X68.862 Y70.182 E5.23159
G1 X69.654 Y69.654 E5.26312
G1 X70.182 Y68.862 E5.29464
G1 X70.207 Y68.738 E5.29886
G1 X70.875 Y68.605 E5.32140
G1 X70.830 Y68.343 F7800.000
G1 F1800
G1 X71.533 Y67.873 E5.34943
G1 X71.851 Y67.397 E5.36838
G1 X72.412 Y67.509 E5.38732
G1 X73.242 Y67.344 E5.41535
G1 X73.961 Y66.863 E5.44401
G1 X74.170 Y67.003 E5.45235
G1 X75.000 Y67.168 E5.48038
G1 X75.830 Y67.003 E5.50841
G1 X76.039 Y66.863 E5.51675
G1 X76.758 Y67.344 E5.54541
G1 X77.588 Y67.509 E5.57344
G1 X78.149 Y67.397 E5.59239
G1 X78.467 Y67.873 E5.61133
G1 X79.170 Y68.343 E5.63936
G1 X80.019 Y68.512 E5.66802
G1 X80.068 Y68.759 E5.67636
G1 X80.538 Y69.462 E5.70439
G1 X81.241 Y69.932 E5.73242
G1 X81.488 Y69.981 E5.74076
G1 X81.657 Y70.830 E5.76942
G1 X82.127 Y71.533 E5.79745
G1 X82.603 Y71.851 E5.81640
G1 X82.491 Y72.412 E5.83534
G1 X82.656 Y73.242 E5.86337
G1 X83.137 Y73.961 E5.89203
G1 X82.997 Y74.170 E5.90038
G1 X82.832 Y75.000 E5.92840
G1 X82.997 Y75.830 E5.95643
G1 X83.137 Y76.039 E5.96477
G1 X82.656 Y76.758 E5.99343
G1 X82.491 Y77.588 E6.02146
G1 X82.603 Y78.149 E6.04041
G1 X82.127 Y78.467 E6.05936
G1 X81.657 Y79.170 E6.08738
G1 X81.488 Y80.019 E6.11605
G1 X81.242 Y80.068 E6.12437
G1 X80.545 Y80.527 E6.15203
G1 X80.068 Y81.241 E6.18047
G1 X80.019 Y81.488 E6.18882
G1 X79.170 Y81.657 E6.21748
G1 X78.467 Y82.127 E6.24550
G1 X78.149 Y82.603 E6.26445
G1 X77.588 Y82.491 E6.28340
G1 X76.758 Y82.656 E6.31143
G1 X76.039 Y83.137 E6.34009
G1 X75.830 Y82.997 E6.34843
G1 X75.000 Y82.832 E6.37646
G1 X74.170 Y82.997 E6.40448
G1 X73.961 Y83.137 E6.41283
G1 X73.242 Y82.656 E6.44149
G1 X72.412 Y82.491 E6.46952
G1 X71.851 Y82.603 E6.48846
G1 X71.533 Y82.127 E6.50741
G1 X70.830 Y81.657 E6.53544
G1 X69.981 Y81.488 E6.56410
G1 X69.932 Y81.241 E6.57244
G1 X69.462 Y80.538 E6.60047
G1 X68.759 Y80.068 E6.62850
G1 X68.512 Y80.019 E6.63684
G1 X68.343 Y79.170 E6.66550
G1 X67.873 Y78.467 E6.69353
G1 X67.397 Y78.149 E6.71247
G1 X67.509 Y77.588 E6.73142
G1 X67.344 Y76.758 E6.75945
G1 X66.863 Y76.039 E6.78811
G1 X67.003 Y75.830 E6.79645
G1 X67.168 Y75.000 E6.82448
G1 X67.003 Y74.170 E6.85251
G1 X66.863 Y73.961 E6.86085
G1 X67.344 Y73.242 E6.88951
G1 X67.509 Y72.412 E6.91754
G1 X67.397 Y71.851 E6.93648
G1 X67.873 Y71.533 E6.95543
G1 X68.343 Y70.830 E6.98346
G1 X68.512 Y69.981 E7.01212
G1 X68.759 Y69.932 E7.02046
G1 X69.462 Y69.462 E7.04849
G1 X69.932 Y68.759 E7.07652
G1 X69.981 Y68.512 E7.08486
G1 X70.771 Y68.355 E7.11153
G1 X71.179 Y68.538 F7800.000
G1 X70.698 Y69.099 F7800.000
G1 F1800
G1 X70.140 Y69.933 E7.14498
G1 X69.306 Y70.490 E7.17841
G1 X69.099 Y70.698 E7.18817
G1 X69.005 Y71.169 E7.20420
G1 X71.169 Y69.005 E7.30621
G1 X71.244 Y68.990 E7.30875
G1 X72.203 Y68.350 E7.34718
G1 X68.188 Y72.364 E7.53641
G1 X68.218 Y72.515 E7.54153
G1 X68.169 Y72.761 E7.54989
G1 X72.761 Y68.169 E7.76633
G1 X73.233 Y68.075 E7.78236
G1 X68.075 Y73.233 E8.02545
G1 X67.991 Y73.656 E8.03983
G1 X67.913 Y73.773 E8.04454
G1 X73.773 Y67.913 E8.32080
G1 X74.119 Y67.682 E8.33465
G1 X74.339 Y67.725 E8.34211
G1 X67.725 Y74.339 E8.65384
G1 X67.788 Y74.654 E8.66455
G1 X71.828 Y70.614 E8.85498
G1 X72.066 Y70.201 E8.87086
G1 X72.241 Y70.201 E8.87668
G1 X74.654 Y67.788 E8.99042
G1 X74.969 Y67.851 E9.00113
G1 X72.619 Y70.201 E9.11192
G1 X72.997 Y70.201 E9.12451
G1 X75.374 Y67.823 E9.23658
G1 X75.846 Y67.730 E9.25261
G1 X73.375 Y70.201 E9.36910
G1 X73.752 Y70.201 E9.38169
G1 X76.198 Y67.755 E9.49697
G1 X76.425 Y67.907 E9.50605
G1 X74.130 Y70.201 E9.61418
G1 X74.508 Y70.201 E9.62678
G1 X76.690 Y68.019 E9.72963
G1 X77.006 Y68.082 E9.74034
G1 X74.886 Y70.201 E9.84024
G1 X75.264 Y70.201 E9.85284
G1 X77.321 Y68.144 E9.94978
G1 X77.636 Y68.207 E9.96049
G1 X75.642 Y70.201 E10.05448
G1 X76.020 Y70.201 E10.06707
G1 X77.948 Y68.273 E10.15796
G1 X77.996 Y68.344 E10.16081
G1 X78.151 Y68.448 E10.16704
G1 X76.398 Y70.201 E10.24967
G1 X76.776 Y70.201 E10.26227
G1 X78.378 Y68.599 E10.33777
G1 X78.604 Y68.751 E10.34685
G1 X77.154 Y70.201 E10.41521
G1 X77.532 Y70.201 E10.42781
G1 X78.831 Y68.902 E10.48904
G1 X78.963 Y68.990 E10.49433
G1 X79.094 Y69.016 E10.49880
G1 X77.794 Y70.317 E10.56009
G1 X77.932 Y70.556 E10.56931
G1 X79.409 Y69.079 E10.63894
G1 X79.509 Y69.099 E10.64234
G1 X79.613 Y69.254 E10.64854
G1 X78.070 Y70.796 E10.72123
G1 X78.209 Y71.035 E10.73045
G1 X79.764 Y69.480 E10.80376
G1 X79.915 Y69.707 E10.81284
G1 X78.347 Y71.275 E10.88676
G1 X78.485 Y71.515 E10.89598
G1 X80.067 Y69.933 E10.97052
G1 X80.293 Y70.085 E10.97960
G1 X78.624 Y71.754 E11.05829
G1 X78.762 Y71.994 E11.06751
G1 X80.520 Y70.236 E11.15037
G1 X80.746 Y70.387 E11.15945
G1 X78.900 Y72.233 E11.24646
G1 X79.039 Y72.473 E11.25568
G1 X80.921 Y70.591 E11.34440
G1 X80.984 Y70.906 E11.35511
G1 X79.177 Y72.713 E11.44026
G1 X79.315 Y72.952 E11.44948
G1 X81.098 Y71.170 E11.53351
G1 X81.249 Y71.396 E11.54259
G1 X79.454 Y73.192 E11.62723
G1 X79.592 Y73.431 E11.63645
G1 X81.401 Y71.623 E11.72171
G1 X81.552 Y71.849 E11.73079
G1 X79.730 Y73.671 E11.81666
G1 X79.869 Y73.911 E11.82588
G1 X81.727 Y72.052 E11.91349
G1 X81.821 Y72.114 E11.91722
G1 X81.782 Y72.309 E11.92382
G1 X81.793 Y72.364 E11.92571
G1 X80.007 Y74.150 E12.00990
G1 X80.145 Y74.390 E12.01912
G1 X81.856 Y72.679 E12.09973
G1 X81.918 Y72.995 E12.11044
G1 X80.284 Y74.629 E12.18750
G1 X80.422 Y74.869 E12.19672
G1 X81.981 Y73.310 E12.27020
G1 X82.009 Y73.449 E12.27494
G1 X82.093 Y73.576 E12.28001
G1 X80.546 Y75.123 E12.35292
G1 X80.030 Y76.017 E12.38734
G1 X82.245 Y73.802 E12.49172
G1 X82.318 Y73.913 E12.49615
G1 X82.270 Y74.154 E12.50437
G1 X79.514 Y76.911 E12.63430
G1 X78.997 Y77.805 E12.66871
G1 X82.176 Y74.626 E12.81855
G1 X82.123 Y74.897 E12.82775
G1 X82.149 Y75.031 E12.83231
G1 X78.481 Y78.699 E13.00521
G1 X77.965 Y79.593 E13.03962
G1 X82.212 Y75.346 E13.23981
G1 X82.275 Y75.661 E13.25052
G1 X75.661 Y82.275 E13.56223
G1 X75.881 Y82.318 E13.56969
G1 X76.227 Y82.087 E13.58357
G1 X82.087 Y76.227 E13.85977
G1 X82.009 Y76.344 E13.86447
G1 X81.925 Y76.767 E13.87885
G1 X76.767 Y81.925 E14.12193
G1 X77.239 Y81.831 E14.13796
G1 X81.831 Y77.239 E14.35438
G1 X81.782 Y77.485 E14.36273
G1 X81.812 Y77.636 E14.36787
G1 X81.458 Y77.990 E14.38454
G1 X81.650 Y77.798 F7800.000
G1 F1800
G1 X77.798 Y81.650 E14.56610
G1 X78.756 Y81.010 E14.60451
G1 X78.831 Y80.995 E14.60706
G1 X80.995 Y78.831 E14.70905
G1 X80.901 Y79.303 E14.72508
G1 X80.694 Y79.510 E14.73484
G1 E12.73484 F2400.00000
G92 E0
G1 X77.843 Y81.605 F7800.000
G1 E2.00000 F2400.00000
G1 F1800
G1 X77.886 Y81.614 E2.00146
G1 X77.990 Y81.458 E2.00771
G1 X77.636 Y81.812 E2.02438
G1 E0.02438 F2400.00000
G92 E0
G1 X75.346 Y82.212 F7800.000
G1 E2.00000 F2400.00000
G1 F1800
G1 X77.759 Y79.799 E2.11374
G1 X77.381 Y79.799 E2.12634
G1 X75.031 Y82.149 E2.23712
G1 X74.897 Y82.123 E2.24169
G1 X74.626 Y82.176 E2.25089
G1 X77.004 Y79.799 E2.36295
G1 X76.626 Y79.799 E2.37555
G1 X74.154 Y82.270 E2.49203
G1 X73.913 Y82.318 E2.50025
G1 X73.802 Y82.245 E2.50468
G1 X76.248 Y79.799 E2.61995
G1 X75.870 Y79.799 E2.63255
G1 X73.576 Y82.093 E2.74069
G1 X73.449 Y82.009 E2.74575
G1 X73.310 Y81.981 E2.75049
G1 X75.492 Y79.799 E2.85334
G1 X75.114 Y79.799 E2.86594
G1 X72.995 Y81.918 E2.96584
G1 X72.679 Y81.856 E2.97655
G1 X74.736 Y79.799 E3.07349
G1 X74.358 Y79.799 E3.08609
G1 X72.364 Y81.793 E3.18008
G1 X72.309 Y81.782 E3.18197
G1 X72.114 Y81.821 E3.18857
G1 X72.052 Y81.727 E3.19231
G1 X73.980 Y79.799 E3.28319
G1 X73.602 Y79.799 E3.29579
G1 X71.849 Y81.552 E3.37843
G1 X71.623 Y81.401 E3.38751
G1 X73.224 Y79.799 E3.46301
G1 X72.847 Y79.799 E3.47561
G1 X71.396 Y81.249 E3.54398
G1 X71.170 Y81.098 E3.55306
G1 X72.469 Y79.799 E3.61429
G1 X72.273 Y79.799 E3.62081
G1 X72.206 Y79.683 E3.62526
G1 X70.906 Y80.984 E3.68655
G1 X70.591 Y80.921 E3.69726
G1 X72.068 Y79.444 E3.76688
G1 X71.930 Y79.204 E3.77610
G1 X70.387 Y80.746 E3.84879
G1 X70.236 Y80.520 E3.85788
G1 X71.791 Y78.965 E3.93118
G1 X71.653 Y78.725 E3.94040
G1 X70.085 Y80.293 E4.01432
G1 X69.933 Y80.067 E4.02340
G1 X71.515 Y78.485 E4.09794
G1 X71.376 Y78.246 E4.10716
G1 X69.707 Y79.915 E4.18585
G1 X69.480 Y79.764 E4.19493
G1 X71.238 Y78.006 E4.27778
G1 X71.100 Y77.767 E4.28700
G1 X69.254 Y79.613 E4.37401
G1 X69.099 Y79.509 E4.38022
G1 X69.079 Y79.409 E4.38361
G1 X70.961 Y77.527 E4.47233
G1 X70.823 Y77.288 E4.48155
G1 X69.016 Y79.094 E4.56671
G1 X68.990 Y78.963 E4.57117
G1 X68.902 Y78.831 E4.57647
G1 X70.685 Y77.048 E4.66049
G1 X70.546 Y76.808 E4.66971
G1 X68.751 Y78.604 E4.75436
G1 X68.599 Y78.378 E4.76344
G1 X70.408 Y76.569 E4.84869
G1 X70.270 Y76.329 E4.85791
G1 X68.448 Y78.151 E4.94379
G1 X68.344 Y77.996 E4.95001
G1 X68.273 Y77.948 E4.95287
G1 X70.131 Y76.090 E5.04047
G1 X69.993 Y75.850 E5.04969
G1 X68.207 Y77.636 E5.13387
G1 X68.144 Y77.321 E5.14458
G1 X69.855 Y75.610 E5.22520
G1 X69.716 Y75.371 E5.23442
G1 X68.082 Y77.006 E5.31147
G1 X68.019 Y76.690 E5.32219
G1 X69.578 Y75.131 E5.39567
G1 X69.443 Y74.897 E5.40470
G1 X69.454 Y74.878 E5.40542
G1 X67.907 Y76.425 E5.47833
G1 X67.755 Y76.198 E5.48741
G1 X69.970 Y73.984 E5.59178
G1 X70.486 Y73.090 E5.62619
G1 X67.730 Y75.846 E5.75611
G1 X67.823 Y75.374 E5.77214
G1 X71.002 Y72.195 E5.92197
G1 X71.518 Y71.301 E5.95638
G1 X67.851 Y74.969 E6.12927
G1 X67.788 Y74.654 E6.13998
G1 E4.13998 F2400.00000
G92 E0
G1 X72.010 Y68.542 F7800.000
G1 E2.00000 F2400.00000
G1 F1800
G1 X72.364 Y68.188 E2.01670
M106 S255
G1 Z0.600 F7800.000
G1 X72.127 Y70.023 F7800.000
G1 F1800
G1 X77.873 Y70.023 E2.31692
G1 X80.746 Y75.000 E2.61714
G1 X77.873 Y79.977 E2.91736
G1 X72.127 Y79.977 E3.21758
G1 X69.254 Y75.000 E3.51781
G1 X72.097 Y70.075 E3.81489
G1 X72.369 Y70.442 F7800.000
G1 F1800
G1 X77.631 Y70.442 E4.08984
G1 X80.263 Y75.000 E4.36479
G1 X77.631 Y79.558 E4.63975
G1 X72.369 Y79.558 E4.91470
G1 X69.737 Y75.000 E5.18965
G1 X72.339 Y70.494 E5.46147
G1 X72.598 Y70.840 F7800.000
G1 F1800
G1 X77.402 Y70.840 E5.68653
G1 X79.804 Y75.000 E5.91160
G1 X77.402 Y79.160 E6.13666
G1 X72.598 Y79.160 E6.36173
G1 X70.196 Y75.000 E6.58679
G1 X72.568 Y70.892 E6.80905
G1 X72.598 Y70.440 F7800.000
G1 E4.80905 F2400.00000
G92 E0
G1 X71.170 Y69.164 F7800.000
G1 E2.00000 F2400.00000
G1 F2400
G1 X72.161 Y68.501 E2.06230
G1 X72.252 Y68.365 E2.07083
G1 X72.412 Y68.397 E2.07935
G1 X73.581 Y68.165 E2.14165
G1 X74.032 Y67.864 E2.16993
G1 X75.000 Y68.056 E2.22152
G1 X75.968 Y67.864 E2.27311
G1 X76.419 Y68.165 E2.30139
G1 X77.588 Y68.397 E2.36370
G1 X77.748 Y68.365 E2.37222
G1 X77.839 Y68.501 E2.38074
G1 X78.830 Y69.164 E2.44304
G1 X79.361 Y69.269 E2.47132
G1 X79.910 Y70.090 E2.52291
G1 X80.731 Y70.639 E2.57450
G1 X80.836 Y71.170 E2.60278
G1 X81.499 Y72.161 E2.66509
G1 X81.635 Y72.252 E2.67361
G1 X81.603 Y72.412 E2.68213
G1 X81.835 Y73.581 E2.74444
G1 X82.136 Y74.032 E2.77272
