; generated by Slic3r 1.3.0 on 2020-07-23 at 00:10:58

; external perimeters extrusion width = 0.44mm (2.86mm^3/s)
; perimeters extrusion width = 0.56mm (4.14mm^3/s)
; infill extrusion width = 0.50mm (3.66mm^3/s)
; solid infill extrusion width = 0.56mm (3.10mm^3/s)
; top infill extrusion width = 0.56mm (3.10mm^3/s)

M107
;D3D:START:START
T0
M104 S215 T0

G21
G90
M107
T0
G28
G29
M109 T0 S215 T0
G0 F3000
M107
T0
G92 E0
G0 X0 Y149 Z0.1 F3600
G1 Y49 E6.5 F1200
G0 Z1
G92 E0
; Filament gcode

G21 ; set units to millimeters
G90 ; use absolute coordinates
M82 ; use absolute distances for extrusion
G92 E0
G1 Z0.300 F7800.000
G1 E-2.00000 F2400.00000
G92 E0
G1 X72.130 Y72.290 F7800.000
G1 E2.00000 F2400.00000
G1 F1800
G1 X72.476 Y71.966 E2.01570
G1 X72.680 Y71.807 E2.02427
G1 X72.894 Y71.662 E2.03285
G1 X73.319 Y71.428 E2.04891
G1 X73.770 Y71.250 E2.06497
G1 X74.029 Y71.174 E2.07391
G1 X74.505 Y71.084 E2.08997
G1 X74.983 Y71.053 E2.10582
G1 X75.258 Y71.061 E2.11495
G1 X75.740 Y71.122 E2.13103
G1 X76.203 Y71.241 E2.14688
G1 X76.452 Y71.330 E2.15565
G1 X76.690 Y71.433 E2.16424
G1 X77.115 Y71.667 E2.18030
G1 X77.507 Y71.952 E2.19637
G1 X77.710 Y72.130 E2.20531
G1 X78.034 Y72.476 E2.22100
G1 X78.193 Y72.680 E2.22958
G1 X78.338 Y72.894 E2.23815
G1 X78.572 Y73.319 E2.25422
G1 X78.754 Y73.780 E2.27064
G1 X78.878 Y74.260 E2.28706
G1 X78.938 Y74.741 E2.30312
G1 X78.938 Y75.265 E2.32048
G1 X78.878 Y75.740 E2.33633
G1 X78.754 Y76.220 E2.35275
G1 X78.572 Y76.681 E2.36918
G1 X78.338 Y77.106 E2.38524
G1 X78.030 Y77.529 E2.40259
G1 X77.710 Y77.870 E2.41808
G1 X77.507 Y78.048 E2.42702
G1 X77.115 Y78.333 E2.44308
G1 X76.690 Y78.567 E2.45914
G1 X76.203 Y78.759 E2.47649
G1 X75.740 Y78.878 E2.49235
G1 X75.259 Y78.938 E2.50840
G1 X74.989 Y78.947 E2.51734
G1 X74.516 Y78.917 E2.53306
G1 X74.244 Y78.874 E2.54219
G1 X73.780 Y78.754 E2.55804
G1 X73.319 Y78.572 E2.57446
G1 X72.894 Y78.338 E2.59052
G1 X72.471 Y78.030 E2.60788
G1 X72.130 Y77.709 E2.62339
G1 X71.948 Y77.502 E2.63251
G1 X71.667 Y77.115 E2.64837
G1 X71.433 Y76.690 E2.66442
G1 X71.241 Y76.203 E2.68178
G1 X71.122 Y75.740 E2.69763
G1 X71.062 Y75.259 E2.71369
G1 X71.062 Y74.741 E2.73083
G1 X71.122 Y74.260 E2.74689
G1 X71.241 Y73.797 E2.76275
G1 X71.334 Y73.538 E2.77187
G1 X71.533 Y73.114 E2.78738
G1 X71.673 Y72.876 E2.79651
G1 X71.952 Y72.493 E2.81223
G1 X72.091 Y72.335 E2.81918
G1 X72.321 Y72.475 F7800.000
G1 F1800
G1 X72.648 Y72.168 E2.83405
G1 X72.836 Y72.022 E2.84193
G1 X73.033 Y71.888 E2.84982
G1 X73.433 Y71.669 E2.86491
G1 X73.856 Y71.501 E2.88000
G1 X74.091 Y71.433 E2.88811
G1 X74.538 Y71.348 E2.90320
G1 X74.987 Y71.319 E2.91809
G1 X75.238 Y71.327 E2.92639
G1 X75.690 Y71.384 E2.94149
G1 X76.125 Y71.495 E2.95639
G1 X76.355 Y71.578 E2.96446
G1 X76.573 Y71.672 E2.97236
G1 X76.973 Y71.892 E2.98745
G1 X77.341 Y72.159 E3.00254
G1 X77.525 Y72.321 E3.01065
G1 X77.832 Y72.648 E3.02552
G1 X77.978 Y72.836 E3.03340
G1 X78.112 Y73.033 E3.04129
G1 X78.331 Y73.433 E3.05638
G1 X78.501 Y73.862 E3.07169
G1 X78.616 Y74.310 E3.08701
G1 X78.673 Y74.762 E3.10210
G1 X78.673 Y75.244 E3.11806
G1 X78.616 Y75.690 E3.13296
G1 X78.501 Y76.138 E3.14827
G1 X78.331 Y76.567 E3.16359
G1 X78.112 Y76.967 E3.17868
G1 X77.828 Y77.356 E3.19464
G1 X77.525 Y77.679 E3.20931
G1 X77.341 Y77.841 E3.21742
G1 X76.973 Y78.108 E3.23251
G1 X76.573 Y78.328 E3.24760
G1 X76.125 Y78.505 E3.26356
G1 X75.690 Y78.616 E3.27846
G1 X75.238 Y78.673 E3.29355
G1 X74.993 Y78.681 E3.30166
G1 X74.545 Y78.653 E3.31654
G1 X74.298 Y78.613 E3.32483
G1 X73.862 Y78.501 E3.33973
G1 X73.433 Y78.331 E3.35504
G1 X73.033 Y78.112 E3.37013
G1 X72.644 Y77.828 E3.38610
G1 X72.321 Y77.524 E3.40078
G1 X72.156 Y77.336 E3.40907
G1 X71.892 Y76.973 E3.42397
G1 X71.672 Y76.573 E3.43906
G1 X71.495 Y76.125 E3.45502
G1 X71.384 Y75.690 E3.46991
G1 X71.327 Y75.238 E3.48500
G1 X71.327 Y74.762 E3.50076
G1 X71.384 Y74.310 E3.51585
G1 X71.495 Y73.875 E3.53075
G1 X71.580 Y73.639 E3.53904
G1 X71.768 Y73.238 E3.55372
G1 X71.895 Y73.022 E3.56202
G1 X72.282 Y72.520 E3.58300
G1 X72.512 Y72.660 F7800.000
G1 F1800
G1 X72.821 Y72.370 E3.59704
G1 X72.993 Y72.237 E3.60423
G1 X73.172 Y72.115 E3.61143
G1 X73.546 Y71.910 E3.62555
G1 X73.942 Y71.753 E3.63967
G1 X74.153 Y71.691 E3.64695
G1 X74.572 Y71.612 E3.66107
G1 X74.992 Y71.585 E3.67501
G1 X75.217 Y71.592 E3.68247
G1 X75.640 Y71.645 E3.69660
G1 X76.047 Y71.750 E3.71053
G1 X76.257 Y71.825 E3.71791
G1 X76.456 Y71.911 E3.72511
G1 X76.830 Y72.116 E3.73923
G1 X77.175 Y72.367 E3.75336
G1 X77.340 Y72.512 E3.76064
G1 X77.630 Y72.821 E3.77467
G1 X77.763 Y72.993 E3.78187
G1 X77.885 Y73.172 E3.78906
G1 X78.090 Y73.546 E3.80318
G1 X78.248 Y73.945 E3.81739
G1 X78.355 Y74.360 E3.83160
G1 X78.408 Y74.783 E3.84573
G1 X78.408 Y75.223 E3.86030
G1 X78.355 Y75.640 E3.87423
G1 X78.248 Y76.055 E3.88844
G1 X78.090 Y76.454 E3.90265
G1 X77.885 Y76.828 E3.91677
G1 X77.626 Y77.183 E3.93134
G1 X77.340 Y77.488 E3.94519
G1 X77.175 Y77.633 E3.95247
G1 X76.830 Y77.884 E3.96659
G1 X76.456 Y78.089 E3.98071
G1 X76.047 Y78.250 E3.99528
G1 X75.640 Y78.355 E4.00922
G1 X75.217 Y78.408 E4.02334
G1 X74.997 Y78.415 E4.03062
G1 X74.574 Y78.389 E4.04466
G1 X74.352 Y78.353 E4.05212
G1 X73.945 Y78.248 E4.06606
G1 X73.546 Y78.090 E4.08027
G1 X73.172 Y77.885 E4.09439
G1 X72.817 Y77.626 E4.10896
G1 X72.512 Y77.340 E4.12281
G1 X72.363 Y77.170 E4.13028
G1 X72.116 Y76.830 E4.14421
G1 X71.911 Y76.456 E4.15833
G1 X71.750 Y76.047 E4.17290
G1 X71.645 Y75.640 E4.18684
G1 X71.592 Y75.217 E4.20096
G1 X71.592 Y74.783 E4.21534
G1 X71.645 Y74.360 E4.22946
G1 X71.750 Y73.953 E4.24339
G1 X71.826 Y73.741 E4.25086
G1 X72.003 Y73.362 E4.26471
G1 X72.118 Y73.168 E4.27218
G1 X72.473 Y72.705 E4.29149
G1 X72.401 Y72.276 F7800.000
G1 X71.378 Y71.127 F7800.000
G1 F1800
G1 X71.611 Y70.921 E4.30180
G1 X72.168 Y70.517 E4.32459
G1 X72.436 Y70.358 E4.33490
G1 X73.049 Y70.070 E4.35735
G1 X73.658 Y69.871 E4.37859
G1 X73.998 Y69.793 E4.39013
G1 X74.668 Y69.708 E4.41250
G1 X75.309 Y69.707 E4.43374
G1 X75.656 Y69.738 E4.44528
G1 X76.319 Y69.864 E4.46764
G1 X76.962 Y70.073 E4.49007
G1 X77.249 Y70.197 E4.50040
G1 X77.821 Y70.510 E4.52200
G1 X78.119 Y70.711 E4.53390
G1 X78.372 Y70.907 E4.54451
G1 X78.873 Y71.378 E4.56730
G1 X79.079 Y71.611 E4.57761
G1 X79.477 Y72.159 E4.60004
G1 X79.803 Y72.752 E4.62246
G1 X79.927 Y73.038 E4.63277
G1 X80.136 Y73.681 E4.65519
G1 X80.261 Y74.335 E4.67726
G1 X80.303 Y75.011 E4.69968
G1 X80.293 Y75.333 E4.71035
G1 X80.263 Y75.654 E4.72103
G1 X80.136 Y76.319 E4.74345
G1 X79.927 Y76.962 E4.76588
G1 X79.803 Y77.248 E4.77619
G1 X79.472 Y77.851 E4.79897
G1 X79.291 Y78.117 E4.80965
G1 X79.093 Y78.372 E4.82032
G1 X78.622 Y78.873 E4.84311
G1 X78.389 Y79.079 E4.85342
G1 X77.832 Y79.483 E4.87621
G1 X77.564 Y79.642 E4.88652
G1 X76.952 Y79.930 E4.90895
G1 X76.319 Y80.136 E4.93101
G1 X75.665 Y80.261 E4.95307
G1 X74.989 Y80.303 E4.97549
G1 X74.346 Y80.263 E4.99683
G1 X73.681 Y80.136 E5.01925
G1 X73.038 Y79.927 E5.04168
G1 X72.752 Y79.803 E5.05199
G1 X72.149 Y79.472 E5.07478
G1 X71.892 Y79.297 E5.08509
G1 X71.370 Y78.865 E5.10751
G1 X70.914 Y78.380 E5.12957
G1 X70.517 Y77.832 E5.15200
G1 X70.358 Y77.564 E5.16231
G1 X70.065 Y76.942 E5.18509
G1 X69.956 Y76.639 E5.19577
G1 X69.866 Y76.329 E5.20644
G1 X69.737 Y75.654 E5.22923
G1 X69.708 Y75.344 E5.23954
G1 X69.708 Y74.656 E5.26233
G1 X69.737 Y74.346 E5.27264
G1 X69.864 Y73.680 E5.29511
G1 X70.050 Y73.102 E5.31524
G1 X70.199 Y72.748 E5.32794
G1 X70.510 Y72.179 E5.34942
G1 X70.907 Y71.628 E5.37192
G1 X71.337 Y71.170 E5.39272
G1 X71.193 Y70.936 F7800.000
G1 F1800
G1 X71.445 Y70.713 E5.40386
G1 X72.022 Y70.294 E5.42748
G1 X72.311 Y70.123 E5.43862
G1 X72.950 Y69.822 E5.46203
G1 X73.587 Y69.614 E5.48421
G1 X73.951 Y69.531 E5.49659
G1 X74.651 Y69.442 E5.51995
G1 X75.320 Y69.441 E5.54214
G1 X75.692 Y69.474 E5.55451
G1 X76.385 Y69.606 E5.57786
G1 X77.056 Y69.825 E5.60126
G1 X77.365 Y69.958 E5.61241
G1 X77.959 Y70.283 E5.63482
G1 X78.274 Y70.495 E5.64742
G1 X78.545 Y70.705 E5.65875
G1 X79.064 Y71.193 E5.68236
G1 X79.287 Y71.445 E5.69351
G1 X79.702 Y72.016 E5.71690
G1 X80.042 Y72.635 E5.74029
G1 X80.175 Y72.944 E5.75143
G1 X80.394 Y73.615 E5.77482
G1 X80.525 Y74.302 E5.79799
G1 X80.569 Y75.007 E5.82138
G1 X80.558 Y75.350 E5.83275
G1 X80.526 Y75.691 E5.84412
G1 X80.394 Y76.385 E5.86751
G1 X80.175 Y77.056 E5.89090
G1 X80.042 Y77.365 E5.90204
G1 X79.698 Y77.990 E5.92566
G1 X79.506 Y78.273 E5.93703
G1 X79.295 Y78.545 E5.94839
G1 X78.807 Y79.064 E5.97201
G1 X78.555 Y79.287 E5.98315
G1 X77.978 Y79.706 E6.00677
G1 X77.689 Y79.877 E6.01791
G1 X77.050 Y80.177 E6.04130
G1 X76.385 Y80.394 E6.06447
G1 X75.698 Y80.525 E6.08764
G1 X74.993 Y80.569 E6.11103
G1 X74.309 Y80.526 E6.13375
G1 X73.615 Y80.394 E6.15715
G1 X72.944 Y80.175 E6.18054
G1 X72.635 Y80.042 E6.19168
G1 X72.010 Y79.698 E6.21530
G1 X71.732 Y79.509 E6.22644
G1 X71.188 Y79.059 E6.24983
G1 X70.709 Y78.550 E6.27300
G1 X70.294 Y77.978 E6.29639
G1 X70.123 Y77.689 E6.30753
G1 X69.820 Y77.044 E6.33115
G1 X69.703 Y76.721 E6.34252
G1 X69.608 Y76.391 E6.35388
G1 X69.474 Y75.691 E6.37750
G1 X69.442 Y75.356 E6.38864
G1 X69.442 Y74.644 E6.41226
G1 X69.474 Y74.309 E6.42340
G1 X69.607 Y73.614 E6.44682
G1 X69.801 Y73.009 E6.46787
G1 X69.959 Y72.633 E6.48141
G1 X70.283 Y72.041 E6.50375
G1 X70.705 Y71.455 E6.52766
G1 X71.152 Y70.980 E6.54929
G1 X71.008 Y70.745 F7800.000
G1 F1800
G1 X71.279 Y70.506 E6.56126
G1 X71.876 Y70.072 E6.58571
G1 X72.187 Y69.888 E6.59768
G1 X72.852 Y69.575 E6.62204
G1 X73.516 Y69.358 E6.64517
G1 X73.905 Y69.269 E6.65839
G1 X74.634 Y69.177 E6.68274
G1 X75.332 Y69.176 E6.70586
G1 X75.729 Y69.211 E6.71908
G1 X76.451 Y69.349 E6.74342
G1 X77.150 Y69.576 E6.76779
G1 X77.482 Y69.719 E6.77976
G1 X78.097 Y70.056 E6.80298
G1 X78.430 Y70.280 E6.81628
G1 X78.717 Y70.503 E6.82832
G1 X79.255 Y71.008 E6.85277
G1 X79.494 Y71.279 E6.86474
G1 X79.926 Y71.874 E6.88910
G1 X80.281 Y72.518 E6.91346
G1 X80.424 Y72.850 E6.92543
G1 X80.651 Y73.549 E6.94979
G1 X80.789 Y74.269 E6.97407
G1 X80.835 Y75.003 E6.99843
G1 X80.823 Y75.366 E7.01049
G1 X80.789 Y75.729 E7.02254
G1 X80.651 Y76.451 E7.04690
G1 X80.424 Y77.150 E7.07127
G1 X80.281 Y77.482 E7.08324
G1 X79.925 Y78.129 E7.10768
G1 X79.721 Y78.430 E7.11974
G1 X79.497 Y78.717 E7.13180
G1 X78.992 Y79.255 E7.15625
G1 X78.721 Y79.494 E7.16822
G1 X78.124 Y79.928 E7.19267
G1 X77.813 Y80.112 E7.20464
G1 X77.148 Y80.425 E7.22900
G1 X76.451 Y80.651 E7.25327
G1 X75.731 Y80.789 E7.27755
G1 X74.997 Y80.835 E7.30191
G1 X74.271 Y80.789 E7.32601
G1 X73.549 Y80.651 E7.35037
G1 X72.850 Y80.424 E7.37474
G1 X72.518 Y80.281 E7.38671
G1 X71.871 Y79.925 E7.41115
G1 X71.572 Y79.722 E7.42313
G1 X71.006 Y79.253 E7.44749
G1 X70.504 Y78.719 E7.47176
G1 X70.072 Y78.124 E7.49612
G1 X69.888 Y77.813 E7.50809
G1 X69.574 Y77.146 E7.53254
G1 X69.451 Y76.803 E7.54460
G1 X69.349 Y76.454 E7.55666
G1 X69.211 Y75.729 E7.58110
G1 X69.177 Y75.369 E7.59308
G1 X69.177 Y74.631 E7.61752
G1 X69.211 Y74.271 E7.62950
G1 X69.349 Y73.549 E7.65387
G1 X69.552 Y72.917 E7.67585
G1 X69.720 Y72.517 E7.69022
G1 X70.056 Y71.903 E7.71341
G1 X70.280 Y71.570 E7.72671
G1 X70.503 Y71.283 E7.73875
G1 X70.967 Y70.789 E7.76121
G1 X71.355 Y70.846 F7800.000
G1 X71.461 Y71.420 F7800.000
G1 F1800
G1 X71.881 Y71.025 E7.78077
G1 X72.417 Y70.636 E7.80326
G1 X72.875 Y70.390 E7.82091
G1 X70.380 Y72.886 E7.94070
G1 X70.196 Y73.297 E7.95599
G1 X70.122 Y73.528 E7.96423
G1 X73.527 Y70.123 E8.12766
G1 X74.065 Y69.970 E8.14665
G1 X69.980 Y74.056 E8.34274
G1 X69.894 Y74.526 E8.35899
G1 X71.284 Y73.136 E8.42572
G1 X71.192 Y73.333 E8.43310
G1 X71.056 Y73.749 E8.44795
G1 X69.870 Y74.934 E8.50486
G1 X69.870 Y75.319 E8.51792
G1 X70.947 Y74.243 E8.56960
G1 X70.898 Y74.677 E8.58443
G1 X69.894 Y75.681 E8.63263
G1 X69.952 Y76.007 E8.64388
G1 X70.896 Y75.063 E8.68920
G1 X70.930 Y75.414 E8.70117
G1 X70.014 Y76.330 E8.74514
G1 X70.097 Y76.632 E8.75575
G1 X70.980 Y75.749 E8.79813
G1 X71.059 Y76.055 E8.80886
G1 X70.198 Y76.916 E8.85019
G1 X70.319 Y77.180 E8.86004
G1 X71.151 Y76.348 E8.89998
G1 X71.262 Y76.621 E8.91001
G1 X70.442 Y77.441 E8.94938
G1 X70.490 Y77.543 E8.95319
G1 X70.577 Y77.691 E8.95902
G1 X71.392 Y76.876 E8.99814
G1 X71.529 Y77.124 E9.00776
G1 X70.731 Y77.922 E9.04603
G1 X70.893 Y78.145 E9.05539
G1 X71.688 Y77.350 E9.09351
G1 X71.850 Y77.573 E9.10285
G1 X71.061 Y78.362 E9.14072
G1 X71.248 Y78.560 E9.14996
G1 X72.030 Y77.777 E9.18752
G1 X72.227 Y77.965 E9.19676
G1 X71.434 Y78.758 E9.23484
G1 X71.643 Y78.935 E9.24411
G1 X72.428 Y78.149 E9.28182
G1 X72.651 Y78.311 E9.29117
G1 X71.853 Y79.109 E9.32946
G1 X72.074 Y79.273 E9.33879
G1 X72.876 Y78.471 E9.37727
G1 X73.124 Y78.608 E9.38689
G1 X72.313 Y79.419 E9.42582
G1 X72.561 Y79.555 E9.43544
G1 X73.379 Y78.737 E9.47470
G1 X73.655 Y78.846 E9.48477
G1 X72.813 Y79.688 E9.52517
G1 X73.086 Y79.800 E9.53518
G1 X73.945 Y78.941 E9.57641
G1 X74.251 Y79.020 E9.58713
G1 X73.377 Y79.894 E9.62911
G1 X73.670 Y79.986 E9.63953
G1 X74.579 Y79.076 E9.68319
G1 X74.941 Y79.100 E9.69548
G1 X73.993 Y80.048 E9.74096
G1 X74.276 Y80.102 E9.75075
G1 X74.321 Y80.105 E9.75227
G1 X75.323 Y79.102 E9.80039
G1 X75.757 Y79.053 E9.81522
G1 X74.683 Y80.127 E9.86680
G1 X75.066 Y80.129 E9.87981
G1 X76.251 Y78.944 E9.93669
G1 X76.653 Y78.814 E9.95103
G1 X76.853 Y78.727 E9.95842
G1 X75.477 Y80.103 E10.02446
G1 X75.944 Y80.020 E10.04057
G1 X80.020 Y75.944 E10.23621
G1 X79.981 Y76.149 E10.24328
G1 X79.876 Y76.474 E10.25487
G1 X76.474 Y79.876 E10.41816
G1 X76.751 Y79.786 E10.42803
G1 X77.125 Y79.610 E10.44206
G1 X79.620 Y77.115 E10.56182
G1 X79.348 Y77.609 E10.58094
G1 X79.179 Y77.858 E10.59117
G1 X78.994 Y78.096 E10.60139
G1 X78.333 Y78.787 E10.63385
G1 X78.727 Y76.853 F7800.000
G1 F1800
G1 X80.105 Y75.476 E10.69998
G1 X80.130 Y75.065 E10.71394
G1 X78.944 Y76.251 E10.77090
G1 X79.053 Y75.757 E10.78807
G1 X80.126 Y74.684 E10.83958
G1 X80.103 Y74.322 E10.85190
G1 X79.102 Y75.324 E10.89997
G1 X79.104 Y74.937 E10.91310
G1 X80.048 Y73.993 E10.95842
G1 X79.986 Y73.670 E10.96958
G1 X79.070 Y74.586 E11.01355
G1 X79.020 Y74.251 E11.02503
G1 X79.894 Y73.377 E11.06701
G1 X79.800 Y73.086 E11.07738
G1 X78.941 Y73.945 E11.11860
G1 X78.846 Y73.655 E11.12896
G1 X79.688 Y72.813 E11.16936
G1 X79.555 Y72.561 E11.17903
G1 X78.737 Y73.379 E11.21829
G1 X78.608 Y73.124 E11.22801
G1 X79.419 Y72.313 E11.26694
G1 X79.269 Y72.078 E11.27640
G1 X78.471 Y72.876 E11.31467
G1 X78.311 Y72.651 E11.32404
G1 X79.107 Y71.855 E11.36221
G1 X78.941 Y71.636 E11.37154
G1 X78.149 Y72.428 E11.40954
G1 X77.965 Y72.227 E11.41879
G1 X78.758 Y71.434 E11.45687
G1 X78.560 Y71.248 E11.46611
G1 X77.777 Y72.030 E11.50367
G1 X77.573 Y71.850 E11.51292
G1 X78.362 Y71.061 E11.55078
G1 X78.150 Y70.888 E11.56006
G1 X77.350 Y71.688 E11.59845
G1 X77.124 Y71.529 E11.60783
G1 X77.925 Y70.728 E11.64627
G1 X77.688 Y70.581 E11.65576
G1 X76.876 Y71.392 E11.69472
G1 X76.621 Y71.262 E11.70443
G1 X77.439 Y70.444 E11.74367
G1 X77.235 Y70.333 E11.75156
G1 X77.187 Y70.312 E11.75335
G1 X76.348 Y71.151 E11.79363
G1 X76.055 Y71.059 E11.80404
G1 X76.914 Y70.200 E11.84526
G1 X76.623 Y70.106 E11.85563
G1 X75.749 Y70.980 E11.89761
G1 X75.414 Y70.930 E11.90908
G1 X76.330 Y70.014 E11.95305
G1 X76.007 Y69.952 E11.96422
G1 X75.063 Y70.896 E12.00954
G1 X74.671 Y70.904 E12.02285
G1 X75.680 Y69.894 E12.07131
G1 X75.320 Y69.869 E12.08356
G1 X74.243 Y70.947 E12.13527
G1 X73.754 Y71.051 E12.15225
G1 X74.935 Y69.870 E12.20893
G1 X74.515 Y69.905 E12.22322
G1 X73.147 Y71.273 E12.28890
G1 X72.648 Y71.540 E12.30809
G1 X72.203 Y71.864 E12.32679
G1 X71.836 Y72.208 E12.34386
G1 X71.641 Y72.430 E12.35387
G1 X71.347 Y72.834 E12.37083
G1 X71.195 Y73.093 E12.38103
G1 X71.077 Y73.343 E12.39040
M106 S255
G1 Z0.500 F7800.000
G1 E10.39040 F2400.00000
G92 E0
G1 X72.138 Y71.599 F7800.000
G1 E2.00000 F2400.00000
G1 F1800
G1 X72.634 Y71.237 E2.02639
G1 X73.107 Y70.977 E2.04959
G1 X73.608 Y70.778 E2.07279
G1 X73.913 Y70.690 E2.08641
G1 X74.442 Y70.589 E2.10958
G1 X74.963 Y70.555 E2.13203
G1 X75.295 Y70.564 E2.14632
G1 X75.833 Y70.632 E2.16963
G1 X76.356 Y70.766 E2.19283
G1 X76.910 Y70.986 E2.21844
G1 X77.383 Y71.246 E2.24164
G1 X77.819 Y71.563 E2.26484
G1 X78.057 Y71.772 E2.27846
G1 X78.413 Y72.152 E2.30085
G1 X78.763 Y72.634 E2.32646
