; generated by Slic3r 1.3.0 on 2020-07-23 at 00:12:39

; external perimeters extrusion width = 0.44mm (2.86mm^3/s)
; perimeters extrusion width = 0.56mm (4.14mm^3/s)
; infill extrusion width = 0.50mm (3.66mm^3/s)
; solid infill extrusion width = 0.56mm (3.10mm^3/s)
; top infill extrusion width = 0.56mm (3.10mm^3/s)

M107
;D3D:START:START
T0
M104 S215 T0

G21
G90
M107
T0
G28
G29
M109 T0 S215 T0
G0 F3000
M107
T0
G92 E0
G0 X0 Y149 Z0.1 F3600
G1 Y49 E6.5 F1200
G0 Z1
G92 E0
; Filament gcode

G21 ; set units to millimeters
G90 ; use absolute coordinates
M82 ; use absolute distances for extrusion
G92 E0
G1 Z0.300 F7800.000
G1 E-2.00000 F2400.00000
G92 E0
G1 X68.592 Y68.973 F7800.000
G1 E2.00000 F2400.00000
G1 F1800
G1 X69.339 Y68.254 E2.03437
G1 X80.661 Y68.254 E2.40944
G1 X81.408 Y68.973 E2.44381
G1 X81.778 Y69.393 E2.46234
G1 X82.117 Y69.829 E2.48065
G1 X82.427 Y70.287 E2.49896
G1 X82.709 Y70.762 E2.51727
G1 X82.959 Y71.255 E2.53557
G1 X83.179 Y71.762 E2.55388
G1 X83.366 Y72.282 E2.57219
G1 X83.520 Y72.812 E2.59050
G1 X83.641 Y73.352 E2.60880
G1 X83.727 Y73.897 E2.62711
G1 X83.779 Y74.448 E2.64542
G1 X83.797 Y75.000 E2.66373
G1 X83.779 Y75.552 E2.68204
G1 X83.727 Y76.103 E2.70034
G1 X83.641 Y76.648 E2.71865
G1 X83.520 Y77.188 E2.73697
G1 X83.364 Y77.724 E2.75546
G1 X83.179 Y78.238 E2.77357
G1 X82.959 Y78.745 E2.79188
G1 X82.709 Y79.238 E2.81019
G1 X82.427 Y79.713 E2.82850
G1 X82.116 Y80.171 E2.84681
G1 X81.774 Y80.611 E2.86530
G1 X81.412 Y81.022 E2.88342
G1 X81.022 Y81.412 E2.90173
G1 X80.643 Y81.746 E2.91845
G1 X69.339 Y81.746 E3.29294
G1 X68.592 Y81.027 E3.32731
G1 X68.222 Y80.607 E3.34584
G1 X67.883 Y80.170 E3.36415
G1 X67.570 Y79.709 E3.38264
G1 X67.291 Y79.238 E3.40076
G1 X67.041 Y78.745 E3.41907
G1 X66.821 Y78.238 E3.43738
G1 X66.634 Y77.718 E3.45568
G1 X66.480 Y77.188 E3.47399
G1 X66.359 Y76.648 E3.49230
G1 X66.273 Y76.102 E3.51062
G1 X66.221 Y75.547 E3.52910
G1 X66.203 Y75.000 E3.54722
G1 X66.221 Y74.448 E3.56553
G1 X66.273 Y73.897 E3.58384
G1 X66.359 Y73.352 E3.60215
G1 X66.480 Y72.812 E3.62046
G1 X66.634 Y72.282 E3.63876
G1 X66.821 Y71.762 E3.65707
G1 X67.041 Y71.255 E3.67538
G1 X67.291 Y70.762 E3.69369
G1 X67.573 Y70.287 E3.71199
G1 X67.883 Y69.829 E3.73030
G1 X68.222 Y69.393 E3.74861
G1 X68.552 Y69.018 E3.76515
G1 X68.784 Y69.157 F7800.000
G1 F1800
G1 X69.446 Y68.519 E3.79561
G1 X80.554 Y68.519 E4.16359
G1 X81.216 Y69.157 E4.19405
G1 X81.573 Y69.562 E4.21194
G1 X81.902 Y69.986 E4.22970
G1 X82.203 Y70.429 E4.24745
G1 X82.476 Y70.890 E4.26521
G1 X82.719 Y71.368 E4.28296
G1 X82.932 Y71.860 E4.30072
G1 X83.113 Y72.364 E4.31847
G1 X83.263 Y72.878 E4.33623
G1 X83.380 Y73.401 E4.35398
G1 X83.464 Y73.931 E4.37174
G1 X83.514 Y74.464 E4.38949
G1 X83.531 Y75.000 E4.40725
G1 X83.514 Y75.536 E4.42500
G1 X83.464 Y76.069 E4.44276
G1 X83.380 Y76.599 E4.46051
G1 X83.263 Y77.122 E4.47827
G1 X83.111 Y77.641 E4.49620
G1 X82.932 Y78.140 E4.51377
G1 X82.719 Y78.632 E4.53153
G1 X82.476 Y79.110 E4.54928
G1 X82.203 Y79.571 E4.56704
G1 X81.902 Y80.014 E4.58480
G1 X81.569 Y80.442 E4.60273
G1 X81.219 Y80.840 E4.62030
G1 X80.840 Y81.219 E4.63806
G1 X80.543 Y81.481 E4.65118
G1 X69.446 Y81.481 E5.01879
G1 X68.784 Y80.843 E5.04926
G1 X68.427 Y80.438 E5.06715
G1 X68.098 Y80.014 E5.08491
G1 X67.794 Y79.566 E5.10284
G1 X67.524 Y79.110 E5.12041
G1 X67.281 Y78.632 E5.13816
G1 X67.068 Y78.140 E5.15592
G1 X66.887 Y77.636 E5.17367
G1 X66.737 Y77.122 E5.19143
G1 X66.620 Y76.599 E5.20918
G1 X66.536 Y76.069 E5.22694
G1 X66.486 Y75.530 E5.24488
G1 X66.469 Y75.000 E5.26245
G1 X66.486 Y74.464 E5.28020
G1 X66.536 Y73.931 E5.29796
G1 X66.620 Y73.401 E5.31571
G1 X66.737 Y72.878 E5.33347
G1 X66.887 Y72.364 E5.35122
G1 X67.068 Y71.860 E5.36898
G1 X67.281 Y71.368 E5.38673
G1 X67.524 Y70.890 E5.40449
G1 X67.797 Y70.429 E5.42224
G1 X68.098 Y69.986 E5.44000
G1 X68.427 Y69.562 E5.45775
G1 X68.744 Y69.202 E5.47365
G1 X68.976 Y69.341 F7800.000
G1 F1800
G1 X69.554 Y68.785 E5.50021
G1 X80.446 Y68.785 E5.86109
G1 X81.024 Y69.341 E5.88765
G1 X81.368 Y69.732 E5.90490
G1 X81.687 Y70.142 E5.92210
G1 X81.978 Y70.571 E5.93930
G1 X82.243 Y71.018 E5.95650
G1 X82.478 Y71.481 E5.97371
G1 X82.685 Y71.957 E5.99091
G1 X82.861 Y72.446 E6.00811
G1 X83.005 Y72.945 E6.02531
G1 X83.119 Y73.451 E6.04251
G1 X83.200 Y73.964 E6.05971
G1 X83.249 Y74.481 E6.07692
G1 X83.265 Y75.000 E6.09412
G1 X83.249 Y75.519 E6.11132
G1 X83.200 Y76.036 E6.12852
G1 X83.119 Y76.549 E6.14572
G1 X83.005 Y77.055 E6.16293
G1 X82.859 Y77.559 E6.18031
G1 X82.685 Y78.043 E6.19733
G1 X82.478 Y78.519 E6.21453
G1 X82.243 Y78.982 E6.23173
G1 X81.978 Y79.429 E6.24893
G1 X81.687 Y79.858 E6.26614
G1 X81.365 Y80.272 E6.28352
G1 X81.025 Y80.658 E6.30054
G1 X80.442 Y81.215 E6.32725
G1 X69.554 Y81.215 E6.68799
G1 X68.976 Y80.659 E6.71454
G1 X68.632 Y80.268 E6.73180
G1 X68.313 Y79.858 E6.74900
G1 X68.019 Y79.424 E6.76638
G1 X67.757 Y78.982 E6.78340
G1 X67.522 Y78.519 E6.80060
G1 X67.315 Y78.043 E6.81780
G1 X67.139 Y77.554 E6.83501
G1 X66.995 Y77.055 E6.85221
G1 X66.881 Y76.549 E6.86941
G1 X66.800 Y76.036 E6.88661
G1 X66.751 Y75.513 E6.90400
G1 X66.735 Y75.000 E6.92101
G1 X66.751 Y74.481 E6.93822
G1 X66.800 Y73.964 E6.95542
G1 X66.881 Y73.451 E6.97262
G1 X66.995 Y72.945 E6.98982
G1 X67.139 Y72.446 E7.00702
G1 X67.315 Y71.957 E7.02422
G1 X67.522 Y71.481 E7.04143
G1 X67.757 Y71.018 E7.05863
G1 X68.022 Y70.571 E7.07583
G1 X68.313 Y70.142 E7.09303
G1 X68.632 Y69.732 E7.11023
G1 X68.936 Y69.386 E7.12550
G1 X68.865 Y68.957 F7800.000
G1 X68.215 Y68.635 F7800.000
G1 F1800
G1 X68.631 Y68.218 E7.14500
G1 X69.080 Y67.824 E7.16481
G1 X69.532 Y67.473 E7.18374
G1 X70.015 Y67.145 E7.20310
G1 X70.518 Y66.847 E7.22246
G1 X71.039 Y66.582 E7.24182
G1 X71.575 Y66.350 E7.26119
G1 X72.125 Y66.152 E7.28055
G1 X72.651 Y65.999 E7.29869
G1 X73.258 Y65.861 E7.31932
G1 X73.834 Y65.770 E7.33864
G1 X74.416 Y65.715 E7.35800
G1 X75.000 Y65.697 E7.37736
G1 X75.536 Y65.713 E7.39513
G1 X76.168 Y65.770 E7.41614
G1 X76.743 Y65.861 E7.43545
G1 X77.314 Y65.989 E7.45481
G1 X77.875 Y66.152 E7.47417
G1 X78.425 Y66.350 E7.49353
G1 X78.961 Y66.582 E7.51290
G1 X79.482 Y66.847 E7.53226
G1 X79.985 Y67.145 E7.55162
G1 X80.468 Y67.473 E7.57099
G1 X80.930 Y67.832 E7.59035
G1 X81.368 Y68.217 E7.60967
G1 X81.782 Y68.631 E7.62908
G1 X82.168 Y69.070 E7.64844
G1 X82.527 Y69.532 E7.66780
G1 X82.855 Y70.015 E7.68716
G1 X83.153 Y70.518 E7.70652
G1 X83.418 Y71.039 E7.72589
G1 X83.650 Y71.575 E7.74525
G1 X83.847 Y72.121 E7.76446
G1 X84.011 Y72.686 E7.78398
G1 X84.139 Y73.257 E7.80334
G1 X84.230 Y73.834 E7.82270
G1 X84.285 Y74.416 E7.84206
G1 X84.303 Y75.000 E7.86143
G1 X84.285 Y75.584 E7.88079
G1 X84.230 Y76.166 E7.90015
G1 X84.139 Y76.743 E7.91951
G1 X84.011 Y77.314 E7.93888
G1 X83.848 Y77.875 E7.95824
G1 X83.650 Y78.425 E7.97760
G1 X83.418 Y78.961 E7.99696
G1 X83.153 Y79.482 E8.01633
G1 X82.855 Y79.985 E8.03569
G1 X82.527 Y80.468 E8.05505
G1 X82.168 Y80.930 E8.07442
G1 X81.782 Y81.369 E8.09378
G1 X81.369 Y81.782 E8.11314
G1 X80.930 Y82.168 E8.13250
G1 X80.468 Y82.527 E8.15187
G1 X79.985 Y82.855 E8.17123
G1 X79.482 Y83.153 E8.19059
G1 X78.961 Y83.418 E8.20995
G1 X78.425 Y83.650 E8.22932
G1 X77.875 Y83.848 E8.24868
G1 X77.314 Y84.011 E8.26804
G1 X76.743 Y84.139 E8.28741
G1 X76.168 Y84.230 E8.30671
G1 X75.536 Y84.287 E8.32773
G1 X75.000 Y84.303 E8.34549
G1 X74.416 Y84.285 E8.36485
G1 X73.834 Y84.230 E8.38422
G1 X73.257 Y84.139 E8.40358
G1 X72.687 Y84.011 E8.42291
G1 X72.098 Y83.838 E8.44326
G1 X71.575 Y83.650 E8.46166
G1 X71.039 Y83.418 E8.48103
G1 X70.518 Y83.153 E8.50039
G1 X70.015 Y82.855 E8.51975
G1 X69.532 Y82.527 E8.53912
G1 X69.070 Y82.168 E8.55848
G1 X68.632 Y81.783 E8.57780
G1 X68.218 Y81.369 E8.59721
G1 X67.832 Y80.930 E8.61657
G1 X67.473 Y80.468 E8.63593
G1 X67.145 Y79.985 E8.65529
G1 X66.847 Y79.482 E8.67465
G1 X66.582 Y78.961 E8.69402
G1 X66.350 Y78.425 E8.71338
G1 X66.152 Y77.875 E8.73274
G1 X65.989 Y77.314 E8.75211
G1 X65.861 Y76.743 E8.77147
G1 X65.770 Y76.166 E8.79083
G1 X65.715 Y75.584 E8.81019
G1 X65.697 Y75.000 E8.82956
G1 X65.715 Y74.416 E8.84892
G1 X65.770 Y73.834 E8.86828
G1 X65.861 Y73.257 E8.88764
G1 X65.989 Y72.686 E8.90701
G1 X66.152 Y72.125 E8.92637
G1 X66.350 Y71.575 E8.94573
G1 X66.582 Y71.039 E8.96510
G1 X66.847 Y70.518 E8.98446
G1 X67.145 Y70.015 E9.00382
G1 X67.473 Y69.532 E9.02318
G1 X67.832 Y69.070 E9.04255
G1 X68.175 Y68.680 E9.05977
G1 X68.021 Y68.453 F7800.000
G1 F1800
G1 X68.449 Y68.025 E9.07983
G1 X68.911 Y67.619 E9.10019
G1 X69.375 Y67.258 E9.11967
G1 X69.873 Y66.920 E9.13959
G1 X70.390 Y66.614 E9.15950
G1 X70.926 Y66.342 E9.17942
G1 X71.477 Y66.103 E9.19933
G1 X72.043 Y65.899 E9.21925
G1 X72.584 Y65.742 E9.23792
G1 X73.208 Y65.600 E9.25910
G1 X73.801 Y65.506 E9.27899
G1 X74.399 Y65.450 E9.29891
G1 X75.000 Y65.431 E9.31883
G1 X75.552 Y65.448 E9.33712
G1 X76.200 Y65.506 E9.35869
G1 X76.793 Y65.600 E9.37857
G1 X77.380 Y65.731 E9.39849
G1 X77.957 Y65.899 E9.41840
G1 X78.523 Y66.103 E9.43832
G1 X79.074 Y66.342 E9.45823
G1 X79.610 Y66.614 E9.47815
G1 X80.127 Y66.920 E9.49806
G1 X80.625 Y67.258 E9.51798
G1 X81.100 Y67.627 E9.53790
G1 X81.550 Y68.024 E9.55777
G1 X81.976 Y68.449 E9.57773
G1 X82.373 Y68.900 E9.59764
G1 X82.742 Y69.375 E9.61756
G1 X83.080 Y69.873 E9.63747
G1 X83.386 Y70.390 E9.65739
G1 X83.658 Y70.926 E9.67731
G1 X83.897 Y71.477 E9.69722
G1 X84.099 Y72.039 E9.71699
G1 X84.269 Y72.620 E9.73706
G1 X84.400 Y73.207 E9.75697
G1 X84.494 Y73.801 E9.77689
G1 X84.550 Y74.399 E9.79680
G1 X84.569 Y75.000 E9.81672
G1 X84.550 Y75.601 E9.83663
G1 X84.494 Y76.199 E9.85655
G1 X84.400 Y76.793 E9.87646
G1 X84.269 Y77.380 E9.89638
G1 X84.101 Y77.957 E9.91630
G1 X83.897 Y78.523 E9.93621
G1 X83.658 Y79.074 E9.95613
G1 X83.386 Y79.610 E9.97604
G1 X83.080 Y80.127 E9.99596
G1 X82.742 Y80.625 E10.01587
G1 X82.373 Y81.100 E10.03579
G1 X81.976 Y81.551 E10.05571
G1 X81.551 Y81.976 E10.07562
G1 X81.100 Y82.373 E10.09554
G1 X80.625 Y82.742 E10.11545
G1 X80.127 Y83.080 E10.13537
G1 X79.610 Y83.386 E10.15529
G1 X79.074 Y83.658 E10.17520
G1 X78.523 Y83.897 E10.19512
G1 X77.957 Y84.101 E10.21503
G1 X77.380 Y84.269 E10.23495
G1 X76.793 Y84.400 E10.25486
G1 X76.200 Y84.494 E10.27475
G1 X75.552 Y84.552 E10.29631
G1 X75.000 Y84.569 E10.31461
G1 X74.399 Y84.550 E10.33452
G1 X73.801 Y84.494 E10.35444
G1 X73.207 Y84.400 E10.37436
G1 X72.621 Y84.269 E10.39425
G1 X72.015 Y84.091 E10.41515
G1 X71.477 Y83.897 E10.43410
G1 X70.926 Y83.658 E10.45402
G1 X70.390 Y83.386 E10.47393
G1 X69.873 Y83.080 E10.49385
G1 X69.375 Y82.742 E10.51376
G1 X68.900 Y82.373 E10.53368
G1 X68.450 Y81.976 E10.55355
G1 X68.024 Y81.551 E10.57351
G1 X67.627 Y81.100 E10.59343
G1 X67.258 Y80.625 E10.61334
G1 X66.920 Y80.127 E10.63326
G1 X66.614 Y79.610 E10.65318
G1 X66.342 Y79.074 E10.67309
G1 X66.103 Y78.523 E10.69301
G1 X65.899 Y77.957 E10.71292
G1 X65.731 Y77.380 E10.73284
G1 X65.600 Y76.793 E10.75275
G1 X65.506 Y76.199 E10.77267
G1 X65.450 Y75.601 E10.79259
G1 X65.431 Y75.000 E10.81250
G1 X65.450 Y74.399 E10.83242
G1 X65.506 Y73.801 E10.85233
G1 X65.600 Y73.207 E10.87225
G1 X65.731 Y72.620 E10.89217
G1 X65.899 Y72.043 E10.91208
G1 X66.103 Y71.477 E10.93200
G1 X66.342 Y70.926 E10.95191
G1 X66.614 Y70.390 E10.97183
G1 X66.920 Y69.873 E10.99174
G1 X67.258 Y69.375 E11.01166
G1 X67.627 Y68.900 E11.03158
G1 X67.982 Y68.498 E11.04935
G1 X67.828 Y68.271 F7800.000
G1 F1800
G1 X68.267 Y67.831 E11.06997
G1 X68.742 Y67.414 E11.09089
G1 X69.219 Y67.043 E11.11091
G1 X69.730 Y66.696 E11.13138
G1 X70.262 Y66.382 E11.15185
G1 X70.812 Y66.101 E11.17232
G1 X71.380 Y65.856 E11.19279
G1 X71.961 Y65.646 E11.21326
G1 X72.518 Y65.485 E11.23247
G1 X73.157 Y65.339 E11.25420
G1 X73.767 Y65.243 E11.27466
G1 X74.382 Y65.184 E11.29513
G1 X75.000 Y65.165 E11.31560
G1 X75.568 Y65.183 E11.33443
G1 X76.233 Y65.243 E11.35655
G1 X76.843 Y65.339 E11.37700
G1 X77.446 Y65.474 E11.39747
G1 X78.039 Y65.646 E11.41794
G1 X78.620 Y65.856 E11.43841
G1 X79.188 Y66.101 E11.45888
G1 X79.738 Y66.382 E11.47935
G1 X80.270 Y66.696 E11.49981
G1 X80.781 Y67.043 E11.52028
G1 X81.269 Y67.422 E11.54075
G1 X81.732 Y67.830 E11.56118
G1 X82.169 Y68.268 E11.58169
G1 X82.578 Y68.731 E11.60216
G1 X82.957 Y69.219 E11.62263
G1 X83.304 Y69.730 E11.64310
G1 X83.618 Y70.262 E11.66357
G1 X83.899 Y70.812 E11.68403
G1 X84.144 Y71.380 E11.70450
G1 X84.352 Y71.956 E11.72482
G1 X84.526 Y72.554 E11.74544
G1 X84.661 Y73.157 E11.76591
G1 X84.757 Y73.767 E11.78638
G1 X84.816 Y74.382 E11.80685
G1 X84.835 Y75.000 E11.82732
G1 X84.816 Y75.618 E11.84779
G1 X84.757 Y76.233 E11.86825
G1 X84.661 Y76.843 E11.88872
G1 X84.526 Y77.446 E11.90919
G1 X84.354 Y78.039 E11.92966
G1 X84.144 Y78.620 E11.95013
G1 X83.899 Y79.188 E11.97060
G1 X83.618 Y79.738 E11.99107
G1 X83.304 Y80.270 E12.01154
G1 X82.957 Y80.781 E12.03201
G1 X82.578 Y81.269 E12.05247
G1 X82.169 Y81.732 E12.07294
G1 X81.732 Y82.169 E12.09341
G1 X81.269 Y82.578 E12.11388
G1 X80.781 Y82.957 E12.13435
G1 X80.270 Y83.304 E12.15482
G1 X79.738 Y83.618 E12.17529
G1 X79.188 Y83.899 E12.19576
G1 X78.620 Y84.144 E12.21623
G1 X78.039 Y84.354 E12.23669
G1 X77.446 Y84.526 E12.25716
G1 X76.843 Y84.661 E12.27763
G1 X76.233 Y84.757 E12.29809
G1 X75.568 Y84.817 E12.32021
G1 X75.000 Y84.835 E12.33904
G1 X74.382 Y84.816 E12.35950
G1 X73.767 Y84.757 E12.37997
G1 X73.157 Y84.661 E12.40044
G1 X72.554 Y84.526 E12.42090
G1 X71.933 Y84.344 E12.44236
G1 X71.380 Y84.144 E12.46185
G1 X70.812 Y83.899 E12.48232
G1 X70.262 Y83.618 E12.50279
G1 X69.730 Y83.304 E12.52325
G1 X69.219 Y82.957 E12.54372
G1 X68.731 Y82.578 E12.56419
G1 X68.269 Y82.170 E12.58462
G1 X67.831 Y81.732 E12.60513
G1 X67.422 Y81.269 E12.62560
G1 X67.043 Y80.781 E12.64607
G1 X66.696 Y80.270 E12.66654
G1 X66.382 Y79.738 E12.68701
G1 X66.101 Y79.188 E12.70747
G1 X65.856 Y78.620 E12.72794
G1 X65.646 Y78.039 E12.74841
G1 X65.474 Y77.446 E12.76888
G1 X65.339 Y76.843 E12.78935
G1 X65.243 Y76.233 E12.80982
G1 X65.184 Y75.618 E12.83029
G1 X65.165 Y75.000 E12.85076
G1 X65.184 Y74.382 E12.87123
G1 X65.243 Y73.767 E12.89169
G1 X65.339 Y73.157 E12.91216
G1 X65.474 Y72.554 E12.93263
G1 X65.646 Y71.961 E12.95310
G1 X65.856 Y71.380 E12.97357
G1 X66.101 Y70.812 E12.99404
G1 X66.382 Y70.262 E13.01451
G1 X66.696 Y69.730 E13.03498
G1 X67.043 Y69.219 E13.05545
G1 X67.422 Y68.731 E13.07591
G1 X67.788 Y68.316 E13.09424
G1 X68.217 Y68.362 F7800.000
G1 X69.228 Y68.023 F7800.000
G1 F1800
G1 X68.400 Y68.808 E13.11759
G1 X68.027 Y69.231 E13.12912
G1 X67.681 Y69.678 E13.14067
G1 X67.357 Y70.154 E13.15246
G1 X67.069 Y70.640 E13.16401
G1 X66.811 Y71.147 E13.17563
G1 X66.586 Y71.668 E13.18726
G1 X66.393 Y72.203 E13.19889
G1 X66.234 Y72.749 E13.21052
G1 X66.111 Y73.300 E13.22207
G1 X66.021 Y73.870 E13.23385
G1 X65.968 Y74.432 E13.24540
G1 X65.950 Y75.000 E13.25703
G1 X65.968 Y75.566 E13.26862
G1 X66.021 Y76.130 E13.28020
G1 X66.111 Y76.700 E13.29199
G1 X66.234 Y77.251 E13.30354
G1 X66.393 Y77.797 E13.31517
G1 X66.586 Y78.332 E13.32680
G1 X66.811 Y78.853 E13.33843
G1 X67.069 Y79.360 E13.35006
G1 X67.354 Y79.841 E13.36149
G1 X67.681 Y80.322 E13.37339
G1 X68.027 Y80.769 E13.38494
G1 X68.403 Y81.195 E13.39657
G1 X69.227 Y81.978 E13.41982
G1 X69.440 Y82.115 F7800.000
G1 F1800
G1 X69.646 Y81.909 E13.42970
G1 X70.030 Y81.909 E13.44268
G1 X69.550 Y82.388 E13.46563
G1 X69.776 Y82.545 E13.47495
G1 X70.413 Y81.909 E13.50543
G1 X70.797 Y81.909 E13.51840
G1 X70.005 Y82.701 E13.55630
G1 X70.243 Y82.846 E13.56574
G1 X71.181 Y81.909 E13.61059
G1 X71.564 Y81.909 E13.62356
G1 X70.484 Y82.988 E13.67523
G1 X70.735 Y83.121 E13.68483
G1 X71.948 Y81.909 E13.74284
G1 X72.331 Y81.909 E13.75582
G1 X70.989 Y83.251 E13.82003
G1 X71.254 Y83.370 E13.82984
G1 X72.715 Y81.909 E13.89974
G1 X73.098 Y81.909 E13.91272
G1 X71.522 Y83.485 E13.98817
G1 X71.801 Y83.590 E13.99826
G1 X73.482 Y81.909 E14.07868
G1 X73.866 Y81.909 E14.09166
G1 X72.083 Y83.691 E14.17693
G1 X72.380 Y83.778 E14.18738
G1 X74.249 Y81.909 E14.27682
G1 X74.633 Y81.909 E14.28980
G1 X72.678 Y83.863 E14.38333
G1 X72.991 Y83.934 E14.39419
G1 X75.016 Y81.909 E14.49108
G1 X75.400 Y81.909 E14.50405
G1 X73.311 Y83.998 E14.60401
G1 X73.642 Y84.050 E14.61536
G1 X75.784 Y81.909 E14.71783
G1 X76.167 Y81.909 E14.73080
G1 X73.985 Y84.091 E14.83520
G1 X74.336 Y84.123 E14.84712
